(G-CODE GENERATED BY FLATCAM v8.993 - www.flatcam.org - Version Date: 2020/06/05)

(Name: crem_30g_03)
(Type: G-code from Geometry)
(Units: MM)

(Created on Saturday, 21 November 2020 at 19:22)

(This preprocessor is the default preprocessor used by FlatCAM.)
(It is made to work with MACH3 compatible motion controllers.)

(TOOL DIAMETER: 0.35 mm)
(Feedrate_XY: 60.0 mm/min)
(Feedrate_Z: 30.0 mm/min)
(Feedrate rapids 1500.0 mm/min)

(Z_Cut: -0.0933 mm)
(DepthPerCut: 0.048 mm <=>2 passes)
(Z_Move: 2.0 mm)
(Z Start: None mm)
(Z End: 15.0 mm)
(Steps per circle: 64)
(Preprocessor Geometry: default)

(X range:    0.0750 ...   11.9250  mm)
(Y range:    0.0750 ...   21.9250  mm)

(Spindle Speed: None RPM)
G21
G90
G94



G01 F60.00
G00 Z2.0000

M03
G00 X3.9425 Y1.4446
G01 F30.00
G01 Z-0.0480
G01 F60.00
G01 X3.9425 Y0.0750
G01 X3.6450 Y0.0750
G01 X3.6450 Y7.9729
G00 X3.6450 Y7.9729
G01 F30.00
G01 Z-0.0933
G01 F60.00
G01 X3.6450 Y0.0750
G01 X3.9425 Y0.0750
G01 X3.9425 Y1.4446
G00 Z2.0000
G00 X4.2400 Y1.1050
G01 F30.00
G01 Z-0.0480
G01 F60.00
G01 X4.2400 Y0.0750
G01 X4.5375 Y0.0750
G01 X4.5375 Y0.9431
G00 X4.5375 Y0.9431
G01 F30.00
G01 Z-0.0933
G01 F60.00
G01 X4.5375 Y0.0750
G01 X4.2400 Y0.0750
G01 X4.2400 Y1.1050
G00 Z2.0000
G00 X4.8350 Y0.8788
G01 F30.00
G01 Z-0.0480
G01 F60.00
G01 X4.8350 Y0.0750
G01 X5.1325 Y0.0750
G01 X5.1325 Y0.8954
G00 X5.1325 Y0.8954
G01 F30.00
G01 Z-0.0933
G01 F60.00
G01 X5.1325 Y0.0750
G01 X4.8350 Y0.0750
G01 X4.8350 Y0.8788
G00 Z2.0000
G00 X5.4300 Y0.9979
G01 F30.00
G01 Z-0.0480
G01 F60.00
G01 X5.4300 Y0.0750
G01 X5.7275 Y0.0750
G01 X5.7275 Y1.2173
G00 X5.7275 Y1.2173
G01 F30.00
G01 Z-0.0933
G01 F60.00
G01 X5.7275 Y0.0750
G01 X5.4300 Y0.0750
G01 X5.4300 Y0.9979
G00 Z2.0000
G00 X6.0250 Y1.7897
G01 F30.00
G01 Z-0.0480
G01 F60.00
G01 X6.0250 Y0.0750
G01 X6.3225 Y0.0750
G01 X6.3225 Y7.9362
G00 X6.3225 Y7.9362
G01 F30.00
G01 Z-0.0933
G01 F60.00
G01 X6.3225 Y0.0750
G01 X6.0250 Y0.0750
G01 X6.0250 Y1.7897
G00 Z2.0000
G00 X6.0250 Y2.2103
G01 F30.00
G01 Z-0.0480
G01 F60.00
G01 X6.0250 Y8.0420
G00 X6.0250 Y8.0420
G01 F30.00
G01 Z-0.0933
G01 F60.00
G01 X6.0250 Y2.2103
G00 Z2.0000
G00 X5.7275 Y2.7827
G01 F30.00
G01 Z-0.0480
G01 F60.00
G01 X5.7275 Y7.9250
G00 X5.7275 Y7.9250
G01 F30.00
G01 Z-0.0933
G01 F60.00
G01 X5.7275 Y2.7827
G00 Z2.0000
G00 X5.4300 Y3.0021
G01 F30.00
G01 Z-0.0480
G01 F60.00
G01 X5.4300 Y7.9250
G01 X6.9175 Y7.9250
G01 X6.9175 Y5.8410
G00 X6.9175 Y5.8410
G01 F30.00
G01 Z-0.0933
G01 F60.00
G01 X6.9175 Y7.9250
G01 X5.4300 Y7.9250
G01 X5.4300 Y3.0021
G00 Z2.0000
G00 X6.6200 Y2.7469
G01 F30.00
G01 Z-0.0480
G01 F60.00
G01 X6.6200 Y7.9250
G00 X6.6200 Y7.9250
G01 F30.00
G01 Z-0.0933
G01 F60.00
G01 X6.6200 Y2.7469
G00 Z2.0000
G00 X6.6200 Y1.2531
G01 F30.00
G01 Z-0.0480
G01 F60.00
G01 X6.6200 Y0.0750
G00 X6.6200 Y0.0750
G01 F30.00
G01 Z-0.0933
G01 F60.00
G01 X6.6200 Y1.2531
G00 Z2.0000
G00 X6.9175 Y1.0148
G01 F30.00
G01 Z-0.0480
G01 F60.00
G01 X6.9175 Y0.0750
G01 X7.2150 Y0.0750
G01 X7.2150 Y0.9027
G00 X7.2150 Y0.9027
G01 F30.00
G01 Z-0.0933
G01 F60.00
G01 X7.2150 Y0.0750
G01 X6.9175 Y0.0750
G01 X6.9175 Y1.0148
G00 Z2.0000
G00 X7.5125 Y0.8772
G01 F30.00
G01 Z-0.0480
G01 F60.00
G01 X7.5125 Y0.0750
G01 X7.8100 Y0.0750
G01 X7.8100 Y0.9315
G00 X7.8100 Y0.9315
G01 F30.00
G01 Z-0.0933
G01 F60.00
G01 X7.8100 Y0.0750
G01 X7.5125 Y0.0750
G01 X7.5125 Y0.8772
G00 Z2.0000
G00 X8.1075 Y1.0809
G01 F30.00
G01 Z-0.0480
G01 F60.00
G01 X8.1075 Y0.0750
G01 X8.4050 Y0.0750
G01 X8.4050 Y1.3904
G00 X8.4050 Y1.3904
G01 F30.00
G01 Z-0.0933
G01 F60.00
G01 X8.4050 Y0.0750
G01 X8.1075 Y0.0750
G01 X8.1075 Y1.0809
G00 Z2.0000
G00 X8.9496 Y0.9618
G01 F30.00
G01 Z-0.0480
G01 F60.00
G01 X8.9586 Y0.9525
G01 X8.9725 Y0.9400
G01 X8.9792 Y0.9345
G01 X8.9939 Y0.9236
G01 X9.0045 Y0.9168
G01 X9.0198 Y0.9078
G01 X9.0408 Y0.8976
G01 X9.0487 Y0.8943
G01 X9.0660 Y0.8882
G01 X9.0742 Y0.8857
G01 X9.0921 Y0.8812
G01 X9.1006 Y0.8795
G01 X9.1188 Y0.8768
G01 X9.1414 Y0.8752
G01 X10.8547 Y0.8751
G01 X10.8768 Y0.8763
G01 X10.8952 Y0.8788
G01 X10.9079 Y0.8812
G01 X10.9300 Y0.8869
G01 X10.9513 Y0.8943
G01 X10.9631 Y0.8994
G01 X10.9805 Y0.9079
G01 X10.9995 Y0.9192
G01 X11.0177 Y0.9321
G01 X11.0276 Y0.9401
G01 X11.0447 Y0.9557
G01 X11.0571 Y0.9692
G01 X11.0653 Y0.9790
G01 X11.0784 Y0.9968
G01 X11.0883 Y1.0129
G01 X11.0945 Y1.0243
G01 X11.1024 Y1.0410
G01 X11.1072 Y1.0528
G01 X11.1132 Y1.0703
G01 X11.1178 Y1.0880
G01 X11.1204 Y1.1002
G01 X11.1233 Y1.1194
G01 X11.1243 Y1.1316
G01 X11.1250 Y1.1500
G01 X11.1250 Y2.8500
G01 X11.1238 Y2.8756
G01 X11.1212 Y2.8952
G01 X11.1188 Y2.9082
G01 X11.1132 Y2.9296
G01 X11.1072 Y2.9472
G01 X11.1024 Y2.9590
G01 X11.0945 Y2.9757
G01 X11.0883 Y2.9871
G01 X11.0780 Y3.0037
G01 X11.0653 Y3.0210
G01 X11.0570 Y3.0310
G01 X11.0445 Y3.0445
G01 X11.0310 Y3.0570
G01 X11.0211 Y3.0653
G01 X11.0061 Y3.0764
G01 X10.9955 Y3.0832
G01 X10.9805 Y3.0921
G01 X10.9631 Y3.1006
G01 X10.9511 Y3.1057
G01 X10.9380 Y3.1105
G01 X10.9215 Y3.1154
G01 X10.8994 Y3.1205
G01 X10.8814 Y3.1232
G01 X10.8728 Y3.1240
G01 X10.8500 Y3.1250
G01 X10.6252 Y3.1250
G01 X10.6252 Y3.9410
G01 X10.8091 Y4.1250
G01 X11.2531 Y4.1250
G01 X11.2728 Y4.1260
G01 X11.2814 Y4.1268
G01 X11.2998 Y4.1296
G01 X11.3120 Y4.1322
G01 X11.3296 Y4.1368
G01 X11.3472 Y4.1428
G01 X11.3590 Y4.1476
G01 X11.3763 Y4.1557
G01 X11.3871 Y4.1617
G01 X11.4034 Y4.1717
G01 X11.4181 Y4.1824
G01 X11.4279 Y4.1904
G01 X11.4414 Y4.2025
G01 X11.4504 Y4.2118
G01 X11.4624 Y4.2253
G01 X11.4760 Y4.2434
G01 X11.4832 Y4.2545
G01 X11.4928 Y4.2708
G01 X11.5006 Y4.2869
G01 X11.5057 Y4.2989
G01 X11.5131 Y4.3200
G01 X11.5196 Y4.3459
G01 X11.5226 Y4.3645
G01 X11.5238 Y4.3744
G01 X11.5250 Y4.4000
G01 X11.5250 Y5.6000
G01 X11.5238 Y5.6256
G01 X11.5212 Y5.6452
G01 X11.5188 Y5.6581
G01 X11.5143 Y5.6758
G01 X11.5105 Y5.6880
G01 X11.5042 Y5.7049
G01 X11.4946 Y5.7256
G01 X11.4883 Y5.7371
G01 X11.4783 Y5.7534
G01 X11.4679 Y5.7677
G01 X11.4597 Y5.7779
G01 X11.4445 Y5.7945
G01 X11.4310 Y5.8070
G01 X11.4208 Y5.8155
G01 X11.4058 Y5.8266
G01 X11.3871 Y5.8383
G01 X11.3763 Y5.8443
G01 X11.3590 Y5.8524
G01 X11.3472 Y5.8572
G01 X11.3296 Y5.8632
G01 X11.3120 Y5.8678
G01 X11.2998 Y5.8704
G01 X11.2814 Y5.8732
G01 X11.2728 Y5.8740
G01 X11.2531 Y5.8750
G01 X10.3469 Y5.8750
G01 X10.3228 Y5.8736
G01 X10.3048 Y5.8712
G01 X10.2880 Y5.8678
G01 X10.2662 Y5.8619
G01 X10.2451 Y5.8542
G01 X10.2237 Y5.8443
G01 X10.2045 Y5.8332
G01 X10.1934 Y5.8260
G01 X10.1785 Y5.8149
G01 X10.1721 Y5.8096
G01 X10.1586 Y5.7975
G01 X10.1525 Y5.7914
G01 X10.1403 Y5.7779
G01 X10.1348 Y5.7712
G01 X10.1240 Y5.7566
G01 X10.1192 Y5.7495
G01 X10.1094 Y5.7332
G01 X10.1054 Y5.7256
G01 X10.0976 Y5.7090
G01 X10.0943 Y5.7011
G01 X10.0882 Y5.6840
G01 X10.0857 Y5.6758
G01 X10.0812 Y5.6581
G01 X10.0795 Y5.6497
G01 X10.0762 Y5.6256
G01 X10.0750 Y5.6000
G01 X10.0750 Y5.1591
G01 X9.5516 Y4.6354
G01 X9.5199 Y4.6003
G01 X9.5084 Y4.5860
G01 X9.4859 Y4.5555
G01 X9.4756 Y4.5401
G01 X9.4553 Y4.5064
G01 X9.4440 Y4.4856
G01 X9.4259 Y4.4472
G01 X9.4190 Y4.4305
G01 X9.4054 Y4.3926
G01 X9.3987 Y4.3706
G01 X9.3887 Y4.3306
G01 X9.3855 Y4.3143
G01 X9.3790 Y4.2713
G01 X9.3768 Y4.2478
G01 X9.3748 Y4.2000
G01 X9.3748 Y3.1250
G01 X9.1500 Y3.1250
G01 X9.1272 Y3.1240
G01 X9.1186 Y3.1232
G01 X9.1006 Y3.1205
G01 X9.0921 Y3.1188
G01 X9.0744 Y3.1144
G01 X9.0662 Y3.1119
G01 X9.0489 Y3.1057
G01 X9.0280 Y3.0964
G01 X9.0159 Y3.0900
G01 X8.9972 Y3.0786
G01 X8.9823 Y3.0679
G01 X8.9723 Y3.0598
G01 X8.9586 Y3.0475
G01 X8.9496 Y3.0382
G01 X8.9373 Y3.0243
G01 X8.9241 Y3.0068
G01 X8.9168 Y2.9955
G01 X8.9074 Y2.9795
G01 X8.8994 Y2.9631
G01 X8.8943 Y2.9511
G01 X8.8881 Y2.9338
G01 X8.8846 Y2.9215
G01 X8.8804 Y2.9043
G01 X8.8774 Y2.8855
G01 X8.8759 Y2.8720
G01 X8.8750 Y2.8500
G01 X8.8751 Y1.1437
G01 X8.8767 Y1.1194
G01 X8.8804 Y1.0956
G01 X8.8868 Y1.0703
G01 X8.8958 Y1.0451
G01 X8.9074 Y1.0205
G01 X8.9192 Y1.0005
G01 X8.9240 Y0.9934
G01 X8.9349 Y0.9787
G01 X8.9496 Y0.9618
G00 X8.9496 Y0.9618
G01 F30.00
G01 Z-0.0933
G01 F60.00
G01 X8.9349 Y0.9787
G01 X8.9240 Y0.9934
G01 X8.9192 Y1.0005
G01 X8.9074 Y1.0205
G01 X8.8958 Y1.0451
G01 X8.8868 Y1.0703
G01 X8.8804 Y1.0956
G01 X8.8767 Y1.1194
G01 X8.8751 Y1.1437
G01 X8.8750 Y2.8500
G01 X8.8759 Y2.8720
G01 X8.8774 Y2.8855
G01 X8.8804 Y2.9043
G01 X8.8846 Y2.9215
G01 X8.8881 Y2.9338
G01 X8.8943 Y2.9511
G01 X8.8994 Y2.9631
G01 X8.9074 Y2.9795
G01 X8.9168 Y2.9955
G01 X8.9241 Y3.0068
G01 X8.9373 Y3.0243
G01 X8.9496 Y3.0382
G01 X8.9586 Y3.0475
G01 X8.9723 Y3.0598
G01 X8.9823 Y3.0679
G01 X8.9972 Y3.0786
G01 X9.0159 Y3.0900
G01 X9.0280 Y3.0964
G01 X9.0489 Y3.1057
G01 X9.0662 Y3.1119
G01 X9.0744 Y3.1144
G01 X9.0921 Y3.1188
G01 X9.1006 Y3.1205
G01 X9.1186 Y3.1232
G01 X9.1272 Y3.1240
G01 X9.1500 Y3.1250
G01 X9.3748 Y3.1250
G01 X9.3748 Y4.2000
G01 X9.3768 Y4.2478
G01 X9.3790 Y4.2713
G01 X9.3855 Y4.3143
G01 X9.3887 Y4.3306
G01 X9.3987 Y4.3706
G01 X9.4054 Y4.3926
G01 X9.4190 Y4.4305
G01 X9.4259 Y4.4472
G01 X9.4440 Y4.4856
G01 X9.4553 Y4.5064
G01 X9.4756 Y4.5401
G01 X9.4859 Y4.5555
G01 X9.5084 Y4.5860
G01 X9.5199 Y4.6003
G01 X9.5516 Y4.6354
G01 X10.0750 Y5.1591
G01 X10.0750 Y5.6000
G01 X10.0762 Y5.6256
G01 X10.0795 Y5.6497
G01 X10.0812 Y5.6581
G01 X10.0857 Y5.6758
G01 X10.0882 Y5.6840
G01 X10.0943 Y5.7011
G01 X10.0976 Y5.7090
G01 X10.1054 Y5.7256
G01 X10.1094 Y5.7332
G01 X10.1192 Y5.7495
G01 X10.1240 Y5.7566
G01 X10.1348 Y5.7712
G01 X10.1403 Y5.7779
G01 X10.1525 Y5.7914
G01 X10.1586 Y5.7975
G01 X10.1721 Y5.8096
G01 X10.1785 Y5.8149
G01 X10.1934 Y5.8260
G01 X10.2045 Y5.8332
G01 X10.2237 Y5.8443
G01 X10.2451 Y5.8542
G01 X10.2662 Y5.8619
G01 X10.2880 Y5.8678
G01 X10.3048 Y5.8712
G01 X10.3228 Y5.8736
G01 X10.3469 Y5.8750
G01 X11.2531 Y5.8750
G01 X11.2728 Y5.8740
G01 X11.2814 Y5.8732
G01 X11.2998 Y5.8704
G01 X11.3120 Y5.8678
G01 X11.3296 Y5.8632
G01 X11.3472 Y5.8572
G01 X11.3590 Y5.8524
G01 X11.3763 Y5.8443
G01 X11.3871 Y5.8383
G01 X11.4058 Y5.8266
G01 X11.4208 Y5.8155
G01 X11.4310 Y5.8070
G01 X11.4445 Y5.7945
G01 X11.4597 Y5.7779
G01 X11.4679 Y5.7677
G01 X11.4783 Y5.7534
G01 X11.4883 Y5.7371
G01 X11.4946 Y5.7256
G01 X11.5042 Y5.7049
G01 X11.5105 Y5.6880
G01 X11.5143 Y5.6758
G01 X11.5188 Y5.6581
G01 X11.5212 Y5.6452
G01 X11.5238 Y5.6256
G01 X11.5250 Y5.6000
G01 X11.5250 Y4.4000
G01 X11.5238 Y4.3744
G01 X11.5226 Y4.3645
G01 X11.5196 Y4.3459
G01 X11.5131 Y4.3200
G01 X11.5057 Y4.2989
G01 X11.5006 Y4.2869
G01 X11.4928 Y4.2708
G01 X11.4832 Y4.2545
G01 X11.4760 Y4.2434
G01 X11.4624 Y4.2253
G01 X11.4504 Y4.2118
G01 X11.4414 Y4.2025
G01 X11.4279 Y4.1904
G01 X11.4181 Y4.1824
G01 X11.4034 Y4.1717
G01 X11.3871 Y4.1617
G01 X11.3763 Y4.1557
G01 X11.3590 Y4.1476
G01 X11.3472 Y4.1428
G01 X11.3296 Y4.1368
G01 X11.3120 Y4.1322
G01 X11.2998 Y4.1296
G01 X11.2814 Y4.1268
G01 X11.2728 Y4.1260
G01 X11.2531 Y4.1250
G01 X10.8091 Y4.1250
G01 X10.6252 Y3.9410
G01 X10.6252 Y3.1250
G01 X10.8500 Y3.1250
G01 X10.8728 Y3.1240
G01 X10.8814 Y3.1232
G01 X10.8994 Y3.1205
G01 X10.9215 Y3.1154
G01 X10.9380 Y3.1105
G01 X10.9511 Y3.1057
G01 X10.9631 Y3.1006
G01 X10.9805 Y3.0921
G01 X10.9955 Y3.0832
G01 X11.0061 Y3.0764
G01 X11.0211 Y3.0653
G01 X11.0310 Y3.0570
G01 X11.0445 Y3.0445
G01 X11.0570 Y3.0310
G01 X11.0653 Y3.0210
G01 X11.0780 Y3.0037
G01 X11.0883 Y2.9871
G01 X11.0945 Y2.9757
G01 X11.1024 Y2.9590
G01 X11.1072 Y2.9472
G01 X11.1132 Y2.9296
G01 X11.1188 Y2.9082
G01 X11.1212 Y2.8952
G01 X11.1238 Y2.8756
G01 X11.1250 Y2.8500
G01 X11.1250 Y1.1500
G01 X11.1243 Y1.1316
G01 X11.1233 Y1.1194
G01 X11.1204 Y1.1002
G01 X11.1178 Y1.0880
G01 X11.1132 Y1.0703
G01 X11.1072 Y1.0528
G01 X11.1024 Y1.0410
G01 X11.0945 Y1.0243
G01 X11.0883 Y1.0129
G01 X11.0784 Y0.9968
G01 X11.0653 Y0.9790
G01 X11.0571 Y0.9692
G01 X11.0447 Y0.9557
G01 X11.0276 Y0.9401
G01 X11.0177 Y0.9321
G01 X10.9995 Y0.9192
G01 X10.9805 Y0.9079
G01 X10.9631 Y0.8994
G01 X10.9513 Y0.8943
G01 X10.9300 Y0.8869
G01 X10.9079 Y0.8812
G01 X10.8952 Y0.8788
G01 X10.8768 Y0.8763
G01 X10.8547 Y0.8751
G01 X9.1414 Y0.8752
G01 X9.1188 Y0.8768
G01 X9.1006 Y0.8795
G01 X9.0921 Y0.8812
G01 X9.0742 Y0.8857
G01 X9.0660 Y0.8882
G01 X9.0487 Y0.8943
G01 X9.0408 Y0.8976
G01 X9.0198 Y0.9078
G01 X9.0045 Y0.9168
G01 X8.9939 Y0.9236
G01 X8.9792 Y0.9345
G01 X8.9725 Y0.9400
G01 X8.9586 Y0.9525
G01 X8.9496 Y0.9618
G00 Z2.0000
G00 X9.0000 Y0.9195
G01 F30.00
G01 Z-0.0480
G01 F60.00
G01 X9.0000 Y0.0750
G01 X8.7025 Y0.0750
G01 X8.7025 Y5.3184
G01 X9.0000 Y5.6159
G01 X9.0000 Y3.0805
G00 X9.0000 Y3.0805
G01 F30.00
G01 Z-0.0933
G01 F60.00
G01 X9.0000 Y5.6159
G01 X8.7025 Y5.3184
G01 X8.7025 Y0.0750
G01 X9.0000 Y0.0750
G01 X9.0000 Y0.9195
G00 Z2.0000
G00 X9.2975 Y0.8750
G01 F30.00
G01 Z-0.0480
G01 F60.00
G01 X9.2975 Y0.0750
G01 X9.5950 Y0.0750
G01 X9.5950 Y0.8750
G01 X9.8925 Y0.8750
G01 X9.8925 Y0.0750
G01 X10.1900 Y0.0750
G01 X10.1900 Y0.8750
G01 X10.4875 Y0.8750
G01 X10.4875 Y0.0750
G01 X10.7850 Y0.0750
G01 X10.7850 Y0.8750
G00 X10.7850 Y0.8750
G01 F30.00
G01 Z-0.0933
G01 F60.00
G01 X10.7850 Y0.0750
G01 X10.4875 Y0.0750
G01 X10.4875 Y0.8750
G01 X10.1900 Y0.8750
G01 X10.1900 Y0.0750
G01 X9.8925 Y0.0750
G01 X9.8925 Y0.8750
G01 X9.5950 Y0.8750
G01 X9.5950 Y0.0750
G01 X9.2975 Y0.0750
G01 X9.2975 Y0.8750
G00 Z2.0000
G00 X11.0825 Y1.0033
G01 F30.00
G01 Z-0.0480
G01 F60.00
G01 X11.0825 Y0.0750
G01 X11.3800 Y0.0750
G01 X11.3800 Y4.1577
G00 X11.3800 Y4.1577
G01 F30.00
G01 Z-0.0933
G01 F60.00
G01 X11.3800 Y0.0750
G01 X11.0825 Y0.0750
G01 X11.0825 Y1.0033
G00 Z2.0000
G00 X11.6775 Y0.0750
G01 F30.00
G01 Z-0.0480
G01 F60.00
G01 X11.6775 Y20.2164
G01 X11.3800 Y17.9960
G01 X11.3800 Y20.5139
G01 X11.0825 Y20.8114
G01 X11.0825 Y18.1194
G00 X11.0825 Y18.1194
G01 F30.00
G01 Z-0.0933
G01 F60.00
G01 X11.0825 Y20.8114
G01 X11.3800 Y20.5139
G01 X11.3800 Y17.9960
G01 X11.6775 Y20.2164
G01 X11.6775 Y0.0750
G00 Z2.0000
G00 X11.0825 Y2.9967
G01 F30.00
G01 Z-0.0480
G01 F60.00
G01 X11.0825 Y4.1250
G00 X11.0825 Y4.1250
G01 F30.00
G01 Z-0.0933
G01 F60.00
G01 X11.0825 Y2.9967
G00 Z2.0000
G00 X10.7850 Y3.1250
G01 F30.00
G01 Z-0.0480
G01 F60.00
G01 X10.7850 Y4.1009
G00 X10.7850 Y4.1009
G01 F30.00
G01 Z-0.0933
G01 F60.00
G01 X10.7850 Y3.1250
G00 Z2.0000
G00 X9.2975 Y3.1250
G01 F30.00
G01 Z-0.0480
G01 F60.00
G01 X9.2975 Y5.9134
G01 X9.5950 Y6.2109
G01 X9.5950 Y4.6791
G01 X9.8925 Y4.9766
G01 X9.8925 Y6.5084
G01 X10.1900 Y6.8059
G01 X10.1900 Y5.8236
G00 X10.1900 Y5.8236
G01 F30.00
G01 Z-0.0933
G01 F60.00
G01 X10.1900 Y6.8059
G01 X9.8925 Y6.5084
G01 X9.8925 Y4.9766
G01 X9.5950 Y4.6791
G01 X9.5950 Y6.2109
G01 X9.2975 Y5.9134
G01 X9.2975 Y3.1250
G00 Z2.0000
G00 X8.4050 Y2.6096
G01 F30.00
G01 Z-0.0480
G01 F60.00
G01 X8.4050 Y5.0209
G00 X8.4050 Y5.0209
G01 F30.00
G01 Z-0.0933
G01 F60.00
G01 X8.4050 Y2.6096
G00 Z2.0000
G00 X8.1075 Y2.9191
G01 F30.00
G01 Z-0.0480
G01 F60.00
G01 X8.1075 Y4.1746
G00 X8.1075 Y4.1746
G01 F30.00
G01 Z-0.0933
G01 F60.00
G01 X8.1075 Y2.9191
G00 Z2.0000
G00 X7.2150 Y5.8750
G01 F30.00
G01 Z-0.0480
G01 F60.00
G01 X7.2150 Y7.9250
G01 X7.5125 Y7.9250
G01 X7.5125 Y5.8966
G01 X7.8100 Y6.1941
G01 X7.8100 Y7.9250
G01 X8.1075 Y7.9250
G01 X8.1075 Y6.4916
G01 X8.4050 Y6.7891
G01 X8.4050 Y7.9251
G00 X8.4050 Y7.9251
G01 F30.00
G01 Z-0.0933
G01 F60.00
G01 X8.4050 Y6.7891
G01 X8.1075 Y6.4916
G01 X8.1075 Y7.9250
G01 X7.8100 Y7.9250
G01 X7.8100 Y6.1941
G01 X7.5125 Y5.8966
G01 X7.5125 Y7.9250
G01 X7.2150 Y7.9250
G01 X7.2150 Y5.8750
G00 Z2.0000
G00 X9.0000 Y7.3841
G01 F30.00
G01 Z-0.0480
G01 F60.00
G01 X9.0000 Y16.8748
G01 X8.7025 Y16.8748
G01 X8.7025 Y7.0866
G01 X9.2975 Y7.6816
G01 X9.2975 Y16.8748
G01 X9.5950 Y16.8748
G01 X9.5950 Y7.9791
G01 X9.8925 Y8.2766
G01 X9.8925 Y16.8748
G01 X10.1900 Y16.8748
G01 X10.1900 Y8.5741
G00 X10.1900 Y8.5741
G01 F30.00
G01 Z-0.0933
G01 F60.00
G01 X10.1900 Y16.8748
G01 X9.8925 Y16.8748
G01 X9.8925 Y8.2766
G01 X9.5950 Y7.9791
G01 X9.5950 Y16.8748
G01 X9.2975 Y16.8748
G01 X9.2975 Y7.6816
G01 X8.7025 Y7.0866
G01 X8.7025 Y16.8748
G01 X9.0000 Y16.8748
G01 X9.0000 Y7.3841
G00 Z2.0000
G00 X11.0825 Y7.6984
G01 F30.00
G01 Z-0.0480
G01 F60.00
G01 X11.0825 Y5.8750
G01 X10.7850 Y5.8750
G01 X10.7850 Y7.4009
G01 X10.4875 Y7.1034
G01 X10.4875 Y5.8750
G00 X10.4875 Y5.8750
G01 F30.00
G01 Z-0.0933
G01 F60.00
G01 X10.4875 Y7.1034
G01 X10.7850 Y7.4009
G01 X10.7850 Y5.8750
G01 X11.0825 Y5.8750
G01 X11.0825 Y7.6984
G00 Z2.0000
G00 X11.3800 Y7.9959
G01 F30.00
G01 Z-0.0480
G01 F60.00
G01 X11.3800 Y5.8423
G00 X11.3800 Y5.8423
G01 F30.00
G01 Z-0.0933
G01 F60.00
G01 X11.3800 Y7.9959
G00 Z2.0000
G00 X8.4050 Y12.4749
G01 F30.00
G01 Z-0.0480
G01 F60.00
G01 X8.4050 Y15.5251
G00 X8.4050 Y15.5251
G01 F30.00
G01 Z-0.0933
G01 F60.00
G01 X8.4050 Y12.4749
G00 Z2.0000
G00 X6.3225 Y12.4638
G01 F30.00
G01 Z-0.0480
G01 F60.00
G01 X6.3225 Y15.5362
G00 X6.3225 Y15.5362
G01 F30.00
G01 Z-0.0933
G01 F60.00
G01 X6.3225 Y12.4638
G00 Z2.0000
G00 X6.1763 Y12.3598
G01 F30.00
G01 Z-0.0480
G01 F60.00
G01 X6.1668 Y12.3455
G01 X6.1557 Y12.3263
G01 X6.1458 Y12.3049
G01 X6.1381 Y12.2838
G01 X6.1322 Y12.2620
G01 X6.1288 Y12.2452
G01 X6.1260 Y12.2228
G01 X6.1250 Y12.2000
G01 X6.1250 Y8.2000
G01 X6.1257 Y8.1816
G01 X6.1268 Y8.1686
G01 X6.1304 Y8.1456
G01 X6.1346 Y8.1285
G01 X6.1381 Y8.1162
G01 X6.1443 Y8.0989
G01 X6.1494 Y8.0869
G01 X6.1579 Y8.0695
G01 X6.1668 Y8.0545
G01 X6.1740 Y8.0434
G01 X6.1877 Y8.0251
G01 X6.1996 Y8.0118
G01 X6.2086 Y8.0025
G01 X6.2253 Y7.9876
G01 X6.2402 Y7.9763
G01 X6.2505 Y7.9692
G01 X6.2708 Y7.9572
G01 X6.2869 Y7.9494
G01 X6.2989 Y7.9443
G01 X6.3200 Y7.9369
G01 X6.3380 Y7.9322
G01 X6.3503 Y7.9295
G01 X6.3694 Y7.9267
G01 X6.3914 Y7.9252
G01 X8.4000 Y7.9250
G01 X8.4184 Y7.9257
G01 X8.4306 Y7.9267
G01 X8.4544 Y7.9304
G01 X8.4715 Y7.9346
G01 X8.4838 Y7.9381
G01 X8.5011 Y7.9443
G01 X8.5131 Y7.9494
G01 X8.5305 Y7.9579
G01 X8.5495 Y7.9692
G01 X8.5598 Y7.9763
G01 X8.5739 Y7.9870
G01 X8.5914 Y8.0025
G01 X8.6004 Y8.0118
G01 X8.6130 Y8.0261
G01 X8.6260 Y8.0434
G01 X8.6332 Y8.0545
G01 X8.6421 Y8.0695
G01 X8.6524 Y8.0910
G01 X8.6572 Y8.1028
G01 X8.6632 Y8.1204
G01 X8.6687 Y8.1418
G01 X8.6712 Y8.1548
G01 X8.6738 Y8.1744
G01 X8.6749 Y8.1938
G01 X8.6750 Y12.2000
G01 X8.6743 Y12.2184
G01 X8.6733 Y12.2306
G01 X8.6696 Y12.2544
G01 X8.6654 Y12.2715
G01 X8.6619 Y12.2838
G01 X8.6557 Y12.3011
G01 X8.6506 Y12.3131
G01 X8.6421 Y12.3305
G01 X8.6308 Y12.3495
G01 X8.6237 Y12.3598
G01 X8.6130 Y12.3739
G01 X8.5975 Y12.3914
G01 X8.5810 Y12.4070
G01 X8.5708 Y12.4155
G01 X8.5534 Y12.4283
G01 X8.5371 Y12.4383
G01 X8.5263 Y12.4443
G01 X8.5049 Y12.4542
G01 X8.4880 Y12.4605
G01 X8.4756 Y12.4644
G01 X8.4544 Y12.4696
G01 X8.4355 Y12.4726
G01 X8.4220 Y12.4741
G01 X8.4000 Y12.4750
G01 X6.4000 Y12.4750
G01 X6.3816 Y12.4743
G01 X6.3694 Y12.4733
G01 X6.3503 Y12.4705
G01 X6.3380 Y12.4678
G01 X6.3200 Y12.4631
G01 X6.2951 Y12.4542
G01 X6.2780 Y12.4464
G01 X6.2668 Y12.4406
G01 X6.2505 Y12.4308
G01 X6.2434 Y12.4260
G01 X6.2288 Y12.4152
G01 X6.2190 Y12.4070
G01 X6.2055 Y12.3945
G01 X6.1930 Y12.3810
G01 X6.1845 Y12.3708
G01 X6.1763 Y12.3598
G00 X6.1763 Y12.3598
G01 F30.00
G01 Z-0.0933
G01 F60.00
G01 X6.1845 Y12.3708
G01 X6.1930 Y12.3810
G01 X6.2055 Y12.3945
G01 X6.2190 Y12.4070
G01 X6.2288 Y12.4152
G01 X6.2434 Y12.4260
G01 X6.2505 Y12.4308
G01 X6.2668 Y12.4406
G01 X6.2780 Y12.4464
G01 X6.2951 Y12.4542
G01 X6.3200 Y12.4631
G01 X6.3380 Y12.4678
G01 X6.3503 Y12.4705
G01 X6.3694 Y12.4733
G01 X6.3816 Y12.4743
G01 X6.4000 Y12.4750
G01 X8.4000 Y12.4750
G01 X8.4220 Y12.4741
G01 X8.4355 Y12.4726
G01 X8.4544 Y12.4696
G01 X8.4756 Y12.4644
G01 X8.4880 Y12.4605
G01 X8.5049 Y12.4542
G01 X8.5263 Y12.4443
G01 X8.5371 Y12.4383
G01 X8.5534 Y12.4283
G01 X8.5708 Y12.4155
G01 X8.5810 Y12.4070
G01 X8.5975 Y12.3914
G01 X8.6130 Y12.3739
G01 X8.6237 Y12.3598
G01 X8.6308 Y12.3495
G01 X8.6421 Y12.3305
G01 X8.6506 Y12.3131
G01 X8.6557 Y12.3011
G01 X8.6619 Y12.2838
G01 X8.6654 Y12.2715
G01 X8.6696 Y12.2544
G01 X8.6733 Y12.2306
G01 X8.6743 Y12.2184
G01 X8.6750 Y12.2000
G01 X8.6749 Y8.1938
G01 X8.6738 Y8.1744
G01 X8.6712 Y8.1548
G01 X8.6687 Y8.1418
G01 X8.6632 Y8.1204
G01 X8.6572 Y8.1028
G01 X8.6524 Y8.0910
G01 X8.6421 Y8.0695
G01 X8.6332 Y8.0545
G01 X8.6260 Y8.0434
G01 X8.6130 Y8.0261
G01 X8.6004 Y8.0118
G01 X8.5914 Y8.0025
G01 X8.5739 Y7.9870
G01 X8.5598 Y7.9763
G01 X8.5495 Y7.9692
G01 X8.5305 Y7.9579
G01 X8.5131 Y7.9494
G01 X8.5011 Y7.9443
G01 X8.4838 Y7.9381
G01 X8.4715 Y7.9346
G01 X8.4544 Y7.9304
G01 X8.4306 Y7.9267
G01 X8.4184 Y7.9257
G01 X8.4000 Y7.9250
G01 X6.3914 Y7.9252
G01 X6.3694 Y7.9267
G01 X6.3503 Y7.9295
G01 X6.3380 Y7.9322
G01 X6.3200 Y7.9369
G01 X6.2989 Y7.9443
G01 X6.2869 Y7.9494
G01 X6.2708 Y7.9572
G01 X6.2505 Y7.9692
G01 X6.2402 Y7.9763
G01 X6.2253 Y7.9876
G01 X6.2086 Y8.0025
G01 X6.1996 Y8.0118
G01 X6.1877 Y8.0251
G01 X6.1740 Y8.0434
G01 X6.1668 Y8.0545
G01 X6.1579 Y8.0695
G01 X6.1494 Y8.0869
G01 X6.1443 Y8.0989
G01 X6.1381 Y8.1162
G01 X6.1346 Y8.1285
G01 X6.1304 Y8.1456
G01 X6.1268 Y8.1686
G01 X6.1257 Y8.1816
G01 X6.1250 Y8.2000
G01 X6.1250 Y12.2000
G01 X6.1260 Y12.2228
G01 X6.1288 Y12.2452
G01 X6.1322 Y12.2620
G01 X6.1381 Y12.2838
G01 X6.1458 Y12.3049
G01 X6.1557 Y12.3263
G01 X6.1668 Y12.3455
G01 X6.1763 Y12.3598
G00 Z2.0000
G00 X6.0250 Y12.3580
G01 F30.00
G01 Z-0.0480
G01 F60.00
G01 X6.0250 Y15.6420
G00 X6.0250 Y15.6420
G01 F30.00
G01 Z-0.0933
G01 F60.00
G01 X6.0250 Y12.3580
G00 Z2.0000
G00 X3.9425 Y12.4750
G01 F30.00
G01 Z-0.0480
G01 F60.00
G01 X3.9425 Y15.5250
G01 X4.2400 Y15.5250
G01 X4.2400 Y12.4750
G01 X4.5375 Y12.4750
G01 X4.5375 Y15.5250
G01 X4.8350 Y15.5250
G01 X4.8350 Y12.4750
G01 X5.1325 Y12.4750
G01 X5.1325 Y15.5250
G01 X5.4300 Y15.5250
G01 X5.4300 Y12.4750
G01 X5.7275 Y12.4750
G01 X5.7275 Y15.5250
G00 X5.7275 Y15.5250
G01 F30.00
G01 Z-0.0933
G01 F60.00
G01 X5.7275 Y12.4750
G01 X5.4300 Y12.4750
G01 X5.4300 Y15.5250
G01 X5.1325 Y15.5250
G01 X5.1325 Y12.4750
G01 X4.8350 Y12.4750
G01 X4.8350 Y15.5250
G01 X4.5375 Y15.5250
G01 X4.5375 Y12.4750
G01 X4.2400 Y12.4750
G01 X4.2400 Y15.5250
G01 X3.9425 Y15.5250
G01 X3.9425 Y12.4750
G00 Z2.0000
G00 X3.6450 Y12.4271
G01 F30.00
G01 Z-0.0480
G01 F60.00
G01 X3.6450 Y15.5729
G00 X3.6450 Y15.5729
G01 F30.00
G01 Z-0.0933
G01 F60.00
G01 X3.6450 Y12.4271
G00 Z2.0000
G00 X3.5617 Y12.3371
G01 F30.00
G01 Z-0.0480
G01 F60.00
G01 X3.5557 Y12.3263
G01 X3.5458 Y12.3049
G01 X3.5395 Y12.2880
G01 X3.5356 Y12.2756
G01 X3.5303 Y12.2537
G01 X3.5274 Y12.2355
G01 X3.5260 Y12.2228
G01 X3.5250 Y12.2000
G01 X3.5250 Y8.2000
G01 X3.5260 Y8.1772
G01 X3.5274 Y8.1645
G01 X3.5303 Y8.1463
G01 X3.5356 Y8.1244
G01 X3.5395 Y8.1120
G01 X3.5458 Y8.0951
G01 X3.5559 Y8.0734
G01 X3.5617 Y8.0629
G01 X3.5714 Y8.0472
G01 X3.5847 Y8.0289
G01 X3.5930 Y8.0190
G01 X3.6086 Y8.0025
G01 X3.6257 Y7.9873
G01 X3.6402 Y7.9763
G01 X3.6503 Y7.9693
G01 X3.6705 Y7.9574
G01 X3.6910 Y7.9476
G01 X3.7028 Y7.9428
G01 X3.7204 Y7.9368
G01 X3.7457 Y7.9304
G01 X3.7694 Y7.9267
G01 X3.7936 Y7.9251
G01 X4.1748 Y7.9250
G01 X4.1748 Y2.8415
G01 X4.1343 Y2.8048
G01 X4.1211 Y2.7919
G01 X4.0592 Y2.7239
G01 X4.0421 Y2.7031
G01 X3.9903 Y2.6332
G01 X3.9774 Y2.6136
G01 X3.9303 Y2.5346
G01 X3.9218 Y2.5183
G01 X3.8861 Y2.4429
G01 X3.8774 Y2.4223
G01 X3.8477 Y2.3394
G01 X3.8398 Y2.3136
G01 X3.8177 Y2.2243
G01 X3.8143 Y2.2062
G01 X3.8021 Y2.1237
G01 X3.7994 Y2.0968
G01 X3.7951 Y2.0049
G01 X3.7953 Y1.9865
G01 X3.7994 Y1.9032
G01 X3.8016 Y1.8799
G01 X3.8143 Y1.7938
G01 X3.8177 Y1.7757
G01 X3.8398 Y1.6864
G01 X3.8450 Y1.6688
G01 X3.8758 Y1.5821
G01 X3.8826 Y1.5650
G01 X3.9218 Y1.4817
G01 X3.9303 Y1.4654
G01 X3.9774 Y1.3864
G01 X3.9874 Y1.3710
G01 X4.0421 Y1.2969
G01 X4.0536 Y1.2826
G01 X4.1152 Y1.2143
G01 X4.1281 Y1.2011
G01 X4.1961 Y1.1392
G01 X4.2102 Y1.1273
G01 X4.2839 Y1.0724
G01 X4.2991 Y1.0620
G01 X4.3779 Y1.0145
G01 X4.3941 Y1.0056
G01 X4.4771 Y0.9661
G01 X4.4941 Y0.9589
G01 X4.5806 Y0.9277
G01 X4.5982 Y0.9221
G01 X4.6874 Y0.8996
G01 X4.7054 Y0.8958
G01 X4.7963 Y0.8821
G01 X4.8146 Y0.8801
G01 X4.9065 Y0.8753
G01 X4.9249 Y0.8751
G01 X5.0168 Y0.8794
G01 X5.0393 Y0.8815
G01 X5.1262 Y0.8943
G01 X5.1443 Y0.8977
G01 X5.2418 Y0.9221
G01 X5.2594 Y0.9277
G01 X5.3459 Y0.9589
G01 X5.3629 Y0.9661
G01 X5.4383 Y1.0018
G01 X5.4585 Y1.0124
G01 X5.5336 Y1.0574
G01 X5.5561 Y1.0724
G01 X5.6231 Y1.1221
G01 X5.6374 Y1.1336
G01 X5.7057 Y1.1952
G01 X5.7189 Y1.2081
G01 X5.7808 Y1.2761
G01 X5.7927 Y1.2902
G01 X5.8526 Y1.3710
G01 X5.8626 Y1.3864
G01 X5.9097 Y1.4654
G01 X5.9182 Y1.4817
G01 X5.9539 Y1.5571
G01 X5.9642 Y1.5821
G01 X5.9923 Y1.6606
G01 X6.0002 Y1.6864
G01 X6.0204 Y1.7674
G01 X6.0247 Y1.7879
G01 X6.0379 Y1.8763
G01 X6.0401 Y1.8959
G01 X6.0449 Y1.9951
G01 X6.0447 Y2.0135
G01 X6.0406 Y2.0968
G01 X6.0379 Y2.1237
G01 X6.0257 Y2.2062
G01 X6.0223 Y2.2243
G01 X5.9979 Y2.3218
G01 X5.9923 Y2.3394
G01 X5.9642 Y2.4179
G01 X5.9539 Y2.4429
G01 X5.9182 Y2.5183
G01 X5.9083 Y2.5372
G01 X5.8580 Y2.6209
G01 X5.8476 Y2.6361
G01 X5.7979 Y2.7031
G01 X5.7808 Y2.7239
G01 X5.7248 Y2.7857
G01 X5.7087 Y2.8020
G01 X5.6439 Y2.8608
G01 X5.6298 Y2.8727
G01 X5.5522 Y2.9304
G01 X5.5336 Y2.9426
G01 X5.4591 Y2.9873
G01 X5.4417 Y2.9966
G01 X5.4252 Y3.0044
G01 X5.4252 Y7.9250
G01 X5.8064 Y7.9251
G01 X5.8256 Y7.9262
G01 X5.8497 Y7.9295
G01 X5.8715 Y7.9346
G01 X5.8880 Y7.9395
G01 X5.9049 Y7.9458
G01 X5.9256 Y7.9554
G01 X5.9371 Y7.9617
G01 X5.9534 Y7.9717
G01 X5.9712 Y7.9848
G01 X5.9810 Y7.9930
G01 X5.9945 Y8.0055
G01 X6.0100 Y8.0225
G01 X6.0237 Y8.0402
G01 X6.0312 Y8.0511
G01 X6.0421 Y8.0695
G01 X6.0506 Y8.0869
G01 X6.0557 Y8.0989
G01 X6.0632 Y8.1204
G01 X6.0687 Y8.1418
G01 X6.0712 Y8.1548
G01 X6.0740 Y8.1772
G01 X6.0750 Y8.2000
G01 X6.0750 Y12.2000
G01 X6.0743 Y12.2184
G01 X6.0732 Y12.2314
G01 X6.0696 Y12.2544
G01 X6.0632 Y12.2796
G01 X6.0542 Y12.3049
G01 X6.0443 Y12.3263
G01 X6.0402 Y12.3338
G01 X6.0308 Y12.3495
G01 X6.0176 Y12.3681
G01 X6.0096 Y12.3779
G01 X6.0004 Y12.3882
G01 X5.9882 Y12.4004
G01 X5.9712 Y12.4152
G01 X5.9566 Y12.4260
G01 X5.9495 Y12.4308
G01 X5.9292 Y12.4428
G01 X5.9049 Y12.4542
G01 X5.8800 Y12.4631
G01 X5.8541 Y12.4696
G01 X5.8306 Y12.4733
G01 X5.8064 Y12.4749
G01 X3.8000 Y12.4750
G01 X3.7780 Y12.4741
G01 X3.7645 Y12.4726
G01 X3.7457 Y12.4696
G01 X3.7285 Y12.4654
G01 X3.7162 Y12.4619
G01 X3.6951 Y12.4542
G01 X3.6780 Y12.4464
G01 X3.6667 Y12.4405
G01 X3.6503 Y12.4307
G01 X3.6402 Y12.4237
G01 X3.6257 Y12.4127
G01 X3.6118 Y12.4004
G01 X3.6025 Y12.3914
G01 X3.5902 Y12.3777
G01 X3.5821 Y12.3677
G01 X3.5710 Y12.3523
G01 X3.5617 Y12.3371
G00 X3.5617 Y12.3371
G01 F30.00
G01 Z-0.0933
G01 F60.00
G01 X3.5710 Y12.3523
G01 X3.5821 Y12.3677
G01 X3.5902 Y12.3777
G01 X3.6025 Y12.3914
G01 X3.6118 Y12.4004
G01 X3.6257 Y12.4127
G01 X3.6402 Y12.4237
G01 X3.6503 Y12.4307
G01 X3.6667 Y12.4405
G01 X3.6780 Y12.4464
G01 X3.6951 Y12.4542
G01 X3.7162 Y12.4619
G01 X3.7285 Y12.4654
G01 X3.7457 Y12.4696
G01 X3.7645 Y12.4726
G01 X3.7780 Y12.4741
G01 X3.8000 Y12.4750
G01 X5.8064 Y12.4749
G01 X5.8306 Y12.4733
G01 X5.8541 Y12.4696
G01 X5.8800 Y12.4631
G01 X5.9049 Y12.4542
G01 X5.9292 Y12.4428
G01 X5.9495 Y12.4308
G01 X5.9566 Y12.4260
G01 X5.9712 Y12.4152
G01 X5.9882 Y12.4004
G01 X6.0004 Y12.3882
G01 X6.0096 Y12.3779
G01 X6.0176 Y12.3681
G01 X6.0308 Y12.3495
G01 X6.0402 Y12.3338
G01 X6.0443 Y12.3263
G01 X6.0542 Y12.3049
G01 X6.0632 Y12.2796
G01 X6.0696 Y12.2544
G01 X6.0732 Y12.2314
G01 X6.0743 Y12.2184
G01 X6.0750 Y12.2000
G01 X6.0750 Y8.2000
G01 X6.0740 Y8.1772
G01 X6.0712 Y8.1548
G01 X6.0687 Y8.1418
G01 X6.0632 Y8.1204
G01 X6.0557 Y8.0989
G01 X6.0506 Y8.0869
G01 X6.0421 Y8.0695
G01 X6.0312 Y8.0511
G01 X6.0237 Y8.0402
G01 X6.0100 Y8.0225
G01 X5.9945 Y8.0055
G01 X5.9810 Y7.9930
G01 X5.9712 Y7.9848
G01 X5.9534 Y7.9717
G01 X5.9371 Y7.9617
G01 X5.9256 Y7.9554
G01 X5.9049 Y7.9458
G01 X5.8880 Y7.9395
G01 X5.8715 Y7.9346
G01 X5.8497 Y7.9295
G01 X5.8256 Y7.9262
G01 X5.8064 Y7.9251
G01 X5.4252 Y7.9250
G01 X5.4252 Y3.0044
G01 X5.4417 Y2.9966
G01 X5.4591 Y2.9873
G01 X5.5336 Y2.9426
G01 X5.5522 Y2.9304
G01 X5.6298 Y2.8727
G01 X5.6439 Y2.8608
G01 X5.7087 Y2.8020
G01 X5.7248 Y2.7857
G01 X5.7808 Y2.7239
G01 X5.7979 Y2.7031
G01 X5.8476 Y2.6361
G01 X5.8580 Y2.6209
G01 X5.9083 Y2.5372
G01 X5.9182 Y2.5183
G01 X5.9539 Y2.4429
G01 X5.9642 Y2.4179
G01 X5.9923 Y2.3394
G01 X5.9979 Y2.3218
G01 X6.0223 Y2.2243
G01 X6.0257 Y2.2062
G01 X6.0379 Y2.1237
G01 X6.0406 Y2.0968
G01 X6.0447 Y2.0135
G01 X6.0449 Y1.9951
G01 X6.0401 Y1.8959
G01 X6.0379 Y1.8763
G01 X6.0247 Y1.7879
G01 X6.0204 Y1.7674
G01 X6.0002 Y1.6864
G01 X5.9923 Y1.6606
G01 X5.9642 Y1.5821
G01 X5.9539 Y1.5571
G01 X5.9182 Y1.4817
G01 X5.9097 Y1.4654
G01 X5.8626 Y1.3864
G01 X5.8526 Y1.3710
G01 X5.7927 Y1.2902
G01 X5.7808 Y1.2761
G01 X5.7189 Y1.2081
G01 X5.7057 Y1.1952
G01 X5.6374 Y1.1336
G01 X5.6231 Y1.1221
G01 X5.5561 Y1.0724
G01 X5.5336 Y1.0574
G01 X5.4585 Y1.0124
G01 X5.4383 Y1.0018
G01 X5.3629 Y0.9661
G01 X5.3459 Y0.9589
G01 X5.2594 Y0.9277
G01 X5.2418 Y0.9221
G01 X5.1443 Y0.8977
G01 X5.1262 Y0.8943
G01 X5.0393 Y0.8815
G01 X5.0168 Y0.8794
G01 X4.9249 Y0.8751
G01 X4.9065 Y0.8753
G01 X4.8146 Y0.8801
G01 X4.7963 Y0.8821
G01 X4.7054 Y0.8958
G01 X4.6874 Y0.8996
G01 X4.5982 Y0.9221
G01 X4.5806 Y0.9277
G01 X4.4941 Y0.9589
G01 X4.4771 Y0.9661
G01 X4.3941 Y1.0056
G01 X4.3779 Y1.0145
G01 X4.2991 Y1.0620
G01 X4.2839 Y1.0724
G01 X4.2102 Y1.1273
G01 X4.1961 Y1.1392
G01 X4.1281 Y1.2011
G01 X4.1152 Y1.2143
G01 X4.0536 Y1.2826
G01 X4.0421 Y1.2969
G01 X3.9874 Y1.3710
G01 X3.9774 Y1.3864
G01 X3.9303 Y1.4654
G01 X3.9218 Y1.4817
G01 X3.8826 Y1.5650
G01 X3.8758 Y1.5821
G01 X3.8450 Y1.6688
G01 X3.8398 Y1.6864
G01 X3.8177 Y1.7757
G01 X3.8143 Y1.7938
G01 X3.8016 Y1.8799
G01 X3.7994 Y1.9032
G01 X3.7953 Y1.9865
G01 X3.7951 Y2.0049
G01 X3.7994 Y2.0968
G01 X3.8021 Y2.1237
G01 X3.8143 Y2.2062
G01 X3.8177 Y2.2243
G01 X3.8398 Y2.3136
G01 X3.8477 Y2.3394
G01 X3.8774 Y2.4223
G01 X3.8861 Y2.4429
G01 X3.9218 Y2.5183
G01 X3.9303 Y2.5346
G01 X3.9774 Y2.6136
G01 X3.9903 Y2.6332
G01 X4.0421 Y2.7031
G01 X4.0592 Y2.7239
G01 X4.1211 Y2.7919
G01 X4.1343 Y2.8048
G01 X4.1748 Y2.8415
G01 X4.1748 Y7.9250
G01 X3.7936 Y7.9251
G01 X3.7694 Y7.9267
G01 X3.7457 Y7.9304
G01 X3.7204 Y7.9368
G01 X3.7028 Y7.9428
G01 X3.6910 Y7.9476
G01 X3.6705 Y7.9574
G01 X3.6503 Y7.9693
G01 X3.6402 Y7.9763
G01 X3.6257 Y7.9873
G01 X3.6086 Y8.0025
G01 X3.5930 Y8.0190
G01 X3.5847 Y8.0289
G01 X3.5714 Y8.0472
G01 X3.5617 Y8.0629
G01 X3.5559 Y8.0734
G01 X3.5458 Y8.0951
G01 X3.5395 Y8.1120
G01 X3.5356 Y8.1244
G01 X3.5303 Y8.1463
G01 X3.5274 Y8.1645
G01 X3.5260 Y8.1772
G01 X3.5250 Y8.2000
G01 X3.5250 Y12.2000
G01 X3.5260 Y12.2228
G01 X3.5274 Y12.2355
G01 X3.5303 Y12.2537
G01 X3.5356 Y12.2756
G01 X3.5395 Y12.2880
G01 X3.5458 Y12.3049
G01 X3.5557 Y12.3263
G01 X3.5617 Y12.3371
G00 Z2.0000
G00 X3.3475 Y12.4320
G01 F30.00
G01 Z-0.0480
G01 F60.00
G01 X3.3475 Y15.5680
G00 X3.3475 Y15.5680
G01 F30.00
G01 Z-0.0933
G01 F60.00
G01 X3.3475 Y12.4320
G00 Z2.0000
G00 X3.0500 Y12.4750
G01 F30.00
G01 Z-0.0480
G01 F60.00
G01 X3.0500 Y15.5250
G01 X2.7525 Y15.5250
G01 X2.7525 Y12.4750
G01 X2.4550 Y12.4750
G01 X2.4550 Y15.5250
G01 X2.1575 Y15.5250
G01 X2.1575 Y12.4750
G01 X1.8600 Y12.4750
G01 X1.8600 Y15.5250
G01 X1.5625 Y15.5250
G01 X1.5625 Y12.4750
G01 X1.2650 Y12.4750
G01 X1.2650 Y15.5250
G00 X1.2650 Y15.5250
G01 F30.00
G01 Z-0.0933
G01 F60.00
G01 X1.2650 Y12.4750
G01 X1.5625 Y12.4750
G01 X1.5625 Y15.5250
G01 X1.8600 Y15.5250
G01 X1.8600 Y12.4750
G01 X2.1575 Y12.4750
G01 X2.1575 Y15.5250
G01 X2.4550 Y15.5250
G01 X2.4550 Y12.4750
G01 X2.7525 Y12.4750
G01 X2.7525 Y15.5250
G01 X3.0500 Y15.5250
G01 X3.0500 Y12.4750
G00 Z2.0000
G00 X0.9675 Y12.3467
G01 F30.00
G01 Z-0.0480
G01 F60.00
G01 X0.9675 Y15.6533
G00 X0.9675 Y15.6533
G01 F30.00
G01 Z-0.0933
G01 F60.00
G01 X0.9675 Y12.3467
G00 Z2.0000
G00 X0.9617 Y12.3371
G01 F30.00
G01 Z-0.0480
G01 F60.00
G01 X0.9556 Y12.3261
G01 X0.9459 Y12.3052
G01 X0.9395 Y12.2880
G01 X0.9357 Y12.2758
G01 X0.9303 Y12.2537
G01 X0.9274 Y12.2355
G01 X0.9260 Y12.2226
G01 X0.9250 Y12.2000
G01 X0.9250 Y8.2000
G01 X0.9257 Y8.1816
G01 X0.9268 Y8.1688
G01 X0.9303 Y8.1463
G01 X0.9346 Y8.1285
G01 X0.9382 Y8.1160
G01 X0.9443 Y8.0987
G01 X0.9494 Y8.0869
G01 X0.9579 Y8.0695
G01 X0.9669 Y8.0542
G01 X0.9739 Y8.0435
G01 X0.9872 Y8.0259
G01 X0.9996 Y8.0118
G01 X1.0087 Y8.0024
G01 X1.0257 Y7.9873
G01 X1.0402 Y7.9763
G01 X1.0506 Y7.9691
G01 X1.0705 Y7.9574
G01 X1.0869 Y7.9494
G01 X1.0989 Y7.9443
G01 X1.1203 Y7.9368
G01 X1.1380 Y7.9322
G01 X1.1502 Y7.9296
G01 X1.1694 Y7.9267
G01 X1.1914 Y7.9252
G01 X3.2000 Y7.9250
G01 X3.2184 Y7.9257
G01 X3.2306 Y7.9267
G01 X3.2497 Y7.9296
G01 X3.2620 Y7.9322
G01 X3.2796 Y7.9368
G01 X3.3011 Y7.9443
G01 X3.3131 Y7.9494
G01 X3.3295 Y7.9574
G01 X3.3497 Y7.9693
G01 X3.3598 Y7.9763
G01 X3.3743 Y7.9873
G01 X3.3914 Y8.0025
G01 X3.4004 Y8.0118
G01 X3.4126 Y8.0256
G01 X3.4264 Y8.0439
G01 X3.4332 Y8.0545
G01 X3.4421 Y8.0695
G01 X3.4524 Y8.0910
G01 X3.4572 Y8.1028
G01 X3.4632 Y8.1204
G01 X3.4688 Y8.1421
G01 X3.4712 Y8.1548
G01 X3.4736 Y8.1728
G01 X3.4749 Y8.1953
G01 X3.4750 Y12.2000
G01 X3.4743 Y12.2184
G01 X3.4732 Y12.2314
G01 X3.4697 Y12.2537
G01 X3.4654 Y12.2715
G01 X3.4619 Y12.2838
G01 X3.4542 Y12.3049
G01 X3.4464 Y12.3220
G01 X3.4417 Y12.3311
G01 X3.4286 Y12.3528
G01 X3.4179 Y12.3677
G01 X3.4098 Y12.3777
G01 X3.3945 Y12.3945
G01 X3.3810 Y12.4070
G01 X3.3710 Y12.4153
G01 X3.3537 Y12.4280
G01 X3.3371 Y12.4383
G01 X3.3257 Y12.4445
G01 X3.3049 Y12.4542
G01 X3.2880 Y12.4605
G01 X3.2756 Y12.4644
G01 X3.2543 Y12.4696
G01 X3.2355 Y12.4726
G01 X3.2220 Y12.4741
G01 X3.2000 Y12.4750
G01 X1.2000 Y12.4750
G01 X1.1780 Y12.4741
G01 X1.1645 Y12.4726
G01 X1.1456 Y12.4696
G01 X1.1285 Y12.4654
G01 X1.1161 Y12.4619
G01 X1.0951 Y12.4542
G01 X1.0780 Y12.4464
G01 X1.0667 Y12.4405
G01 X1.0505 Y12.4308
G01 X1.0402 Y12.4237
G01 X1.0253 Y12.4124
G01 X1.0118 Y12.4004
G01 X1.0025 Y12.3914
G01 X0.9900 Y12.3775
G01 X0.9821 Y12.3677
G01 X0.9712 Y12.3525
G01 X0.9617 Y12.3371
G00 X0.9617 Y12.3371
G01 F30.00
G01 Z-0.0933
G01 F60.00
G01 X0.9712 Y12.3525
G01 X0.9821 Y12.3677
G01 X0.9900 Y12.3775
G01 X1.0025 Y12.3914
G01 X1.0118 Y12.4004
G01 X1.0253 Y12.4124
G01 X1.0402 Y12.4237
G01 X1.0505 Y12.4308
G01 X1.0667 Y12.4405
G01 X1.0780 Y12.4464
G01 X1.0951 Y12.4542
G01 X1.1161 Y12.4619
G01 X1.1285 Y12.4654
G01 X1.1456 Y12.4696
G01 X1.1645 Y12.4726
G01 X1.1780 Y12.4741
G01 X1.2000 Y12.4750
G01 X3.2000 Y12.4750
G01 X3.2220 Y12.4741
G01 X3.2355 Y12.4726
G01 X3.2543 Y12.4696
G01 X3.2756 Y12.4644
G01 X3.2880 Y12.4605
G01 X3.3049 Y12.4542
G01 X3.3257 Y12.4445
G01 X3.3371 Y12.4383
G01 X3.3537 Y12.4280
G01 X3.3710 Y12.4153
G01 X3.3810 Y12.4070
G01 X3.3945 Y12.3945
G01 X3.4098 Y12.3777
G01 X3.4179 Y12.3677
G01 X3.4286 Y12.3528
G01 X3.4417 Y12.3311
G01 X3.4464 Y12.3220
G01 X3.4542 Y12.3049
G01 X3.4619 Y12.2838
G01 X3.4654 Y12.2715
G01 X3.4697 Y12.2537
G01 X3.4732 Y12.2314
G01 X3.4743 Y12.2184
G01 X3.4750 Y12.2000
G01 X3.4749 Y8.1953
G01 X3.4736 Y8.1728
G01 X3.4712 Y8.1548
G01 X3.4688 Y8.1421
G01 X3.4632 Y8.1204
G01 X3.4572 Y8.1028
G01 X3.4524 Y8.0910
G01 X3.4421 Y8.0695
G01 X3.4332 Y8.0545
G01 X3.4264 Y8.0439
G01 X3.4126 Y8.0256
G01 X3.4004 Y8.0118
G01 X3.3914 Y8.0025
G01 X3.3743 Y7.9873
G01 X3.3598 Y7.9763
G01 X3.3497 Y7.9693
G01 X3.3295 Y7.9574
G01 X3.3131 Y7.9494
G01 X3.3011 Y7.9443
G01 X3.2796 Y7.9368
G01 X3.2620 Y7.9322
G01 X3.2497 Y7.9296
G01 X3.2306 Y7.9267
G01 X3.2184 Y7.9257
G01 X3.2000 Y7.9250
G01 X1.1914 Y7.9252
G01 X1.1694 Y7.9267
G01 X1.1502 Y7.9296
G01 X1.1380 Y7.9322
G01 X1.1203 Y7.9368
G01 X1.0989 Y7.9443
G01 X1.0869 Y7.9494
G01 X1.0705 Y7.9574
G01 X1.0506 Y7.9691
G01 X1.0402 Y7.9763
G01 X1.0257 Y7.9873
G01 X1.0087 Y8.0024
G01 X0.9996 Y8.0118
G01 X0.9872 Y8.0259
G01 X0.9739 Y8.0435
G01 X0.9669 Y8.0542
G01 X0.9579 Y8.0695
G01 X0.9494 Y8.0869
G01 X0.9443 Y8.0987
G01 X0.9382 Y8.1160
G01 X0.9346 Y8.1285
G01 X0.9303 Y8.1463
G01 X0.9268 Y8.1688
G01 X0.9257 Y8.1816
G01 X0.9250 Y8.2000
G01 X0.9250 Y12.2000
G01 X0.9260 Y12.2226
G01 X0.9274 Y12.2355
G01 X0.9303 Y12.2537
G01 X0.9357 Y12.2758
G01 X0.9395 Y12.2880
G01 X0.9459 Y12.3052
G01 X0.9556 Y12.3261
G01 X0.9617 Y12.3371
G00 Z2.0000
G00 X0.9675 Y8.0533
G01 F30.00
G01 Z-0.0480
G01 F60.00
G01 X0.9675 Y0.0750
G01 X0.6700 Y0.0750
G01 X0.6700 Y21.9250
G01 X0.3725 Y21.9250
G01 X0.3725 Y0.0750
G01 X0.0750 Y0.0750
G01 X0.0750 Y21.9250
G00 X0.0750 Y21.9250
G01 F30.00
G01 Z-0.0933
G01 F60.00
G01 X0.0750 Y0.0750
G01 X0.3725 Y0.0750
G01 X0.3725 Y21.9250
G01 X0.6700 Y21.9250
G01 X0.6700 Y0.0750
G01 X0.9675 Y0.0750
G01 X0.9675 Y8.0533
G00 Z2.0000
G00 X1.2650 Y7.9250
G01 F30.00
G01 Z-0.0480
G01 F60.00
G01 X1.2650 Y0.0750
G01 X1.5625 Y0.0750
G01 X1.5625 Y7.9250
G01 X1.8600 Y7.9250
G01 X1.8600 Y0.0750
G01 X2.1575 Y0.0750
G01 X2.1575 Y7.9250
G01 X2.4550 Y7.9250
G01 X2.4550 Y0.0750
G01 X2.7525 Y0.0750
G01 X2.7525 Y7.9250
G01 X3.0500 Y7.9250
G01 X3.0500 Y0.0750
G01 X3.3475 Y0.0750
G01 X3.3475 Y7.9680
G00 X3.3475 Y7.9680
G01 F30.00
G01 Z-0.0933
G01 F60.00
G01 X3.3475 Y0.0750
G01 X3.0500 Y0.0750
G01 X3.0500 Y7.9250
G01 X2.7525 Y7.9250
G01 X2.7525 Y0.0750
G01 X2.4550 Y0.0750
G01 X2.4550 Y7.9250
G01 X2.1575 Y7.9250
G01 X2.1575 Y0.0750
G01 X1.8600 Y0.0750
G01 X1.8600 Y7.9250
G01 X1.5625 Y7.9250
G01 X1.5625 Y0.0750
G01 X1.2650 Y0.0750
G01 X1.2650 Y7.9250
G00 Z2.0000
G00 X3.9425 Y7.9250
G01 F30.00
G01 Z-0.0480
G01 F60.00
G01 X3.9425 Y2.5554
G00 X3.9425 Y2.5554
G01 F30.00
G01 Z-0.0933
G01 F60.00
G01 X3.9425 Y7.9250
G00 Z2.0000
G00 X6.6200 Y15.5250
G01 F30.00
G01 Z-0.0480
G01 F60.00
G01 X6.6200 Y12.4750
G01 X6.9175 Y12.4750
G01 X6.9175 Y15.5250
G01 X7.2150 Y15.5250
G01 X7.2150 Y12.4750
G01 X7.5125 Y12.4750
G01 X7.5125 Y15.5250
G01 X7.8100 Y15.5250
G01 X7.8100 Y12.4750
G01 X8.1075 Y12.4750
G01 X8.1075 Y15.5250
G00 X8.1075 Y15.5250
G01 F30.00
G01 Z-0.0933
G01 F60.00
G01 X8.1075 Y12.4750
G01 X7.8100 Y12.4750
G01 X7.8100 Y15.5250
G01 X7.5125 Y15.5250
G01 X7.5125 Y12.4750
G01 X7.2150 Y12.4750
G01 X7.2150 Y15.5250
G01 X6.9175 Y15.5250
G01 X6.9175 Y12.4750
G01 X6.6200 Y12.4750
G01 X6.6200 Y15.5250
G00 Z2.0000
G00 X8.7025 Y18.1252
G01 F30.00
G01 Z-0.0480
G01 F60.00
G01 X8.7025 Y21.9250
G01 X9.0000 Y21.9250
G01 X9.0000 Y18.1252
G01 X9.2975 Y18.1252
G01 X9.2975 Y21.9250
G01 X9.5950 Y21.9250
G01 X9.5950 Y18.1252
G01 X9.8925 Y18.1252
G01 X9.8925 Y21.9250
G01 X10.1900 Y21.7039
G01 X10.1900 Y18.1252
G01 X10.4875 Y18.1252
G01 X10.4875 Y21.4064
G01 X10.7850 Y21.1089
G01 X10.7850 Y18.1252
G00 X10.7850 Y18.1252
G01 F30.00
G01 Z-0.0933
G01 F60.00
G01 X10.7850 Y21.1089
G01 X10.4875 Y21.4064
G01 X10.4875 Y18.1252
G01 X10.1900 Y18.1252
G01 X10.1900 Y21.7039
G01 X9.8925 Y21.9250
G01 X9.8925 Y18.1252
G01 X9.5950 Y18.1252
G01 X9.5950 Y21.9250
G01 X9.2975 Y21.9250
G01 X9.2975 Y18.1252
G01 X9.0000 Y18.1252
G01 X9.0000 Y21.9250
G01 X8.7025 Y21.9250
G01 X8.7025 Y18.1252
G00 Z2.0000
G00 X8.4050 Y20.0749
G01 F30.00
G01 Z-0.0480
G01 F60.00
G01 X8.4050 Y21.9250
G01 X8.1075 Y21.9250
G01 X8.1075 Y20.0750
G01 X7.8100 Y20.0750
G01 X7.8100 Y21.9250
G01 X7.5125 Y21.9250
G01 X7.5125 Y20.0750
G01 X7.2150 Y20.0750
G01 X7.2150 Y21.9250
G01 X6.9175 Y21.9250
G01 X6.9175 Y20.0750
G01 X6.6200 Y20.0750
G01 X6.6200 Y21.9250
G01 X6.3225 Y21.9250
G01 X6.3225 Y20.0638
G00 X6.3225 Y20.0638
G01 F30.00
G01 Z-0.0933
G01 F60.00
G01 X6.3225 Y21.9250
G01 X6.6200 Y21.9250
G01 X6.6200 Y20.0750
G01 X6.9175 Y20.0750
G01 X6.9175 Y21.9250
G01 X7.2150 Y21.9250
G01 X7.2150 Y20.0750
G01 X7.5125 Y20.0750
G01 X7.5125 Y21.9250
G01 X7.8100 Y21.9250
G01 X7.8100 Y20.0750
G01 X8.1075 Y20.0750
G01 X8.1075 Y21.9250
G01 X8.4050 Y21.9250
G01 X8.4050 Y20.0749
G00 Z2.0000
G00 X6.1250 Y19.8000
G01 F30.00
G01 Z-0.0480
G01 F60.00
G01 X6.1250 Y15.7969
G01 X6.1260 Y15.7772
G01 X6.1274 Y15.7645
G01 X6.1304 Y15.7456
G01 X6.1346 Y15.7285
G01 X6.1381 Y15.7162
G01 X6.1443 Y15.6989
G01 X6.1494 Y15.6869
G01 X6.1579 Y15.6695
G01 X6.1668 Y15.6545
G01 X6.1740 Y15.6434
G01 X6.1877 Y15.6251
G01 X6.1996 Y15.6118
G01 X6.2086 Y15.6025
G01 X6.2221 Y15.5903
G01 X6.2323 Y15.5821
G01 X6.2466 Y15.5717
G01 X6.2668 Y15.5594
G01 X6.2780 Y15.5536
G01 X6.2951 Y15.5458
G01 X6.3200 Y15.5369
G01 X6.3419 Y15.5312
G01 X6.3548 Y15.5288
G01 X6.3744 Y15.5262
G01 X6.4000 Y15.5250
G01 X8.4000 Y15.5250
G01 X8.4220 Y15.5259
G01 X8.4355 Y15.5274
G01 X8.4544 Y15.5304
G01 X8.4796 Y15.5368
G01 X8.5011 Y15.5443
G01 X8.5220 Y15.5536
G01 X8.5338 Y15.5598
G01 X8.5534 Y15.5717
G01 X8.5708 Y15.5845
G01 X8.5810 Y15.5930
G01 X8.5945 Y15.6055
G01 X8.6100 Y15.6225
G01 X8.6237 Y15.6402
G01 X8.6308 Y15.6505
G01 X8.6421 Y15.6695
G01 X8.6524 Y15.6910
G01 X8.6605 Y15.7120
G01 X8.6644 Y15.7244
G01 X8.6696 Y15.7456
G01 X8.6726 Y15.7645
G01 X8.6741 Y15.7780
G01 X8.6750 Y15.8000
G01 X8.6750 Y16.8748
G01 X10.3748 Y16.8748
G01 X10.3748 Y8.7590
G01 X7.4909 Y5.8750
G01 X7.0468 Y5.8750
G01 X7.0228 Y5.8736
G01 X7.0048 Y5.8712
G01 X6.9919 Y5.8688
G01 X6.9700 Y5.8631
G01 X6.9489 Y5.8557
G01 X6.9369 Y5.8506
G01 X6.9208 Y5.8428
G01 X6.9005 Y5.8308
G01 X6.8823 Y5.8179
G01 X6.8721 Y5.8097
G01 X6.8555 Y5.7945
G01 X6.8430 Y5.7810
G01 X6.8348 Y5.7712
G01 X6.8217 Y5.7534
G01 X6.8094 Y5.7332
G01 X6.8036 Y5.7220
G01 X6.7958 Y5.7049
G01 X6.7882 Y5.6840
G01 X6.7846 Y5.6715
G01 X6.7795 Y5.6497
G01 X6.7764 Y5.6272
G01 X6.7750 Y5.6000
G01 X6.7750 Y4.3968
G01 X6.7764 Y4.3728
G01 X6.7795 Y4.3503
G01 X6.7846 Y4.3285
G01 X6.7895 Y4.3120
G01 X6.7976 Y4.2910
G01 X6.8072 Y4.2708
G01 X6.8217 Y4.2466
G01 X6.8348 Y4.2288
G01 X6.8348 Y2.9352
G01 X6.8239 Y2.9276
G01 X6.7569 Y2.8779
G01 X6.7361 Y2.8608
G01 X6.6743 Y2.8048
G01 X6.6611 Y2.7919
G01 X6.5936 Y2.7174
G01 X6.5821 Y2.7031
G01 X6.5324 Y2.6361
G01 X6.5174 Y2.6136
G01 X6.4745 Y2.5421
G01 X6.4656 Y2.5259
G01 X6.4226 Y2.4350
G01 X6.4158 Y2.4179
G01 X6.3877 Y2.3394
G01 X6.3798 Y2.3136
G01 X6.3596 Y2.2326
G01 X6.3558 Y2.2146
G01 X6.3412 Y2.1171
G01 X6.3394 Y2.0968
G01 X6.3353 Y2.0135
G01 X6.3353 Y1.9865
G01 X6.3401 Y1.8946
G01 X6.3421 Y1.8763
G01 X6.3543 Y1.7938
G01 X6.3596 Y1.7674
G01 X6.3812 Y1.6815
G01 X6.3877 Y1.6606
G01 X6.4174 Y1.5777
G01 X6.4261 Y1.5571
G01 X6.4656 Y1.4741
G01 X6.4745 Y1.4579
G01 X6.5174 Y1.3864
G01 X6.5300 Y1.3672
G01 X6.5821 Y1.2969
G01 X6.5992 Y1.2761
G01 X6.6552 Y1.2143
G01 X6.6709 Y1.1984
G01 X6.7361 Y1.1392
G01 X6.7569 Y1.1221
G01 X6.8239 Y1.0724
G01 X6.8391 Y1.0620
G01 X6.9179 Y1.0145
G01 X6.9341 Y1.0056
G01 X7.0171 Y0.9661
G01 X7.0341 Y0.9589
G01 X7.1206 Y0.9277
G01 X7.1382 Y0.9221
G01 X7.2357 Y0.8977
G01 X7.2538 Y0.8943
G01 X7.3449 Y0.8810
G01 X7.3632 Y0.8794
G01 X7.4551 Y0.8751
G01 X7.4735 Y0.8753
G01 X7.5609 Y0.8797
G01 X7.5837 Y0.8821
G01 X7.6662 Y0.8943
G01 X7.6926 Y0.8996
G01 X7.7736 Y0.9198
G01 X7.7912 Y0.9250
G01 X7.8779 Y0.9558
G01 X7.8950 Y0.9626
G01 X7.9859 Y1.0056
G01 X8.0021 Y1.0145
G01 X8.0736 Y1.0574
G01 X8.0961 Y1.0724
G01 X8.1663 Y1.1245
G01 X8.1839 Y1.1392
G01 X8.2457 Y1.1952
G01 X8.2589 Y1.2081
G01 X8.3208 Y1.2761
G01 X8.3327 Y1.2902
G01 X8.3926 Y1.3710
G01 X8.4026 Y1.3864
G01 X8.4455 Y1.4579
G01 X8.4582 Y1.4817
G01 X8.4939 Y1.5571
G01 X8.5042 Y1.5821
G01 X8.5331 Y1.6628
G01 X8.5379 Y1.6782
G01 X8.5604 Y1.7674
G01 X8.5647 Y1.7879
G01 X8.5790 Y1.8849
G01 X8.5806 Y1.9032
G01 X8.5847 Y1.9865
G01 X8.5847 Y2.0135
G01 X8.5806 Y2.0968
G01 X8.5790 Y2.1151
G01 X8.5642 Y2.2146
G01 X8.5604 Y2.2326
G01 X8.5402 Y2.3136
G01 X8.5323 Y2.3394
G01 X8.5042 Y2.4179
G01 X8.4974 Y2.4350
G01 X8.4546 Y2.5255
G01 X8.4455 Y2.5421
G01 X8.4026 Y2.6136
G01 X8.3876 Y2.6361
G01 X8.3379 Y2.7031
G01 X8.3261 Y2.7178
G01 X8.2589 Y2.7919
G01 X8.2457 Y2.8048
G01 X8.1839 Y2.8608
G01 X8.1631 Y2.8779
G01 X8.0961 Y2.9276
G01 X8.0852 Y2.9352
G01 X8.0852 Y4.1606
G01 X8.0995 Y4.1692
G01 X8.1066 Y4.1740
G01 X8.1215 Y4.1851
G01 X8.1310 Y4.1930
G01 X8.1445 Y4.2055
G01 X8.1570 Y4.2190
G01 X8.1652 Y4.2288
G01 X8.1737 Y4.2402
G01 X8.1808 Y4.2505
G01 X8.1906 Y4.2668
G01 X8.1946 Y4.2744
G01 X8.2024 Y4.2910
G01 X8.2072 Y4.3028
G01 X8.2131 Y4.3200
G01 X8.2196 Y4.3459
G01 X8.2226 Y4.3645
G01 X8.2238 Y4.3744
G01 X8.2250 Y4.4000
G01 X8.2250 Y4.8409
G01 X11.4451 Y8.0610
G01 X11.4777 Y8.0968
G01 X11.4916 Y8.1140
G01 X11.5130 Y8.1430
G01 X11.5224 Y8.1568
G01 X11.5485 Y8.2002
G01 X11.5553 Y8.2131
G01 X11.5721 Y8.2484
G01 X11.5813 Y8.2703
G01 X11.5967 Y8.3139
G01 X11.6011 Y8.3286
G01 X11.6102 Y8.3649
G01 X11.6155 Y8.3913
G01 X11.6214 Y8.4324
G01 X11.6232 Y8.4522
G01 X11.6252 Y8.5000
G01 X11.6252 Y17.5000
G01 X11.6248 Y17.5135
G01 X11.6229 Y17.5517
G01 X11.6213 Y17.5691
G01 X11.6155 Y17.6087
G01 X11.6102 Y17.6351
G01 X11.6008 Y17.6726
G01 X11.5957 Y17.6894
G01 X11.5824 Y17.7267
G01 X11.5756 Y17.7437
G01 X11.5536 Y17.7903
G01 X11.5466 Y17.8032
G01 X11.5248 Y17.8396
G01 X11.5146 Y17.8548
G01 X11.4916 Y17.8860
G01 X11.4749 Y17.9064
G01 X11.4486 Y17.9353
G01 X11.4354 Y17.9484
G01 X11.4068 Y17.9745
G01 X11.3927 Y17.9863
G01 X11.3513 Y18.0170
G01 X11.3396 Y18.0248
G01 X11.3047 Y18.0458
G01 X11.2861 Y18.0558
G01 X11.2516 Y18.0721
G01 X11.2267 Y18.0824
G01 X11.1902 Y18.0954
G01 X11.1730 Y18.1007
G01 X11.1351 Y18.1102
G01 X11.1171 Y18.1140
G01 X11.0737 Y18.1206
G01 X11.0564 Y18.1225
G01 X11.0135 Y18.1248
G01 X11.0000 Y18.1252
G01 X8.6750 Y18.1252
G01 X8.6750 Y19.8000
G01 X8.6738 Y19.8259
G01 X8.6704 Y19.8498
G01 X8.6678 Y19.8620
G01 X8.6635 Y19.8787
G01 X8.6555 Y19.9017
G01 X8.6506 Y19.9131
G01 X8.6409 Y19.9325
G01 X8.6283 Y19.9534
G01 X8.6179 Y19.9677
G01 X8.6094 Y19.9782
G01 X8.5935 Y19.9954
G01 X8.5780 Y20.0096
G01 X8.5677 Y20.0179
G01 X8.5512 Y20.0297
G01 X8.5338 Y20.0402
G01 X8.5220 Y20.0464
G01 X8.5042 Y20.0545
G01 X8.4796 Y20.0632
G01 X8.4549 Y20.0695
G01 X8.4288 Y20.0735
G01 X8.4184 Y20.0743
G01 X8.4000 Y20.0750
G01 X6.4000 Y20.0750
G01 X6.3816 Y20.0743
G01 X6.3712 Y20.0735
G01 X6.3452 Y20.0695
G01 X6.3200 Y20.0631
G01 X6.2958 Y20.0545
G01 X6.2740 Y20.0444
G01 X6.2629 Y20.0383
G01 X6.2481 Y20.0292
G01 X6.2272 Y20.0140
G01 X6.2190 Y20.0070
G01 X6.2065 Y19.9954
G01 X6.1930 Y19.9810
G01 X6.1821 Y19.9677
G01 X6.1740 Y19.9566
G01 X6.1668 Y19.9455
G01 X6.1591 Y19.9325
G01 X6.1550 Y19.9249
G01 X6.1478 Y19.9096
G01 X6.1445 Y19.9017
G01 X6.1365 Y19.8787
G01 X6.1304 Y19.8544
G01 X6.1264 Y19.8275
G01 X6.1250 Y19.8000
G00 X6.1250 Y19.8000
G01 F30.00
G01 Z-0.0933
G01 F60.00
G01 X6.1264 Y19.8275
G01 X6.1304 Y19.8544
G01 X6.1365 Y19.8787
G01 X6.1445 Y19.9017
G01 X6.1478 Y19.9096
G01 X6.1550 Y19.9249
G01 X6.1591 Y19.9325
G01 X6.1668 Y19.9455
G01 X6.1740 Y19.9566
G01 X6.1821 Y19.9677
G01 X6.1930 Y19.9810
G01 X6.2065 Y19.9954
G01 X6.2190 Y20.0070
G01 X6.2272 Y20.0140
G01 X6.2481 Y20.0292
G01 X6.2629 Y20.0383
G01 X6.2740 Y20.0444
G01 X6.2958 Y20.0545
G01 X6.3200 Y20.0631
G01 X6.3452 Y20.0695
G01 X6.3712 Y20.0735
G01 X6.3816 Y20.0743
G01 X6.4000 Y20.0750
G01 X8.4000 Y20.0750
G01 X8.4184 Y20.0743
G01 X8.4288 Y20.0735
G01 X8.4549 Y20.0695
G01 X8.4796 Y20.0632
G01 X8.5042 Y20.0545
G01 X8.5220 Y20.0464
G01 X8.5338 Y20.0402
G01 X8.5512 Y20.0297
G01 X8.5677 Y20.0179
G01 X8.5780 Y20.0096
G01 X8.5935 Y19.9954
G01 X8.6094 Y19.9782
G01 X8.6179 Y19.9677
G01 X8.6283 Y19.9534
G01 X8.6409 Y19.9325
G01 X8.6506 Y19.9131
G01 X8.6555 Y19.9017
G01 X8.6635 Y19.8787
G01 X8.6678 Y19.8620
G01 X8.6704 Y19.8498
G01 X8.6738 Y19.8259
G01 X8.6750 Y19.8000
G01 X8.6750 Y18.1252
G01 X11.0000 Y18.1252
G01 X11.0135 Y18.1248
G01 X11.0564 Y18.1225
G01 X11.0737 Y18.1206
G01 X11.1171 Y18.1140
G01 X11.1351 Y18.1102
G01 X11.1730 Y18.1007
G01 X11.1902 Y18.0954
G01 X11.2267 Y18.0824
G01 X11.2516 Y18.0721
G01 X11.2861 Y18.0558
G01 X11.3047 Y18.0458
G01 X11.3396 Y18.0248
G01 X11.3513 Y18.0170
G01 X11.3927 Y17.9863
G01 X11.4068 Y17.9745
G01 X11.4354 Y17.9484
G01 X11.4486 Y17.9353
G01 X11.4749 Y17.9064
G01 X11.4916 Y17.8860
G01 X11.5146 Y17.8548
G01 X11.5248 Y17.8396
G01 X11.5466 Y17.8032
G01 X11.5536 Y17.7903
G01 X11.5756 Y17.7437
G01 X11.5824 Y17.7267
G01 X11.5957 Y17.6894
G01 X11.6008 Y17.6726
G01 X11.6102 Y17.6351
G01 X11.6155 Y17.6087
G01 X11.6213 Y17.5691
G01 X11.6229 Y17.5517
G01 X11.6248 Y17.5135
G01 X11.6252 Y17.5000
G01 X11.6252 Y8.5000
G01 X11.6232 Y8.4522
G01 X11.6214 Y8.4324
G01 X11.6155 Y8.3913
G01 X11.6102 Y8.3649
G01 X11.6011 Y8.3286
G01 X11.5967 Y8.3139
G01 X11.5813 Y8.2703
G01 X11.5721 Y8.2484
G01 X11.5553 Y8.2131
G01 X11.5485 Y8.2002
G01 X11.5224 Y8.1568
G01 X11.5130 Y8.1430
G01 X11.4916 Y8.1140
G01 X11.4777 Y8.0968
G01 X11.4451 Y8.0610
G01 X8.2250 Y4.8409
G01 X8.2250 Y4.4000
G01 X8.2238 Y4.3744
G01 X8.2226 Y4.3645
G01 X8.2196 Y4.3459
G01 X8.2131 Y4.3200
G01 X8.2072 Y4.3028
G01 X8.2024 Y4.2910
G01 X8.1946 Y4.2744
G01 X8.1906 Y4.2668
G01 X8.1808 Y4.2505
G01 X8.1737 Y4.2402
G01 X8.1652 Y4.2288
G01 X8.1570 Y4.2190
G01 X8.1445 Y4.2055
G01 X8.1310 Y4.1930
G01 X8.1215 Y4.1851
G01 X8.1066 Y4.1740
G01 X8.0995 Y4.1692
G01 X8.0852 Y4.1606
G01 X8.0852 Y2.9352
G01 X8.0961 Y2.9276
G01 X8.1631 Y2.8779
G01 X8.1839 Y2.8608
G01 X8.2457 Y2.8048
G01 X8.2589 Y2.7919
G01 X8.3261 Y2.7178
G01 X8.3379 Y2.7031
G01 X8.3876 Y2.6361
G01 X8.4026 Y2.6136
G01 X8.4455 Y2.5421
G01 X8.4546 Y2.5255
G01 X8.4974 Y2.4350
G01 X8.5042 Y2.4179
G01 X8.5323 Y2.3394
G01 X8.5402 Y2.3136
G01 X8.5604 Y2.2326
G01 X8.5642 Y2.2146
G01 X8.5790 Y2.1151
G01 X8.5806 Y2.0968
G01 X8.5847 Y2.0135
G01 X8.5847 Y1.9865
G01 X8.5806 Y1.9032
G01 X8.5790 Y1.8849
G01 X8.5647 Y1.7879
G01 X8.5604 Y1.7674
G01 X8.5379 Y1.6782
G01 X8.5331 Y1.6628
G01 X8.5042 Y1.5821
G01 X8.4939 Y1.5571
G01 X8.4582 Y1.4817
G01 X8.4455 Y1.4579
G01 X8.4026 Y1.3864
G01 X8.3926 Y1.3710
G01 X8.3327 Y1.2902
G01 X8.3208 Y1.2761
G01 X8.2589 Y1.2081
G01 X8.2457 Y1.1952
G01 X8.1839 Y1.1392
G01 X8.1663 Y1.1245
G01 X8.0961 Y1.0724
G01 X8.0736 Y1.0574
G01 X8.0021 Y1.0145
G01 X7.9859 Y1.0056
G01 X7.8950 Y0.9626
G01 X7.8779 Y0.9558
G01 X7.7912 Y0.9250
G01 X7.7736 Y0.9198
G01 X7.6926 Y0.8996
G01 X7.6662 Y0.8943
G01 X7.5837 Y0.8821
G01 X7.5609 Y0.8797
G01 X7.4735 Y0.8753
G01 X7.4551 Y0.8751
G01 X7.3632 Y0.8794
G01 X7.3449 Y0.8810
G01 X7.2538 Y0.8943
G01 X7.2357 Y0.8977
G01 X7.1382 Y0.9221
G01 X7.1206 Y0.9277
G01 X7.0341 Y0.9589
G01 X7.0171 Y0.9661
G01 X6.9341 Y1.0056
G01 X6.9179 Y1.0145
G01 X6.8391 Y1.0620
G01 X6.8239 Y1.0724
G01 X6.7569 Y1.1221
G01 X6.7361 Y1.1392
G01 X6.6709 Y1.1984
G01 X6.6552 Y1.2143
G01 X6.5992 Y1.2761
G01 X6.5821 Y1.2969
G01 X6.5300 Y1.3672
G01 X6.5174 Y1.3864
G01 X6.4745 Y1.4579
G01 X6.4656 Y1.4741
G01 X6.4261 Y1.5571
G01 X6.4174 Y1.5777
G01 X6.3877 Y1.6606
G01 X6.3812 Y1.6815
G01 X6.3596 Y1.7674
G01 X6.3543 Y1.7938
G01 X6.3421 Y1.8763
G01 X6.3401 Y1.8946
G01 X6.3353 Y1.9865
G01 X6.3353 Y2.0135
G01 X6.3394 Y2.0968
G01 X6.3412 Y2.1171
G01 X6.3558 Y2.2146
G01 X6.3596 Y2.2326
G01 X6.3798 Y2.3136
G01 X6.3877 Y2.3394
G01 X6.4158 Y2.4179
G01 X6.4226 Y2.4350
G01 X6.4656 Y2.5259
G01 X6.4745 Y2.5421
G01 X6.5174 Y2.6136
G01 X6.5324 Y2.6361
G01 X6.5821 Y2.7031
G01 X6.5936 Y2.7174
G01 X6.6611 Y2.7919
G01 X6.6743 Y2.8048
G01 X6.7361 Y2.8608
G01 X6.7569 Y2.8779
G01 X6.8239 Y2.9276
G01 X6.8348 Y2.9352
G01 X6.8348 Y4.2288
G01 X6.8217 Y4.2466
G01 X6.8072 Y4.2708
G01 X6.7976 Y4.2910
G01 X6.7895 Y4.3120
G01 X6.7846 Y4.3285
G01 X6.7795 Y4.3503
G01 X6.7764 Y4.3728
G01 X6.7750 Y4.3968
G01 X6.7750 Y5.6000
G01 X6.7764 Y5.6272
G01 X6.7795 Y5.6497
G01 X6.7846 Y5.6715
G01 X6.7882 Y5.6840
G01 X6.7958 Y5.7049
G01 X6.8036 Y5.7220
G01 X6.8094 Y5.7332
G01 X6.8217 Y5.7534
G01 X6.8348 Y5.7712
G01 X6.8430 Y5.7810
G01 X6.8555 Y5.7945
G01 X6.8721 Y5.8097
G01 X6.8823 Y5.8179
G01 X6.9005 Y5.8308
G01 X6.9208 Y5.8428
G01 X6.9369 Y5.8506
G01 X6.9489 Y5.8557
G01 X6.9700 Y5.8631
G01 X6.9919 Y5.8688
G01 X7.0048 Y5.8712
G01 X7.0228 Y5.8736
G01 X7.0468 Y5.8750
G01 X7.4909 Y5.8750
G01 X10.3748 Y8.7590
G01 X10.3748 Y16.8748
G01 X8.6750 Y16.8748
G01 X8.6750 Y15.8000
G01 X8.6741 Y15.7780
G01 X8.6726 Y15.7645
G01 X8.6696 Y15.7456
G01 X8.6644 Y15.7244
G01 X8.6605 Y15.7120
G01 X8.6524 Y15.6910
G01 X8.6421 Y15.6695
G01 X8.6308 Y15.6505
G01 X8.6237 Y15.6402
G01 X8.6100 Y15.6225
G01 X8.5945 Y15.6055
G01 X8.5810 Y15.5930
G01 X8.5708 Y15.5845
G01 X8.5534 Y15.5717
G01 X8.5338 Y15.5598
G01 X8.5220 Y15.5536
G01 X8.5011 Y15.5443
G01 X8.4796 Y15.5368
G01 X8.4544 Y15.5304
G01 X8.4355 Y15.5274
G01 X8.4220 Y15.5259
G01 X8.4000 Y15.5250
G01 X6.4000 Y15.5250
G01 X6.3744 Y15.5262
G01 X6.3548 Y15.5288
G01 X6.3419 Y15.5312
G01 X6.3200 Y15.5369
G01 X6.2951 Y15.5458
G01 X6.2780 Y15.5536
G01 X6.2668 Y15.5594
G01 X6.2466 Y15.5717
G01 X6.2323 Y15.5821
G01 X6.2221 Y15.5903
G01 X6.2086 Y15.6025
G01 X6.1996 Y15.6118
G01 X6.1877 Y15.6251
G01 X6.1740 Y15.6434
G01 X6.1668 Y15.6545
G01 X6.1579 Y15.6695
G01 X6.1494 Y15.6869
G01 X6.1443 Y15.6989
G01 X6.1381 Y15.7162
G01 X6.1346 Y15.7285
G01 X6.1304 Y15.7456
G01 X6.1274 Y15.7645
G01 X6.1260 Y15.7772
G01 X6.1250 Y15.7969
G01 X6.1250 Y19.8000
G00 Z2.0000
G00 X6.0250 Y19.9580
G01 F30.00
G01 Z-0.0480
G01 F60.00
G01 X6.0250 Y21.9250
G01 X5.7275 Y21.9250
G01 X5.7275 Y20.0750
G01 X5.4300 Y20.0750
G01 X5.4300 Y21.9250
G01 X5.1325 Y21.9250
G01 X5.1325 Y20.0750
G01 X4.8350 Y20.0750
G01 X4.8350 Y21.9250
G01 X4.5375 Y21.9250
G01 X4.5375 Y20.0750
G01 X4.2400 Y20.0750
G01 X4.2400 Y21.9250
G01 X3.9425 Y21.9250
G01 X3.9425 Y20.0750
G00 X3.9425 Y20.0750
G01 F30.00
G01 Z-0.0933
G01 F60.00
G01 X3.9425 Y21.9250
G01 X4.2400 Y21.9250
G01 X4.2400 Y20.0750
G01 X4.5375 Y20.0750
G01 X4.5375 Y21.9250
G01 X4.8350 Y21.9250
G01 X4.8350 Y20.0750
G01 X5.1325 Y20.0750
G01 X5.1325 Y21.9250
G01 X5.4300 Y21.9250
G01 X5.4300 Y20.0750
G01 X5.7275 Y20.0750
G01 X5.7275 Y21.9250
G01 X6.0250 Y21.9250
G01 X6.0250 Y19.9580
G00 Z2.0000
G00 X3.6450 Y20.0271
G01 F30.00
G01 Z-0.0480
G01 F60.00
G01 X3.6450 Y21.9250
G01 X3.3475 Y21.9250
G01 X3.3475 Y20.0320
G00 X3.3475 Y20.0320
G01 F30.00
G01 Z-0.0933
G01 F60.00
G01 X3.3475 Y21.9250
G01 X3.6450 Y21.9250
G01 X3.6450 Y20.0271
G00 Z2.0000
G00 X3.5274 Y19.8355
G01 F30.00
G01 Z-0.0480
G01 F60.00
G01 X3.5259 Y19.8226
G01 X3.5250 Y19.8000
G01 X3.5250 Y15.8000
G01 X3.5257 Y15.7816
G01 X3.5268 Y15.7686
G01 X3.5303 Y15.7463
G01 X3.5346 Y15.7285
G01 X3.5381 Y15.7162
G01 X3.5458 Y15.6951
G01 X3.5536 Y15.6780
G01 X3.5600 Y15.6659
G01 X3.5714 Y15.6472
G01 X3.5821 Y15.6323
G01 X3.5902 Y15.6223
G01 X3.6025 Y15.6086
G01 X3.6118 Y15.5996
G01 X3.6257 Y15.5873
G01 X3.6432 Y15.5741
G01 X3.6545 Y15.5668
G01 X3.6705 Y15.5574
G01 X3.6910 Y15.5476
G01 X3.7028 Y15.5428
G01 X3.7204 Y15.5368
G01 X3.7380 Y15.5322
G01 X3.7503 Y15.5296
G01 X3.7694 Y15.5267
G01 X3.7914 Y15.5252
G01 X5.8000 Y15.5250
G01 X5.8184 Y15.5257
G01 X5.8306 Y15.5267
G01 X5.8541 Y15.5304
G01 X5.8715 Y15.5346
G01 X5.8840 Y15.5382
G01 X5.9049 Y15.5458
G01 X5.9220 Y15.5536
G01 X5.9332 Y15.5594
G01 X5.9534 Y15.5717
G01 X5.9677 Y15.5821
G01 X5.9779 Y15.5903
G01 X5.9945 Y15.6055
G01 X6.0070 Y15.6190
G01 X6.0155 Y15.6292
G01 X6.0290 Y15.6477
G01 X6.0383 Y15.6629
G01 X6.0443 Y15.6737
G01 X6.0542 Y15.6951
G01 X6.0605 Y15.7120
G01 X6.0644 Y15.7244
G01 X6.0696 Y15.7456
G01 X6.0726 Y15.7645
G01 X6.0740 Y15.7772
G01 X6.0750 Y15.7969
G01 X6.0750 Y19.8000
G01 X6.0743 Y19.8184
G01 X6.0732 Y19.8315
G01 X6.0696 Y19.8544
G01 X6.0654 Y19.8715
G01 X6.0620 Y19.8834
G01 X6.0555 Y19.9017
G01 X6.0506 Y19.9131
G01 X6.0409 Y19.9325
G01 X6.0308 Y19.9495
G01 X6.0237 Y19.9598
G01 X6.0117 Y19.9755
G01 X6.0004 Y19.9882
G01 X5.9909 Y19.9979
G01 X5.9755 Y20.0117
G01 X5.9598 Y20.0237
G01 X5.9484 Y20.0315
G01 X5.9285 Y20.0431
G01 X5.9131 Y20.0506
G01 X5.9021 Y20.0553
G01 X5.8840 Y20.0618
G01 X5.8715 Y20.0654
G01 X5.8511 Y20.0702
G01 X5.8321 Y20.0731
G01 X5.8184 Y20.0743
G01 X5.8000 Y20.0750
G01 X3.7914 Y20.0748
G01 X3.7712 Y20.0735
G01 X3.7452 Y20.0695
G01 X3.7204 Y20.0632
G01 X3.6958 Y20.0545
G01 X3.6869 Y20.0506
G01 X3.6702 Y20.0424
G01 X3.6481 Y20.0292
G01 X3.6276 Y20.0143
G01 X3.6118 Y20.0004
G01 X3.5996 Y19.9882
G01 X3.5887 Y19.9759
G01 X3.5821 Y19.9677
G01 X3.5736 Y19.9561
G01 X3.5688 Y19.9489
G01 X3.5592 Y19.9328
G01 X3.5552 Y19.9252
G01 X3.5460 Y19.9053
G01 X3.5395 Y19.8880
G01 X3.5365 Y19.8787
G01 X3.5310 Y19.8571
G01 X3.5274 Y19.8355
G00 X3.5274 Y19.8355
G01 F30.00
G01 Z-0.0933
G01 F60.00
G01 X3.5310 Y19.8571
G01 X3.5365 Y19.8787
G01 X3.5395 Y19.8880
G01 X3.5460 Y19.9053
G01 X3.5552 Y19.9252
G01 X3.5592 Y19.9328
G01 X3.5688 Y19.9489
G01 X3.5736 Y19.9561
G01 X3.5821 Y19.9677
G01 X3.5887 Y19.9759
G01 X3.5996 Y19.9882
G01 X3.6118 Y20.0004
G01 X3.6276 Y20.0143
G01 X3.6481 Y20.0292
G01 X3.6702 Y20.0424
G01 X3.6869 Y20.0506
G01 X3.6958 Y20.0545
G01 X3.7204 Y20.0632
G01 X3.7452 Y20.0695
G01 X3.7712 Y20.0735
G01 X3.7914 Y20.0748
G01 X5.8000 Y20.0750
G01 X5.8184 Y20.0743
G01 X5.8321 Y20.0731
G01 X5.8511 Y20.0702
G01 X5.8715 Y20.0654
G01 X5.8840 Y20.0618
G01 X5.9021 Y20.0553
G01 X5.9131 Y20.0506
G01 X5.9285 Y20.0431
G01 X5.9484 Y20.0315
G01 X5.9598 Y20.0237
G01 X5.9755 Y20.0117
G01 X5.9909 Y19.9979
G01 X6.0004 Y19.9882
G01 X6.0117 Y19.9755
G01 X6.0237 Y19.9598
G01 X6.0308 Y19.9495
G01 X6.0409 Y19.9325
G01 X6.0506 Y19.9131
G01 X6.0555 Y19.9017
G01 X6.0620 Y19.8834
G01 X6.0654 Y19.8715
G01 X6.0696 Y19.8544
G01 X6.0732 Y19.8315
G01 X6.0743 Y19.8184
G01 X6.0750 Y19.8000
G01 X6.0750 Y15.7969
G01 X6.0740 Y15.7772
G01 X6.0726 Y15.7645
G01 X6.0696 Y15.7456
G01 X6.0644 Y15.7244
G01 X6.0605 Y15.7120
G01 X6.0542 Y15.6951
G01 X6.0443 Y15.6737
G01 X6.0383 Y15.6629
G01 X6.0290 Y15.6477
G01 X6.0155 Y15.6292
G01 X6.0070 Y15.6190
G01 X5.9945 Y15.6055
G01 X5.9779 Y15.5903
G01 X5.9677 Y15.5821
G01 X5.9534 Y15.5717
G01 X5.9332 Y15.5594
G01 X5.9220 Y15.5536
G01 X5.9049 Y15.5458
G01 X5.8840 Y15.5382
G01 X5.8715 Y15.5346
G01 X5.8541 Y15.5304
G01 X5.8306 Y15.5267
G01 X5.8184 Y15.5257
G01 X5.8000 Y15.5250
G01 X3.7914 Y15.5252
G01 X3.7694 Y15.5267
G01 X3.7503 Y15.5296
G01 X3.7380 Y15.5322
G01 X3.7204 Y15.5368
G01 X3.7028 Y15.5428
G01 X3.6910 Y15.5476
G01 X3.6705 Y15.5574
G01 X3.6545 Y15.5668
G01 X3.6432 Y15.5741
G01 X3.6257 Y15.5873
G01 X3.6118 Y15.5996
G01 X3.6025 Y15.6086
G01 X3.5902 Y15.6223
G01 X3.5821 Y15.6323
G01 X3.5714 Y15.6472
G01 X3.5600 Y15.6659
G01 X3.5536 Y15.6780
G01 X3.5458 Y15.6951
G01 X3.5381 Y15.7162
G01 X3.5346 Y15.7285
G01 X3.5303 Y15.7463
G01 X3.5268 Y15.7686
G01 X3.5257 Y15.7816
G01 X3.5250 Y15.8000
G01 X3.5250 Y19.8000
G01 X3.5259 Y19.8226
G01 X3.5274 Y19.8355
G00 Z2.0000
G00 X3.0500 Y20.0750
G01 F30.00
G01 Z-0.0480
G01 F60.00
G01 X3.0500 Y21.9250
G01 X2.7525 Y21.9250
G01 X2.7525 Y20.0750
G01 X2.4550 Y20.0750
G01 X2.4550 Y21.9250
G01 X2.1575 Y21.9250
G01 X2.1575 Y20.0750
G01 X1.8600 Y20.0750
G01 X1.8600 Y21.9250
G01 X1.5625 Y21.9250
G01 X1.5625 Y20.0750
G01 X1.2650 Y20.0750
G01 X1.2650 Y21.9250
G01 X0.9675 Y21.9250
G01 X0.9675 Y19.9467
G00 X0.9675 Y19.9467
G01 F30.00
G01 Z-0.0933
G01 F60.00
G01 X0.9675 Y21.9250
G01 X1.2650 Y21.9250
G01 X1.2650 Y20.0750
G01 X1.5625 Y20.0750
G01 X1.5625 Y21.9250
G01 X1.8600 Y21.9250
G01 X1.8600 Y20.0750
G01 X2.1575 Y20.0750
G01 X2.1575 Y21.9250
G01 X2.4550 Y21.9250
G01 X2.4550 Y20.0750
G01 X2.7525 Y20.0750
G01 X2.7525 Y21.9250
G01 X3.0500 Y21.9250
G01 X3.0500 Y20.0750
G00 Z2.0000
G00 X0.9322 Y19.8620
G01 F30.00
G01 Z-0.0480
G01 F60.00
G01 X0.9295 Y19.8492
G01 X0.9268 Y19.8313
G01 X0.9257 Y19.8184
G01 X0.9250 Y19.8000
G01 X0.9250 Y15.8000
G01 X0.9257 Y15.7816
G01 X0.9268 Y15.7688
G01 X0.9303 Y15.7463
G01 X0.9346 Y15.7285
G01 X0.9382 Y15.7160
G01 X0.9459 Y15.6948
G01 X0.9536 Y15.6780
G01 X0.9598 Y15.6662
G01 X0.9715 Y15.6469
G01 X0.9821 Y15.6323
G01 X0.9901 Y15.6224
G01 X1.0026 Y15.6085
G01 X1.0118 Y15.5996
G01 X1.0257 Y15.5873
G01 X1.0433 Y15.5740
G01 X1.0545 Y15.5668
G01 X1.0705 Y15.5574
G01 X1.0910 Y15.5476
G01 X1.1028 Y15.5428
G01 X1.1203 Y15.5368
G01 X1.1380 Y15.5322
G01 X1.1502 Y15.5296
G01 X1.1694 Y15.5267
G01 X1.1914 Y15.5252
G01 X3.2000 Y15.5250
G01 X3.2184 Y15.5257
G01 X3.2306 Y15.5267
G01 X3.2543 Y15.5304
G01 X3.2715 Y15.5346
G01 X3.2838 Y15.5381
G01 X3.3049 Y15.5458
G01 X3.3220 Y15.5536
G01 X3.3333 Y15.5595
G01 X3.3497 Y15.5693
G01 X3.3598 Y15.5763
G01 X3.3743 Y15.5873
G01 X3.3914 Y15.6025
G01 X3.4004 Y15.6118
G01 X3.4126 Y15.6256
G01 X3.4264 Y15.6439
G01 X3.4332 Y15.6545
G01 X3.4421 Y15.6695
G01 X3.4524 Y15.6910
G01 X3.4572 Y15.7028
G01 X3.4632 Y15.7204
G01 X3.4688 Y15.7421
G01 X3.4712 Y15.7548
G01 X3.4736 Y15.7728
G01 X3.4749 Y15.7953
G01 X3.4750 Y19.8000
G01 X3.4743 Y19.8184
G01 X3.4732 Y19.8315
G01 X3.4696 Y19.8544
G01 X3.4654 Y19.8715
G01 X3.4619 Y19.8837
G01 X3.4555 Y19.9017
G01 X3.4464 Y19.9220
G01 X3.4406 Y19.9331
G01 X3.4312 Y19.9489
G01 X3.4237 Y19.9598
G01 X3.4113 Y19.9759
G01 X3.4004 Y19.9882
G01 X3.3909 Y19.9979
G01 X3.3753 Y20.0119
G01 X3.3598 Y20.0237
G01 X3.3485 Y20.0314
G01 X3.3292 Y20.0428
G01 X3.3131 Y20.0506
G01 X3.3006 Y20.0559
G01 X3.2838 Y20.0619
G01 X3.2715 Y20.0654
G01 X3.2512 Y20.0702
G01 X3.2321 Y20.0731
G01 X3.2184 Y20.0743
G01 X3.2000 Y20.0750
G01 X1.1957 Y20.0749
G01 X1.1712 Y20.0735
G01 X1.1486 Y20.0702
G01 X1.1244 Y20.0644
G01 X1.1028 Y20.0572
G01 X1.0869 Y20.0506
G01 X1.0664 Y20.0404
G01 X1.0483 Y20.0294
G01 X1.0272 Y20.0140
G01 X1.0079 Y19.9968
G01 X0.9930 Y19.9810
G01 X0.9821 Y19.9677
G01 X0.9690 Y19.9492
G01 X0.9565 Y19.9279
G01 X0.9461 Y19.9057
G01 X0.9380 Y19.8836
G01 X0.9322 Y19.8620
G00 X0.9322 Y19.8620
G01 F30.00
G01 Z-0.0933
G01 F60.00
G01 X0.9380 Y19.8836
G01 X0.9461 Y19.9057
G01 X0.9565 Y19.9279
G01 X0.9690 Y19.9492
G01 X0.9821 Y19.9677
G01 X0.9930 Y19.9810
G01 X1.0079 Y19.9968
G01 X1.0272 Y20.0140
G01 X1.0483 Y20.0294
G01 X1.0664 Y20.0404
G01 X1.0869 Y20.0506
G01 X1.1028 Y20.0572
G01 X1.1244 Y20.0644
G01 X1.1486 Y20.0702
G01 X1.1712 Y20.0735
G01 X1.1957 Y20.0749
G01 X3.2000 Y20.0750
G01 X3.2184 Y20.0743
G01 X3.2321 Y20.0731
G01 X3.2512 Y20.0702
G01 X3.2715 Y20.0654
G01 X3.2838 Y20.0619
G01 X3.3006 Y20.0559
G01 X3.3131 Y20.0506
G01 X3.3292 Y20.0428
G01 X3.3485 Y20.0314
G01 X3.3598 Y20.0237
G01 X3.3753 Y20.0119
G01 X3.3909 Y19.9979
G01 X3.4004 Y19.9882
G01 X3.4113 Y19.9759
G01 X3.4237 Y19.9598
G01 X3.4312 Y19.9489
G01 X3.4406 Y19.9331
G01 X3.4464 Y19.9220
G01 X3.4555 Y19.9017
G01 X3.4619 Y19.8837
G01 X3.4654 Y19.8715
G01 X3.4696 Y19.8544
G01 X3.4732 Y19.8315
G01 X3.4743 Y19.8184
G01 X3.4750 Y19.8000
G01 X3.4749 Y15.7953
G01 X3.4736 Y15.7728
G01 X3.4712 Y15.7548
G01 X3.4688 Y15.7421
G01 X3.4632 Y15.7204
G01 X3.4572 Y15.7028
G01 X3.4524 Y15.6910
G01 X3.4421 Y15.6695
G01 X3.4332 Y15.6545
G01 X3.4264 Y15.6439
G01 X3.4126 Y15.6256
G01 X3.4004 Y15.6118
G01 X3.3914 Y15.6025
G01 X3.3743 Y15.5873
G01 X3.3598 Y15.5763
G01 X3.3497 Y15.5693
G01 X3.3333 Y15.5595
G01 X3.3220 Y15.5536
G01 X3.3049 Y15.5458
G01 X3.2838 Y15.5381
G01 X3.2715 Y15.5346
G01 X3.2543 Y15.5304
G01 X3.2306 Y15.5267
G01 X3.2184 Y15.5257
G01 X3.2000 Y15.5250
G01 X1.1914 Y15.5252
G01 X1.1694 Y15.5267
G01 X1.1502 Y15.5296
G01 X1.1380 Y15.5322
G01 X1.1203 Y15.5368
G01 X1.1028 Y15.5428
G01 X1.0910 Y15.5476
G01 X1.0705 Y15.5574
G01 X1.0545 Y15.5668
G01 X1.0433 Y15.5740
G01 X1.0257 Y15.5873
G01 X1.0118 Y15.5996
G01 X1.0026 Y15.6085
G01 X0.9901 Y15.6224
G01 X0.9821 Y15.6323
G01 X0.9715 Y15.6469
G01 X0.9598 Y15.6662
G01 X0.9536 Y15.6780
G01 X0.9459 Y15.6948
G01 X0.9382 Y15.7160
G01 X0.9346 Y15.7285
G01 X0.9303 Y15.7463
G01 X0.9268 Y15.7688
G01 X0.9257 Y15.7816
G01 X0.9250 Y15.8000
G01 X0.9250 Y19.8000
G01 X0.9257 Y19.8184
G01 X0.9268 Y19.8313
G01 X0.9295 Y19.8492
G01 X0.9322 Y19.8620
G00 Z2.0000
G00 X0.0750 Y21.9250
G01 F30.00
G01 Z-0.0480
G01 F60.00
G01 X9.9689 Y21.9250
G01 X11.9250 Y19.9689
G01 X11.9250 Y0.0750
G01 X0.0750 Y0.0750
G01 X0.0750 Y21.9250
G00 X0.0750 Y21.9250
G01 F30.00
G01 Z-0.0933
G01 F60.00
G01 X0.0750 Y0.0750
G01 X11.9250 Y0.0750
G01 X11.9250 Y19.9689
G01 X9.9689 Y21.9250
G01 X0.0750 Y21.9250
G00 Z2.0000
M05
G00 Z2.0000
G00 Z15.00

