(G-CODE GENERATED BY FLATCAM v8.993 - www.flatcam.org - Version Date: 2020/06/05)

(Name: isolation_30g_03)
(Type: G-code from Geometry)
(Units: MM)

(Created on Saturday, 21 November 2020 at 19:10)

(This preprocessor is the default preprocessor used by FlatCAM.)
(It is made to work with MACH3 compatible motion controllers.)

(TOOL DIAMETER: 0.35 mm)
(Feedrate_XY: 60.0 mm/min)
(Feedrate_Z: 30.0 mm/min)
(Feedrate rapids 1500.0 mm/min)

(Z_Cut: -0.0933 mm)
(DepthPerCut: 0.048 mm <=>2 passes)
(Z_Move: 2.0 mm)
(Z Start: None mm)
(Z End: 15.0 mm)
(Steps per circle: 64)
(Preprocessor Geometry: default)

(X range:    1.0250 ...   11.5252  mm)
(Y range:    0.9750 ...   19.9750  mm)

(Spindle Speed: None RPM)
G21
G90
G94



G01 F60.00
G00 Z2.0000

M03
G00 X1.2000 Y8.0250
G01 F30.00
G01 Z-0.0480
G01 F60.00
G01 X3.2086 Y8.0252
G01 X3.2172 Y8.0258
G01 X3.2299 Y8.0276
G01 X3.2425 Y8.0302
G01 X3.2549 Y8.0338
G01 X3.2670 Y8.0383
G01 X3.2748 Y8.0418
G01 X3.2863 Y8.0477
G01 X3.2972 Y8.0545
G01 X3.3077 Y8.0620
G01 X3.3143 Y8.0675
G01 X3.3237 Y8.0763
G01 X3.3325 Y8.0857
G01 X3.3380 Y8.0923
G01 X3.3455 Y8.1028
G01 X3.3523 Y8.1137
G01 X3.3582 Y8.1252
G01 X3.3633 Y8.1370
G01 X3.3662 Y8.1451
G01 X3.3707 Y8.1617
G01 X3.3737 Y8.1786
G01 X3.3748 Y8.1914
G01 X3.3750 Y8.2000
G01 X3.3749 Y12.2043
G01 X3.3745 Y12.2129
G01 X3.3731 Y12.2257
G01 X3.3707 Y12.2383
G01 X3.3675 Y12.2508
G01 X3.3633 Y12.2630
G01 X3.3582 Y12.2748
G01 X3.3523 Y12.2863
G01 X3.3478 Y12.2936
G01 X3.3406 Y12.3042
G01 X3.3325 Y12.3143
G01 X3.3237 Y12.3237
G01 X3.3143 Y12.3325
G01 X3.3042 Y12.3406
G01 X3.2936 Y12.3478
G01 X3.2863 Y12.3523
G01 X3.2748 Y12.3582
G01 X3.2590 Y12.3648
G01 X3.2508 Y12.3675
G01 X3.2383 Y12.3707
G01 X3.2299 Y12.3724
G01 X3.2172 Y12.3742
G01 X3.2000 Y12.3750
G01 X1.1914 Y12.3748
G01 X1.1786 Y12.3737
G01 X1.1701 Y12.3724
G01 X1.1575 Y12.3698
G01 X1.1451 Y12.3662
G01 X1.1330 Y12.3617
G01 X1.1252 Y12.3582
G01 X1.1137 Y12.3523
G01 X1.1028 Y12.3455
G01 X1.0923 Y12.3380
G01 X1.0857 Y12.3325
G01 X1.0763 Y12.3237
G01 X1.0675 Y12.3143
G01 X1.0594 Y12.3042
G01 X1.0522 Y12.2936
G01 X1.0457 Y12.2825
G01 X1.0418 Y12.2748
G01 X1.0383 Y12.2670
G01 X1.0338 Y12.2549
G01 X1.0293 Y12.2383
G01 X1.0263 Y12.2214
G01 X1.0255 Y12.2129
G01 X1.0250 Y12.2000
G01 X1.0252 Y8.1914
G01 X1.0269 Y8.1743
G01 X1.0302 Y8.1575
G01 X1.0352 Y8.1410
G01 X1.0418 Y8.1252
G01 X1.0499 Y8.1100
G01 X1.0569 Y8.0992
G01 X1.0675 Y8.0857
G01 X1.0793 Y8.0733
G01 X1.0890 Y8.0647
G01 X1.1028 Y8.0545
G01 X1.1175 Y8.0457
G01 X1.1330 Y8.0383
G01 X1.1492 Y8.0325
G01 X1.1659 Y8.0284
G01 X1.1828 Y8.0258
G01 X1.2000 Y8.0250
G00 X1.2000 Y8.0250
G01 F30.00
G01 Z-0.0933
G01 F60.00
G01 X3.2086 Y8.0252
G01 X3.2172 Y8.0258
G01 X3.2299 Y8.0276
G01 X3.2425 Y8.0302
G01 X3.2549 Y8.0338
G01 X3.2670 Y8.0383
G01 X3.2748 Y8.0418
G01 X3.2863 Y8.0477
G01 X3.2972 Y8.0545
G01 X3.3077 Y8.0620
G01 X3.3143 Y8.0675
G01 X3.3237 Y8.0763
G01 X3.3325 Y8.0857
G01 X3.3380 Y8.0923
G01 X3.3455 Y8.1028
G01 X3.3523 Y8.1137
G01 X3.3582 Y8.1252
G01 X3.3633 Y8.1370
G01 X3.3662 Y8.1451
G01 X3.3707 Y8.1617
G01 X3.3737 Y8.1786
G01 X3.3748 Y8.1914
G01 X3.3750 Y8.2000
G01 X3.3749 Y12.2043
G01 X3.3745 Y12.2129
G01 X3.3731 Y12.2257
G01 X3.3707 Y12.2383
G01 X3.3675 Y12.2508
G01 X3.3633 Y12.2630
G01 X3.3582 Y12.2748
G01 X3.3523 Y12.2863
G01 X3.3478 Y12.2936
G01 X3.3406 Y12.3042
G01 X3.3325 Y12.3143
G01 X3.3237 Y12.3237
G01 X3.3143 Y12.3325
G01 X3.3042 Y12.3406
G01 X3.2936 Y12.3478
G01 X3.2863 Y12.3523
G01 X3.2748 Y12.3582
G01 X3.2590 Y12.3648
G01 X3.2508 Y12.3675
G01 X3.2383 Y12.3707
G01 X3.2299 Y12.3724
G01 X3.2172 Y12.3742
G01 X3.2000 Y12.3750
G01 X1.1914 Y12.3748
G01 X1.1786 Y12.3737
G01 X1.1701 Y12.3724
G01 X1.1575 Y12.3698
G01 X1.1451 Y12.3662
G01 X1.1330 Y12.3617
G01 X1.1252 Y12.3582
G01 X1.1137 Y12.3523
G01 X1.1028 Y12.3455
G01 X1.0923 Y12.3380
G01 X1.0857 Y12.3325
G01 X1.0763 Y12.3237
G01 X1.0675 Y12.3143
G01 X1.0594 Y12.3042
G01 X1.0522 Y12.2936
G01 X1.0457 Y12.2825
G01 X1.0418 Y12.2748
G01 X1.0383 Y12.2670
G01 X1.0338 Y12.2549
G01 X1.0293 Y12.2383
G01 X1.0263 Y12.2214
G01 X1.0255 Y12.2129
G01 X1.0250 Y12.2000
G01 X1.0252 Y8.1914
G01 X1.0269 Y8.1743
G01 X1.0302 Y8.1575
G01 X1.0352 Y8.1410
G01 X1.0418 Y8.1252
G01 X1.0499 Y8.1100
G01 X1.0569 Y8.0992
G01 X1.0675 Y8.0857
G01 X1.0793 Y8.0733
G01 X1.0890 Y8.0647
G01 X1.1028 Y8.0545
G01 X1.1175 Y8.0457
G01 X1.1330 Y8.0383
G01 X1.1492 Y8.0325
G01 X1.1659 Y8.0284
G01 X1.1828 Y8.0258
G01 X1.2000 Y8.0250
G00 Z2.0000
G00 X3.8000 Y8.0250
G01 F30.00
G01 Z-0.0480
G01 F60.00
G01 X4.2748 Y8.0250
G01 X4.2748 Y2.7963
G01 X4.2632 Y2.7867
G01 X4.2014 Y2.7307
G01 X4.1893 Y2.7186
G01 X4.1277 Y2.6503
G01 X4.0727 Y2.5765
G01 X4.0631 Y2.5622
G01 X4.0160 Y2.4832
G01 X3.9765 Y2.4001
G01 X3.9699 Y2.3842
G01 X3.9391 Y2.2975
G01 X3.9166 Y2.2083
G01 X3.9132 Y2.1915
G01 X3.8999 Y2.1005
G01 X3.8952 Y2.0086
G01 X3.8952 Y1.9914
G01 X3.8999 Y1.8995
G01 X3.9147 Y1.8000
G01 X3.9391 Y1.7025
G01 X3.9730 Y1.6077
G01 X4.0160 Y1.5168
G01 X4.0677 Y1.4305
G01 X4.1277 Y1.3497
G01 X4.1952 Y1.2752
G01 X4.2697 Y1.2077
G01 X4.3505 Y1.1477
G01 X4.4368 Y1.0960
G01 X4.5277 Y1.0530
G01 X4.6225 Y1.0191
G01 X4.7200 Y0.9947
G01 X4.8195 Y0.9799
G01 X4.9200 Y0.9750
G01 X5.0205 Y0.9799
G01 X5.1200 Y0.9947
G01 X5.2175 Y1.0191
G01 X5.3042 Y1.0499
G01 X5.3201 Y1.0565
G01 X5.3955 Y1.0922
G01 X5.4107 Y1.1003
G01 X5.4895 Y1.1477
G01 X5.5703 Y1.2077
G01 X5.6448 Y1.2752
G01 X5.7067 Y1.3432
G01 X5.7176 Y1.3565
G01 X5.7673 Y1.4235
G01 X5.7769 Y1.4378
G01 X5.8240 Y1.5168
G01 X5.8670 Y1.6077
G01 X5.9009 Y1.7025
G01 X5.9234 Y1.7917
G01 X5.9268 Y1.8085
G01 X5.9390 Y1.8910
G01 X5.9404 Y1.9038
G01 X5.9450 Y2.0000
G01 X5.9407 Y2.0919
G01 X5.9390 Y2.1090
G01 X5.9253 Y2.2000
G01 X5.9009 Y2.2975
G01 X5.8701 Y2.3842
G01 X5.8635 Y2.4001
G01 X5.8278 Y2.4755
G01 X5.8197 Y2.4907
G01 X5.7723 Y2.5695
G01 X5.7176 Y2.6435
G01 X5.7067 Y2.6568
G01 X5.6507 Y2.7186
G01 X5.6386 Y2.7307
G01 X5.5703 Y2.7923
G01 X5.4895 Y2.8523
G01 X5.4032 Y2.9040
G01 X5.3252 Y2.9411
G01 X5.3252 Y8.0250
G01 X5.8000 Y8.0250
G01 X5.8086 Y8.0252
G01 X5.8214 Y8.0263
G01 X5.8341 Y8.0284
G01 X5.8425 Y8.0302
G01 X5.8549 Y8.0338
G01 X5.8709 Y8.0400
G01 X5.8825 Y8.0457
G01 X5.8936 Y8.0522
G01 X5.9042 Y8.0594
G01 X5.9143 Y8.0675
G01 X5.9237 Y8.0763
G01 X5.9353 Y8.0890
G01 X5.9431 Y8.0992
G01 X5.9523 Y8.1137
G01 X5.9582 Y8.1252
G01 X5.9633 Y8.1370
G01 X5.9687 Y8.1533
G01 X5.9716 Y8.1659
G01 X5.9737 Y8.1786
G01 X5.9748 Y8.1914
G01 X5.9749 Y12.2043
G01 X5.9742 Y12.2172
G01 X5.9731 Y12.2257
G01 X5.9707 Y12.2383
G01 X5.9675 Y12.2508
G01 X5.9633 Y12.2630
G01 X5.9582 Y12.2748
G01 X5.9543 Y12.2825
G01 X5.9478 Y12.2936
G01 X5.9406 Y12.3042
G01 X5.9325 Y12.3143
G01 X5.9237 Y12.3237
G01 X5.9143 Y12.3325
G01 X5.9042 Y12.3406
G01 X5.8972 Y12.3455
G01 X5.8863 Y12.3523
G01 X5.8748 Y12.3582
G01 X5.8590 Y12.3648
G01 X5.8508 Y12.3675
G01 X5.8383 Y12.3707
G01 X5.8214 Y12.3737
G01 X5.8086 Y12.3748
G01 X5.8000 Y12.3750
G01 X3.7914 Y12.3748
G01 X3.7786 Y12.3737
G01 X3.7701 Y12.3724
G01 X3.7575 Y12.3698
G01 X3.7451 Y12.3662
G01 X3.7330 Y12.3617
G01 X3.7252 Y12.3582
G01 X3.7137 Y12.3523
G01 X3.7028 Y12.3455
G01 X3.6923 Y12.3380
G01 X3.6825 Y12.3297
G01 X3.6733 Y12.3207
G01 X3.6675 Y12.3143
G01 X3.6594 Y12.3042
G01 X3.6522 Y12.2936
G01 X3.6477 Y12.2863
G01 X3.6418 Y12.2748
G01 X3.6352 Y12.2590
G01 X3.6325 Y12.2508
G01 X3.6293 Y12.2383
G01 X3.6263 Y12.2214
G01 X3.6255 Y12.2129
G01 X3.6250 Y12.2000
G01 X3.6252 Y8.1914
G01 X3.6269 Y8.1743
G01 X3.6293 Y8.1617
G01 X3.6338 Y8.1451
G01 X3.6400 Y8.1291
G01 X3.6477 Y8.1137
G01 X3.6569 Y8.0992
G01 X3.6675 Y8.0857
G01 X3.6793 Y8.0733
G01 X3.6923 Y8.0620
G01 X3.7064 Y8.0522
G01 X3.7175 Y8.0457
G01 X3.7330 Y8.0383
G01 X3.7492 Y8.0325
G01 X3.7659 Y8.0284
G01 X3.7828 Y8.0258
G01 X3.8000 Y8.0250
G00 X3.8000 Y8.0250
G01 F30.00
G01 Z-0.0933
G01 F60.00
G01 X4.2748 Y8.0250
G01 X4.2748 Y2.7963
G01 X4.2632 Y2.7867
G01 X4.2014 Y2.7307
G01 X4.1893 Y2.7186
G01 X4.1277 Y2.6503
G01 X4.0727 Y2.5765
G01 X4.0631 Y2.5622
G01 X4.0160 Y2.4832
G01 X3.9765 Y2.4001
G01 X3.9699 Y2.3842
G01 X3.9391 Y2.2975
G01 X3.9166 Y2.2083
G01 X3.9132 Y2.1915
G01 X3.8999 Y2.1005
G01 X3.8952 Y2.0086
G01 X3.8952 Y1.9914
G01 X3.8999 Y1.8995
G01 X3.9147 Y1.8000
G01 X3.9391 Y1.7025
G01 X3.9730 Y1.6077
G01 X4.0160 Y1.5168
G01 X4.0677 Y1.4305
G01 X4.1277 Y1.3497
G01 X4.1952 Y1.2752
G01 X4.2697 Y1.2077
G01 X4.3505 Y1.1477
G01 X4.4368 Y1.0960
G01 X4.5277 Y1.0530
G01 X4.6225 Y1.0191
G01 X4.7200 Y0.9947
G01 X4.8195 Y0.9799
G01 X4.9200 Y0.9750
G01 X5.0205 Y0.9799
G01 X5.1200 Y0.9947
G01 X5.2175 Y1.0191
G01 X5.3042 Y1.0499
G01 X5.3201 Y1.0565
G01 X5.3955 Y1.0922
G01 X5.4107 Y1.1003
G01 X5.4895 Y1.1477
G01 X5.5703 Y1.2077
G01 X5.6448 Y1.2752
G01 X5.7067 Y1.3432
G01 X5.7176 Y1.3565
G01 X5.7673 Y1.4235
G01 X5.7769 Y1.4378
G01 X5.8240 Y1.5168
G01 X5.8670 Y1.6077
G01 X5.9009 Y1.7025
G01 X5.9234 Y1.7917
G01 X5.9268 Y1.8085
G01 X5.9390 Y1.8910
G01 X5.9404 Y1.9038
G01 X5.9450 Y2.0000
G01 X5.9407 Y2.0919
G01 X5.9390 Y2.1090
G01 X5.9253 Y2.2000
G01 X5.9009 Y2.2975
G01 X5.8701 Y2.3842
G01 X5.8635 Y2.4001
G01 X5.8278 Y2.4755
G01 X5.8197 Y2.4907
G01 X5.7723 Y2.5695
G01 X5.7176 Y2.6435
G01 X5.7067 Y2.6568
G01 X5.6507 Y2.7186
G01 X5.6386 Y2.7307
G01 X5.5703 Y2.7923
G01 X5.4895 Y2.8523
G01 X5.4032 Y2.9040
G01 X5.3252 Y2.9411
G01 X5.3252 Y8.0250
G01 X5.8000 Y8.0250
G01 X5.8086 Y8.0252
G01 X5.8214 Y8.0263
G01 X5.8341 Y8.0284
G01 X5.8425 Y8.0302
G01 X5.8549 Y8.0338
G01 X5.8709 Y8.0400
G01 X5.8825 Y8.0457
G01 X5.8936 Y8.0522
G01 X5.9042 Y8.0594
G01 X5.9143 Y8.0675
G01 X5.9237 Y8.0763
G01 X5.9353 Y8.0890
G01 X5.9431 Y8.0992
G01 X5.9523 Y8.1137
G01 X5.9582 Y8.1252
G01 X5.9633 Y8.1370
G01 X5.9687 Y8.1533
G01 X5.9716 Y8.1659
G01 X5.9737 Y8.1786
G01 X5.9748 Y8.1914
G01 X5.9749 Y12.2043
G01 X5.9742 Y12.2172
G01 X5.9731 Y12.2257
G01 X5.9707 Y12.2383
G01 X5.9675 Y12.2508
G01 X5.9633 Y12.2630
G01 X5.9582 Y12.2748
G01 X5.9543 Y12.2825
G01 X5.9478 Y12.2936
G01 X5.9406 Y12.3042
G01 X5.9325 Y12.3143
G01 X5.9237 Y12.3237
G01 X5.9143 Y12.3325
G01 X5.9042 Y12.3406
G01 X5.8972 Y12.3455
G01 X5.8863 Y12.3523
G01 X5.8748 Y12.3582
G01 X5.8590 Y12.3648
G01 X5.8508 Y12.3675
G01 X5.8383 Y12.3707
G01 X5.8214 Y12.3737
G01 X5.8086 Y12.3748
G01 X5.8000 Y12.3750
G01 X3.7914 Y12.3748
G01 X3.7786 Y12.3737
G01 X3.7701 Y12.3724
G01 X3.7575 Y12.3698
G01 X3.7451 Y12.3662
G01 X3.7330 Y12.3617
G01 X3.7252 Y12.3582
G01 X3.7137 Y12.3523
G01 X3.7028 Y12.3455
G01 X3.6923 Y12.3380
G01 X3.6825 Y12.3297
G01 X3.6733 Y12.3207
G01 X3.6675 Y12.3143
G01 X3.6594 Y12.3042
G01 X3.6522 Y12.2936
G01 X3.6477 Y12.2863
G01 X3.6418 Y12.2748
G01 X3.6352 Y12.2590
G01 X3.6325 Y12.2508
G01 X3.6293 Y12.2383
G01 X3.6263 Y12.2214
G01 X3.6255 Y12.2129
G01 X3.6250 Y12.2000
G01 X3.6252 Y8.1914
G01 X3.6269 Y8.1743
G01 X3.6293 Y8.1617
G01 X3.6338 Y8.1451
G01 X3.6400 Y8.1291
G01 X3.6477 Y8.1137
G01 X3.6569 Y8.0992
G01 X3.6675 Y8.0857
G01 X3.6793 Y8.0733
G01 X3.6923 Y8.0620
G01 X3.7064 Y8.0522
G01 X3.7175 Y8.0457
G01 X3.7330 Y8.0383
G01 X3.7492 Y8.0325
G01 X3.7659 Y8.0284
G01 X3.7828 Y8.0258
G01 X3.8000 Y8.0250
G00 Z2.0000
G00 X6.4000 Y8.0250
G01 F30.00
G01 Z-0.0480
G01 F60.00
G01 X8.4086 Y8.0252
G01 X8.4214 Y8.0263
G01 X8.4341 Y8.0284
G01 X8.4425 Y8.0302
G01 X8.4549 Y8.0338
G01 X8.4630 Y8.0367
G01 X8.4748 Y8.0418
G01 X8.4863 Y8.0477
G01 X8.4972 Y8.0545
G01 X8.5077 Y8.0620
G01 X8.5175 Y8.0703
G01 X8.5237 Y8.0763
G01 X8.5325 Y8.0857
G01 X8.5406 Y8.0958
G01 X8.5478 Y8.1064
G01 X8.5543 Y8.1175
G01 X8.5582 Y8.1252
G01 X8.5648 Y8.1410
G01 X8.5675 Y8.1492
G01 X8.5707 Y8.1617
G01 X8.5724 Y8.1701
G01 X8.5742 Y8.1828
G01 X8.5750 Y8.2000
G01 X8.5749 Y12.2043
G01 X8.5742 Y12.2172
G01 X8.5731 Y12.2257
G01 X8.5707 Y12.2383
G01 X8.5675 Y12.2508
G01 X8.5633 Y12.2630
G01 X8.5600 Y12.2709
G01 X8.5543 Y12.2825
G01 X8.5478 Y12.2936
G01 X8.5406 Y12.3042
G01 X8.5325 Y12.3143
G01 X8.5237 Y12.3237
G01 X8.5143 Y12.3325
G01 X8.5042 Y12.3406
G01 X8.4972 Y12.3455
G01 X8.4863 Y12.3523
G01 X8.4748 Y12.3582
G01 X8.4590 Y12.3648
G01 X8.4508 Y12.3675
G01 X8.4383 Y12.3707
G01 X8.4214 Y12.3737
G01 X8.4086 Y12.3748
G01 X8.4000 Y12.3750
G01 X6.3914 Y12.3748
G01 X6.3786 Y12.3737
G01 X6.3701 Y12.3724
G01 X6.3575 Y12.3698
G01 X6.3451 Y12.3662
G01 X6.3330 Y12.3617
G01 X6.3213 Y12.3563
G01 X6.3137 Y12.3523
G01 X6.3028 Y12.3455
G01 X6.2923 Y12.3380
G01 X6.2857 Y12.3325
G01 X6.2763 Y12.3237
G01 X6.2675 Y12.3143
G01 X6.2594 Y12.3042
G01 X6.2522 Y12.2936
G01 X6.2457 Y12.2825
G01 X6.2418 Y12.2748
G01 X6.2352 Y12.2590
G01 X6.2325 Y12.2508
G01 X6.2293 Y12.2383
G01 X6.2263 Y12.2214
G01 X6.2255 Y12.2129
G01 X6.2250 Y12.2000
G01 X6.2252 Y8.1914
G01 X6.2269 Y8.1743
G01 X6.2302 Y8.1575
G01 X6.2352 Y8.1410
G01 X6.2418 Y8.1252
G01 X6.2499 Y8.1100
G01 X6.2594 Y8.0958
G01 X6.2703 Y8.0825
G01 X6.2793 Y8.0733
G01 X6.2923 Y8.0620
G01 X6.3064 Y8.0522
G01 X6.3175 Y8.0457
G01 X6.3330 Y8.0383
G01 X6.3492 Y8.0325
G01 X6.3659 Y8.0284
G01 X6.3828 Y8.0258
G01 X6.4000 Y8.0250
G00 X6.4000 Y8.0250
G01 F30.00
G01 Z-0.0933
G01 F60.00
G01 X8.4086 Y8.0252
G01 X8.4214 Y8.0263
G01 X8.4341 Y8.0284
G01 X8.4425 Y8.0302
G01 X8.4549 Y8.0338
G01 X8.4630 Y8.0367
G01 X8.4748 Y8.0418
G01 X8.4863 Y8.0477
G01 X8.4972 Y8.0545
G01 X8.5077 Y8.0620
G01 X8.5175 Y8.0703
G01 X8.5237 Y8.0763
G01 X8.5325 Y8.0857
G01 X8.5406 Y8.0958
G01 X8.5478 Y8.1064
G01 X8.5543 Y8.1175
G01 X8.5582 Y8.1252
G01 X8.5648 Y8.1410
G01 X8.5675 Y8.1492
G01 X8.5707 Y8.1617
G01 X8.5724 Y8.1701
G01 X8.5742 Y8.1828
G01 X8.5750 Y8.2000
G01 X8.5749 Y12.2043
G01 X8.5742 Y12.2172
G01 X8.5731 Y12.2257
G01 X8.5707 Y12.2383
G01 X8.5675 Y12.2508
G01 X8.5633 Y12.2630
G01 X8.5600 Y12.2709
G01 X8.5543 Y12.2825
G01 X8.5478 Y12.2936
G01 X8.5406 Y12.3042
G01 X8.5325 Y12.3143
G01 X8.5237 Y12.3237
G01 X8.5143 Y12.3325
G01 X8.5042 Y12.3406
G01 X8.4972 Y12.3455
G01 X8.4863 Y12.3523
G01 X8.4748 Y12.3582
G01 X8.4590 Y12.3648
G01 X8.4508 Y12.3675
G01 X8.4383 Y12.3707
G01 X8.4214 Y12.3737
G01 X8.4086 Y12.3748
G01 X8.4000 Y12.3750
G01 X6.3914 Y12.3748
G01 X6.3786 Y12.3737
G01 X6.3701 Y12.3724
G01 X6.3575 Y12.3698
G01 X6.3451 Y12.3662
G01 X6.3330 Y12.3617
G01 X6.3213 Y12.3563
G01 X6.3137 Y12.3523
G01 X6.3028 Y12.3455
G01 X6.2923 Y12.3380
G01 X6.2857 Y12.3325
G01 X6.2763 Y12.3237
G01 X6.2675 Y12.3143
G01 X6.2594 Y12.3042
G01 X6.2522 Y12.2936
G01 X6.2457 Y12.2825
G01 X6.2418 Y12.2748
G01 X6.2352 Y12.2590
G01 X6.2325 Y12.2508
G01 X6.2293 Y12.2383
G01 X6.2263 Y12.2214
G01 X6.2255 Y12.2129
G01 X6.2250 Y12.2000
G01 X6.2252 Y8.1914
G01 X6.2269 Y8.1743
G01 X6.2302 Y8.1575
G01 X6.2352 Y8.1410
G01 X6.2418 Y8.1252
G01 X6.2499 Y8.1100
G01 X6.2594 Y8.0958
G01 X6.2703 Y8.0825
G01 X6.2793 Y8.0733
G01 X6.2923 Y8.0620
G01 X6.3064 Y8.0522
G01 X6.3175 Y8.0457
G01 X6.3330 Y8.0383
G01 X6.3492 Y8.0325
G01 X6.3659 Y8.0284
G01 X6.3828 Y8.0258
G01 X6.4000 Y8.0250
G00 Z2.0000
G00 X9.1500 Y0.9750
G01 F30.00
G01 Z-0.0480
G01 F60.00
G01 X10.8586 Y0.9752
G01 X10.8714 Y0.9763
G01 X10.8841 Y0.9784
G01 X10.8967 Y0.9813
G01 X10.9049 Y0.9838
G01 X10.9170 Y0.9883
G01 X10.9287 Y0.9937
G01 X10.9400 Y0.9999
G01 X10.9508 Y1.0069
G01 X10.9610 Y1.0147
G01 X10.9675 Y1.0203
G01 X10.9767 Y1.0293
G01 X10.9853 Y1.0390
G01 X10.9931 Y1.0492
G01 X10.9978 Y1.0564
G01 X11.0043 Y1.0675
G01 X11.0100 Y1.0791
G01 X11.0162 Y1.0951
G01 X11.0207 Y1.1117
G01 X11.0231 Y1.1243
G01 X11.0242 Y1.1328
G01 X11.0250 Y1.1500
G01 X11.0250 Y2.8500
G01 X11.0245 Y2.8629
G01 X11.0224 Y2.8799
G01 X11.0198 Y2.8925
G01 X11.0162 Y2.9049
G01 X11.0117 Y2.9170
G01 X11.0063 Y2.9287
G01 X11.0023 Y2.9363
G01 X10.9955 Y2.9472
G01 X10.9880 Y2.9577
G01 X10.9797 Y2.9675
G01 X10.9707 Y2.9767
G01 X10.9610 Y2.9853
G01 X10.9508 Y2.9931
G01 X10.9436 Y2.9978
G01 X10.9325 Y3.0043
G01 X10.9209 Y3.0100
G01 X10.9130 Y3.0133
G01 X10.9008 Y3.0175
G01 X10.8883 Y3.0207
G01 X10.8757 Y3.0231
G01 X10.8629 Y3.0245
G01 X10.8543 Y3.0249
G01 X10.5252 Y3.0250
G01 X10.5252 Y3.9825
G01 X10.7677 Y4.2250
G01 X11.2500 Y4.2250
G01 X11.2672 Y4.2258
G01 X11.2799 Y4.2276
G01 X11.2883 Y4.2293
G01 X11.3008 Y4.2325
G01 X11.3130 Y4.2367
G01 X11.3209 Y4.2400
G01 X11.3287 Y4.2437
G01 X11.3400 Y4.2499
G01 X11.3472 Y4.2545
G01 X11.3577 Y4.2620
G01 X11.3643 Y4.2675
G01 X11.3737 Y4.2763
G01 X11.3825 Y4.2857
G01 X11.3880 Y4.2923
G01 X11.3955 Y4.3028
G01 X11.4001 Y4.3100
G01 X11.4043 Y4.3175
G01 X11.4100 Y4.3291
G01 X11.4162 Y4.3451
G01 X11.4207 Y4.3617
G01 X11.4237 Y4.3786
G01 X11.4245 Y4.3871
G01 X11.4250 Y4.4000
G01 X11.4250 Y5.6000
G01 X11.4245 Y5.6129
G01 X11.4231 Y5.6257
G01 X11.4207 Y5.6383
G01 X11.4175 Y5.6508
G01 X11.4148 Y5.6590
G01 X11.4100 Y5.6709
G01 X11.4043 Y5.6825
G01 X11.3978 Y5.6936
G01 X11.3931 Y5.7008
G01 X11.3853 Y5.7110
G01 X11.3767 Y5.7207
G01 X11.3675 Y5.7297
G01 X11.3610 Y5.7353
G01 X11.3542 Y5.7406
G01 X11.3436 Y5.7478
G01 X11.3325 Y5.7543
G01 X11.3209 Y5.7600
G01 X11.3049 Y5.7662
G01 X11.2883 Y5.7707
G01 X11.2714 Y5.7737
G01 X11.2543 Y5.7749
G01 X10.3457 Y5.7749
G01 X10.3286 Y5.7737
G01 X10.3159 Y5.7716
G01 X10.3033 Y5.7687
G01 X10.2910 Y5.7648
G01 X10.2791 Y5.7600
G01 X10.2675 Y5.7543
G01 X10.2564 Y5.7478
G01 X10.2458 Y5.7406
G01 X10.2357 Y5.7325
G01 X10.2293 Y5.7267
G01 X10.2175 Y5.7143
G01 X10.2069 Y5.7008
G01 X10.1977 Y5.6863
G01 X10.1900 Y5.6709
G01 X10.1838 Y5.6549
G01 X10.1793 Y5.6383
G01 X10.1763 Y5.6214
G01 X10.1755 Y5.6129
G01 X10.1750 Y5.6000
G01 X10.1750 Y5.1177
G01 X9.6227 Y4.5651
G01 X9.5940 Y4.5332
G01 X9.5633 Y4.4918
G01 X9.5368 Y4.4476
G01 X9.5165 Y4.4049
G01 X9.5117 Y4.3930
G01 X9.4974 Y4.3525
G01 X9.4849 Y4.3025
G01 X9.4774 Y4.2515
G01 X9.4749 Y4.2043
G01 X9.4748 Y3.0250
G01 X9.1457 Y3.0249
G01 X9.1371 Y3.0245
G01 X9.1243 Y3.0231
G01 X9.1117 Y3.0207
G01 X9.0992 Y3.0175
G01 X9.0870 Y3.0133
G01 X9.0752 Y3.0082
G01 X9.0637 Y3.0023
G01 X9.0528 Y2.9955
G01 X9.0423 Y2.9880
G01 X9.0325 Y2.9797
G01 X9.0233 Y2.9707
G01 X9.0147 Y2.9610
G01 X9.0069 Y2.9508
G01 X8.9999 Y2.9400
G01 X8.9937 Y2.9287
G01 X8.9883 Y2.9170
G01 X8.9838 Y2.9049
G01 X8.9802 Y2.8925
G01 X8.9776 Y2.8799
G01 X8.9758 Y2.8672
G01 X8.9750 Y2.8500
G01 X8.9750 Y1.1500
G01 X8.9758 Y1.1328
G01 X8.9784 Y1.1159
G01 X8.9825 Y1.0992
G01 X8.9883 Y1.0830
G01 X8.9937 Y1.0713
G01 X9.0022 Y1.0564
G01 X9.0120 Y1.0423
G01 X9.0203 Y1.0325
G01 X9.0325 Y1.0203
G01 X9.0423 Y1.0120
G01 X9.0564 Y1.0022
G01 X9.0713 Y0.9937
G01 X9.0870 Y0.9867
G01 X9.0992 Y0.9825
G01 X9.1159 Y0.9784
G01 X9.1328 Y0.9758
G01 X9.1500 Y0.9750
G00 X9.1500 Y0.9750
G01 F30.00
G01 Z-0.0933
G01 F60.00
G01 X10.8586 Y0.9752
G01 X10.8714 Y0.9763
G01 X10.8841 Y0.9784
G01 X10.8967 Y0.9813
G01 X10.9049 Y0.9838
G01 X10.9170 Y0.9883
G01 X10.9287 Y0.9937
G01 X10.9400 Y0.9999
G01 X10.9508 Y1.0069
G01 X10.9610 Y1.0147
G01 X10.9675 Y1.0203
G01 X10.9767 Y1.0293
G01 X10.9853 Y1.0390
G01 X10.9931 Y1.0492
G01 X10.9978 Y1.0564
G01 X11.0043 Y1.0675
G01 X11.0100 Y1.0791
G01 X11.0162 Y1.0951
G01 X11.0207 Y1.1117
G01 X11.0231 Y1.1243
G01 X11.0242 Y1.1328
G01 X11.0250 Y1.1500
G01 X11.0250 Y2.8500
G01 X11.0245 Y2.8629
G01 X11.0224 Y2.8799
G01 X11.0198 Y2.8925
G01 X11.0162 Y2.9049
G01 X11.0117 Y2.9170
G01 X11.0063 Y2.9287
G01 X11.0023 Y2.9363
G01 X10.9955 Y2.9472
G01 X10.9880 Y2.9577
G01 X10.9797 Y2.9675
G01 X10.9707 Y2.9767
G01 X10.9610 Y2.9853
G01 X10.9508 Y2.9931
G01 X10.9436 Y2.9978
G01 X10.9325 Y3.0043
G01 X10.9209 Y3.0100
G01 X10.9130 Y3.0133
G01 X10.9008 Y3.0175
G01 X10.8883 Y3.0207
G01 X10.8757 Y3.0231
G01 X10.8629 Y3.0245
G01 X10.8543 Y3.0249
G01 X10.5252 Y3.0250
G01 X10.5252 Y3.9825
G01 X10.7677 Y4.2250
G01 X11.2500 Y4.2250
G01 X11.2672 Y4.2258
G01 X11.2799 Y4.2276
G01 X11.2883 Y4.2293
G01 X11.3008 Y4.2325
G01 X11.3130 Y4.2367
G01 X11.3209 Y4.2400
G01 X11.3287 Y4.2437
G01 X11.3400 Y4.2499
G01 X11.3472 Y4.2545
G01 X11.3577 Y4.2620
G01 X11.3643 Y4.2675
G01 X11.3737 Y4.2763
G01 X11.3825 Y4.2857
G01 X11.3880 Y4.2923
G01 X11.3955 Y4.3028
G01 X11.4001 Y4.3100
G01 X11.4043 Y4.3175
G01 X11.4100 Y4.3291
G01 X11.4162 Y4.3451
G01 X11.4207 Y4.3617
G01 X11.4237 Y4.3786
G01 X11.4245 Y4.3871
G01 X11.4250 Y4.4000
G01 X11.4250 Y5.6000
G01 X11.4245 Y5.6129
G01 X11.4231 Y5.6257
G01 X11.4207 Y5.6383
G01 X11.4175 Y5.6508
G01 X11.4148 Y5.6590
G01 X11.4100 Y5.6709
G01 X11.4043 Y5.6825
G01 X11.3978 Y5.6936
G01 X11.3931 Y5.7008
G01 X11.3853 Y5.7110
G01 X11.3767 Y5.7207
G01 X11.3675 Y5.7297
G01 X11.3610 Y5.7353
G01 X11.3542 Y5.7406
G01 X11.3436 Y5.7478
G01 X11.3325 Y5.7543
G01 X11.3209 Y5.7600
G01 X11.3049 Y5.7662
G01 X11.2883 Y5.7707
G01 X11.2714 Y5.7737
G01 X11.2543 Y5.7749
G01 X10.3457 Y5.7749
G01 X10.3286 Y5.7737
G01 X10.3159 Y5.7716
G01 X10.3033 Y5.7687
G01 X10.2910 Y5.7648
G01 X10.2791 Y5.7600
G01 X10.2675 Y5.7543
G01 X10.2564 Y5.7478
G01 X10.2458 Y5.7406
G01 X10.2357 Y5.7325
G01 X10.2293 Y5.7267
G01 X10.2175 Y5.7143
G01 X10.2069 Y5.7008
G01 X10.1977 Y5.6863
G01 X10.1900 Y5.6709
G01 X10.1838 Y5.6549
G01 X10.1793 Y5.6383
G01 X10.1763 Y5.6214
G01 X10.1755 Y5.6129
G01 X10.1750 Y5.6000
G01 X10.1750 Y5.1177
G01 X9.6227 Y4.5651
G01 X9.5940 Y4.5332
G01 X9.5633 Y4.4918
G01 X9.5368 Y4.4476
G01 X9.5165 Y4.4049
G01 X9.5117 Y4.3930
G01 X9.4974 Y4.3525
G01 X9.4849 Y4.3025
G01 X9.4774 Y4.2515
G01 X9.4749 Y4.2043
G01 X9.4748 Y3.0250
G01 X9.1457 Y3.0249
G01 X9.1371 Y3.0245
G01 X9.1243 Y3.0231
G01 X9.1117 Y3.0207
G01 X9.0992 Y3.0175
G01 X9.0870 Y3.0133
G01 X9.0752 Y3.0082
G01 X9.0637 Y3.0023
G01 X9.0528 Y2.9955
G01 X9.0423 Y2.9880
G01 X9.0325 Y2.9797
G01 X9.0233 Y2.9707
G01 X9.0147 Y2.9610
G01 X9.0069 Y2.9508
G01 X8.9999 Y2.9400
G01 X8.9937 Y2.9287
G01 X8.9883 Y2.9170
G01 X8.9838 Y2.9049
G01 X8.9802 Y2.8925
G01 X8.9776 Y2.8799
G01 X8.9758 Y2.8672
G01 X8.9750 Y2.8500
G01 X8.9750 Y1.1500
G01 X8.9758 Y1.1328
G01 X8.9784 Y1.1159
G01 X8.9825 Y1.0992
G01 X8.9883 Y1.0830
G01 X8.9937 Y1.0713
G01 X9.0022 Y1.0564
G01 X9.0120 Y1.0423
G01 X9.0203 Y1.0325
G01 X9.0325 Y1.0203
G01 X9.0423 Y1.0120
G01 X9.0564 Y1.0022
G01 X9.0713 Y0.9937
G01 X9.0870 Y0.9867
G01 X9.0992 Y0.9825
G01 X9.1159 Y0.9784
G01 X9.1328 Y0.9758
G01 X9.1500 Y0.9750
G00 Z2.0000
G00 X3.8000 Y15.6250
G01 F30.00
G01 Z-0.0480
G01 F60.00
G01 X5.8086 Y15.6252
G01 X5.8172 Y15.6258
G01 X5.8299 Y15.6276
G01 X5.8425 Y15.6302
G01 X5.8549 Y15.6338
G01 X5.8670 Y15.6383
G01 X5.8748 Y15.6418
G01 X5.8863 Y15.6477
G01 X5.8972 Y15.6545
G01 X5.9077 Y15.6620
G01 X5.9175 Y15.6703
G01 X5.9267 Y15.6793
G01 X5.9325 Y15.6857
G01 X5.9380 Y15.6923
G01 X5.9455 Y15.7028
G01 X5.9523 Y15.7137
G01 X5.9582 Y15.7252
G01 X5.9633 Y15.7370
G01 X5.9662 Y15.7451
G01 X5.9707 Y15.7617
G01 X5.9724 Y15.7701
G01 X5.9742 Y15.7828
G01 X5.9750 Y15.8000
G01 X5.9749 Y19.8043
G01 X5.9745 Y19.8129
G01 X5.9731 Y19.8257
G01 X5.9707 Y19.8383
G01 X5.9675 Y19.8508
G01 X5.9633 Y19.8630
G01 X5.9600 Y19.8709
G01 X5.9543 Y19.8825
G01 X5.9478 Y19.8936
G01 X5.9406 Y19.9042
G01 X5.9325 Y19.9143
G01 X5.9237 Y19.9237
G01 X5.9143 Y19.9325
G01 X5.9042 Y19.9406
G01 X5.8972 Y19.9455
G01 X5.8863 Y19.9523
G01 X5.8748 Y19.9582
G01 X5.8590 Y19.9648
G01 X5.8467 Y19.9687
G01 X5.8383 Y19.9707
G01 X5.8257 Y19.9731
G01 X5.8172 Y19.9742
G01 X5.8000 Y19.9750
G01 X3.7914 Y19.9748
G01 X3.7786 Y19.9737
G01 X3.7701 Y19.9724
G01 X3.7575 Y19.9698
G01 X3.7451 Y19.9662
G01 X3.7370 Y19.9633
G01 X3.7252 Y19.9582
G01 X3.7137 Y19.9523
G01 X3.7028 Y19.9455
G01 X3.6923 Y19.9380
G01 X3.6825 Y19.9297
G01 X3.6763 Y19.9237
G01 X3.6675 Y19.9143
G01 X3.6594 Y19.9042
G01 X3.6545 Y19.8972
G01 X3.6477 Y19.8863
G01 X3.6418 Y19.8748
G01 X3.6383 Y19.8670
G01 X3.6338 Y19.8549
G01 X3.6293 Y19.8383
G01 X3.6269 Y19.8257
G01 X3.6258 Y19.8172
G01 X3.6250 Y19.8000
G01 X3.6252 Y15.7914
G01 X3.6269 Y15.7743
G01 X3.6302 Y15.7575
G01 X3.6338 Y15.7451
G01 X3.6400 Y15.7291
G01 X3.6477 Y15.7137
G01 X3.6569 Y15.6992
G01 X3.6675 Y15.6857
G01 X3.6793 Y15.6733
G01 X3.6890 Y15.6647
G01 X3.7028 Y15.6545
G01 X3.7175 Y15.6457
G01 X3.7330 Y15.6383
G01 X3.7492 Y15.6325
G01 X3.7659 Y15.6284
G01 X3.7828 Y15.6258
G01 X3.8000 Y15.6250
G00 X3.8000 Y15.6250
G01 F30.00
G01 Z-0.0933
G01 F60.00
G01 X5.8086 Y15.6252
G01 X5.8172 Y15.6258
G01 X5.8299 Y15.6276
G01 X5.8425 Y15.6302
G01 X5.8549 Y15.6338
G01 X5.8670 Y15.6383
G01 X5.8748 Y15.6418
G01 X5.8863 Y15.6477
G01 X5.8972 Y15.6545
G01 X5.9077 Y15.6620
G01 X5.9175 Y15.6703
G01 X5.9267 Y15.6793
G01 X5.9325 Y15.6857
G01 X5.9380 Y15.6923
G01 X5.9455 Y15.7028
G01 X5.9523 Y15.7137
G01 X5.9582 Y15.7252
G01 X5.9633 Y15.7370
G01 X5.9662 Y15.7451
G01 X5.9707 Y15.7617
G01 X5.9724 Y15.7701
G01 X5.9742 Y15.7828
G01 X5.9750 Y15.8000
G01 X5.9749 Y19.8043
G01 X5.9745 Y19.8129
G01 X5.9731 Y19.8257
G01 X5.9707 Y19.8383
G01 X5.9675 Y19.8508
G01 X5.9633 Y19.8630
G01 X5.9600 Y19.8709
G01 X5.9543 Y19.8825
G01 X5.9478 Y19.8936
G01 X5.9406 Y19.9042
G01 X5.9325 Y19.9143
G01 X5.9237 Y19.9237
G01 X5.9143 Y19.9325
G01 X5.9042 Y19.9406
G01 X5.8972 Y19.9455
G01 X5.8863 Y19.9523
G01 X5.8748 Y19.9582
G01 X5.8590 Y19.9648
G01 X5.8467 Y19.9687
G01 X5.8383 Y19.9707
G01 X5.8257 Y19.9731
G01 X5.8172 Y19.9742
G01 X5.8000 Y19.9750
G01 X3.7914 Y19.9748
G01 X3.7786 Y19.9737
G01 X3.7701 Y19.9724
G01 X3.7575 Y19.9698
G01 X3.7451 Y19.9662
G01 X3.7370 Y19.9633
G01 X3.7252 Y19.9582
G01 X3.7137 Y19.9523
G01 X3.7028 Y19.9455
G01 X3.6923 Y19.9380
G01 X3.6825 Y19.9297
G01 X3.6763 Y19.9237
G01 X3.6675 Y19.9143
G01 X3.6594 Y19.9042
G01 X3.6545 Y19.8972
G01 X3.6477 Y19.8863
G01 X3.6418 Y19.8748
G01 X3.6383 Y19.8670
G01 X3.6338 Y19.8549
G01 X3.6293 Y19.8383
G01 X3.6269 Y19.8257
G01 X3.6258 Y19.8172
G01 X3.6250 Y19.8000
G01 X3.6252 Y15.7914
G01 X3.6269 Y15.7743
G01 X3.6302 Y15.7575
G01 X3.6338 Y15.7451
G01 X3.6400 Y15.7291
G01 X3.6477 Y15.7137
G01 X3.6569 Y15.6992
G01 X3.6675 Y15.6857
G01 X3.6793 Y15.6733
G01 X3.6890 Y15.6647
G01 X3.7028 Y15.6545
G01 X3.7175 Y15.6457
G01 X3.7330 Y15.6383
G01 X3.7492 Y15.6325
G01 X3.7659 Y15.6284
G01 X3.7828 Y15.6258
G01 X3.8000 Y15.6250
G00 Z2.0000
G00 X1.2000 Y15.6250
G01 F30.00
G01 Z-0.0480
G01 F60.00
G01 X3.2086 Y15.6252
G01 X3.2172 Y15.6258
G01 X3.2299 Y15.6276
G01 X3.2425 Y15.6302
G01 X3.2549 Y15.6338
G01 X3.2670 Y15.6383
G01 X3.2748 Y15.6418
G01 X3.2863 Y15.6477
G01 X3.2972 Y15.6545
G01 X3.3077 Y15.6620
G01 X3.3143 Y15.6675
G01 X3.3237 Y15.6763
G01 X3.3325 Y15.6857
G01 X3.3380 Y15.6923
G01 X3.3455 Y15.7028
G01 X3.3523 Y15.7137
G01 X3.3582 Y15.7252
G01 X3.3633 Y15.7370
G01 X3.3662 Y15.7451
G01 X3.3707 Y15.7617
G01 X3.3737 Y15.7786
G01 X3.3748 Y15.7914
G01 X3.3750 Y15.8000
G01 X3.3749 Y19.8043
G01 X3.3742 Y19.8172
G01 X3.3724 Y19.8299
G01 X3.3698 Y19.8425
G01 X3.3662 Y19.8549
G01 X3.3617 Y19.8670
G01 X3.3563 Y19.8787
G01 X3.3501 Y19.8900
G01 X3.3455 Y19.8972
G01 X3.3380 Y19.9077
G01 X3.3297 Y19.9175
G01 X3.3207 Y19.9267
G01 X3.3143 Y19.9325
G01 X3.3042 Y19.9406
G01 X3.2972 Y19.9455
G01 X3.2863 Y19.9523
G01 X3.2748 Y19.9582
G01 X3.2590 Y19.9648
G01 X3.2467 Y19.9687
G01 X3.2383 Y19.9707
G01 X3.2299 Y19.9724
G01 X3.2172 Y19.9742
G01 X3.2000 Y19.9750
G01 X1.1914 Y19.9748
G01 X1.1786 Y19.9737
G01 X1.1701 Y19.9724
G01 X1.1575 Y19.9698
G01 X1.1451 Y19.9662
G01 X1.1370 Y19.9633
G01 X1.1252 Y19.9582
G01 X1.1137 Y19.9523
G01 X1.1028 Y19.9455
G01 X1.0923 Y19.9380
G01 X1.0825 Y19.9297
G01 X1.0763 Y19.9237
G01 X1.0675 Y19.9143
G01 X1.0594 Y19.9042
G01 X1.0545 Y19.8972
G01 X1.0477 Y19.8863
G01 X1.0418 Y19.8748
G01 X1.0383 Y19.8670
G01 X1.0338 Y19.8549
G01 X1.0293 Y19.8383
G01 X1.0269 Y19.8257
G01 X1.0258 Y19.8172
G01 X1.0250 Y19.8000
G01 X1.0252 Y15.7914
G01 X1.0269 Y15.7743
G01 X1.0302 Y15.7575
G01 X1.0352 Y15.7410
G01 X1.0418 Y15.7252
G01 X1.0499 Y15.7100
G01 X1.0569 Y15.6992
G01 X1.0675 Y15.6857
G01 X1.0793 Y15.6733
G01 X1.0890 Y15.6647
G01 X1.1028 Y15.6545
G01 X1.1175 Y15.6457
G01 X1.1330 Y15.6383
G01 X1.1492 Y15.6325
G01 X1.1659 Y15.6284
G01 X1.1828 Y15.6258
G01 X1.2000 Y15.6250
G00 X1.2000 Y15.6250
G01 F30.00
G01 Z-0.0933
G01 F60.00
G01 X3.2086 Y15.6252
G01 X3.2172 Y15.6258
G01 X3.2299 Y15.6276
G01 X3.2425 Y15.6302
G01 X3.2549 Y15.6338
G01 X3.2670 Y15.6383
G01 X3.2748 Y15.6418
G01 X3.2863 Y15.6477
G01 X3.2972 Y15.6545
G01 X3.3077 Y15.6620
G01 X3.3143 Y15.6675
G01 X3.3237 Y15.6763
G01 X3.3325 Y15.6857
G01 X3.3380 Y15.6923
G01 X3.3455 Y15.7028
G01 X3.3523 Y15.7137
G01 X3.3582 Y15.7252
G01 X3.3633 Y15.7370
G01 X3.3662 Y15.7451
G01 X3.3707 Y15.7617
G01 X3.3737 Y15.7786
G01 X3.3748 Y15.7914
G01 X3.3750 Y15.8000
G01 X3.3749 Y19.8043
G01 X3.3742 Y19.8172
G01 X3.3724 Y19.8299
G01 X3.3698 Y19.8425
G01 X3.3662 Y19.8549
G01 X3.3617 Y19.8670
G01 X3.3563 Y19.8787
G01 X3.3501 Y19.8900
G01 X3.3455 Y19.8972
G01 X3.3380 Y19.9077
G01 X3.3297 Y19.9175
G01 X3.3207 Y19.9267
G01 X3.3143 Y19.9325
G01 X3.3042 Y19.9406
G01 X3.2972 Y19.9455
G01 X3.2863 Y19.9523
G01 X3.2748 Y19.9582
G01 X3.2590 Y19.9648
G01 X3.2467 Y19.9687
G01 X3.2383 Y19.9707
G01 X3.2299 Y19.9724
G01 X3.2172 Y19.9742
G01 X3.2000 Y19.9750
G01 X1.1914 Y19.9748
G01 X1.1786 Y19.9737
G01 X1.1701 Y19.9724
G01 X1.1575 Y19.9698
G01 X1.1451 Y19.9662
G01 X1.1370 Y19.9633
G01 X1.1252 Y19.9582
G01 X1.1137 Y19.9523
G01 X1.1028 Y19.9455
G01 X1.0923 Y19.9380
G01 X1.0825 Y19.9297
G01 X1.0763 Y19.9237
G01 X1.0675 Y19.9143
G01 X1.0594 Y19.9042
G01 X1.0545 Y19.8972
G01 X1.0477 Y19.8863
G01 X1.0418 Y19.8748
G01 X1.0383 Y19.8670
G01 X1.0338 Y19.8549
G01 X1.0293 Y19.8383
G01 X1.0269 Y19.8257
G01 X1.0258 Y19.8172
G01 X1.0250 Y19.8000
G01 X1.0252 Y15.7914
G01 X1.0269 Y15.7743
G01 X1.0302 Y15.7575
G01 X1.0352 Y15.7410
G01 X1.0418 Y15.7252
G01 X1.0499 Y15.7100
G01 X1.0569 Y15.6992
G01 X1.0675 Y15.6857
G01 X1.0793 Y15.6733
G01 X1.0890 Y15.6647
G01 X1.1028 Y15.6545
G01 X1.1175 Y15.6457
G01 X1.1330 Y15.6383
G01 X1.1492 Y15.6325
G01 X1.1659 Y15.6284
G01 X1.1828 Y15.6258
G01 X1.2000 Y15.6250
G00 Z2.0000
G00 X6.2250 Y19.8000
G01 F30.00
G01 Z-0.0480
G01 F60.00
G01 X6.2251 Y15.7957
G01 X6.2263 Y15.7786
G01 X6.2276 Y15.7701
G01 X6.2302 Y15.7575
G01 X6.2325 Y15.7492
G01 X6.2367 Y15.7370
G01 X6.2400 Y15.7291
G01 X6.2457 Y15.7175
G01 X6.2522 Y15.7064
G01 X6.2569 Y15.6992
G01 X6.2620 Y15.6923
G01 X6.2703 Y15.6825
G01 X6.2793 Y15.6733
G01 X6.2857 Y15.6675
G01 X6.2958 Y15.6594
G01 X6.3028 Y15.6545
G01 X6.3137 Y15.6477
G01 X6.3252 Y15.6418
G01 X6.3370 Y15.6367
G01 X6.3492 Y15.6325
G01 X6.3617 Y15.6293
G01 X6.3743 Y15.6269
G01 X6.3871 Y15.6255
G01 X6.4000 Y15.6250
G01 X8.4000 Y15.6250
G01 X8.4129 Y15.6255
G01 X8.4257 Y15.6269
G01 X8.4383 Y15.6293
G01 X8.4508 Y15.6325
G01 X8.4630 Y15.6367
G01 X8.4748 Y15.6418
G01 X8.4863 Y15.6477
G01 X8.4972 Y15.6545
G01 X8.5077 Y15.6620
G01 X8.5175 Y15.6703
G01 X8.5267 Y15.6793
G01 X8.5353 Y15.6890
G01 X8.5431 Y15.6992
G01 X8.5501 Y15.7100
G01 X8.5563 Y15.7213
G01 X8.5617 Y15.7330
G01 X8.5662 Y15.7451
G01 X8.5698 Y15.7575
G01 X8.5724 Y15.7701
G01 X8.5742 Y15.7828
G01 X8.5750 Y15.8000
G01 X8.5750 Y16.9748
G01 X10.4748 Y16.9748
G01 X10.4748 Y8.7175
G01 X7.5323 Y5.7750
G01 X7.0500 Y5.7750
G01 X7.0328 Y5.7742
G01 X7.0243 Y5.7731
G01 X7.0117 Y5.7707
G01 X6.9992 Y5.7675
G01 X6.9870 Y5.7633
G01 X6.9752 Y5.7582
G01 X6.9637 Y5.7523
G01 X6.9528 Y5.7455
G01 X6.9423 Y5.7380
G01 X6.9325 Y5.7297
G01 X6.9233 Y5.7207
G01 X6.9147 Y5.7110
G01 X6.9069 Y5.7008
G01 X6.8999 Y5.6900
G01 X6.8937 Y5.6787
G01 X6.8883 Y5.6670
G01 X6.8838 Y5.6549
G01 X6.8802 Y5.6425
G01 X6.8776 Y5.6299
G01 X6.8755 Y5.6129
G01 X6.8750 Y5.6000
G01 X6.8752 Y4.3914
G01 X6.8769 Y4.3743
G01 X6.8802 Y4.3575
G01 X6.8852 Y4.3410
G01 X6.8918 Y4.3252
G01 X6.8999 Y4.3100
G01 X6.9094 Y4.2958
G01 X6.9203 Y4.2825
G01 X6.9263 Y4.2763
G01 X6.9348 Y4.2683
G01 X6.9348 Y2.8790
G01 X6.8978 Y2.8569
G01 X6.8870 Y2.8498
G01 X6.8131 Y2.7950
G01 X6.8032 Y2.7867
G01 X6.7414 Y2.7307
G01 X6.7322 Y2.7217
G01 X6.6677 Y2.6503
G01 X6.6127 Y2.5765
G01 X6.6031 Y2.5622
G01 X6.5603 Y2.4907
G01 X6.5541 Y2.4794
G01 X6.5130 Y2.3923
G01 X6.4818 Y2.3057
G01 X6.4768 Y2.2893
G01 X6.4547 Y2.2000
G01 X6.4399 Y2.1005
G01 X6.4352 Y2.0086
G01 X6.4352 Y1.9914
G01 X6.4393 Y1.9081
G01 X6.4410 Y1.8910
G01 X6.4547 Y1.8000
G01 X6.4791 Y1.7025
G01 X6.5130 Y1.6077
G01 X6.5560 Y1.5168
G01 X6.6077 Y1.4305
G01 X6.6677 Y1.3497
G01 X6.7352 Y1.2752
G01 X6.8097 Y1.2077
G01 X6.8905 Y1.1477
G01 X6.9768 Y1.0960
G01 X7.0677 Y1.0530
G01 X7.1625 Y1.0191
G01 X7.2600 Y0.9947
G01 X7.3595 Y0.9799
G01 X7.4600 Y0.9750
G01 X7.5562 Y0.9796
G01 X7.5690 Y0.9810
G01 X7.6600 Y0.9947
G01 X7.7493 Y1.0168
G01 X7.7657 Y1.0218
G01 X7.8442 Y1.0499
G01 X7.8601 Y1.0565
G01 X7.9432 Y1.0960
G01 X8.0295 Y1.1477
G01 X8.1103 Y1.2077
G01 X8.1848 Y1.2752
G01 X8.2523 Y1.3497
G01 X8.3073 Y1.4235
G01 X8.3169 Y1.4378
G01 X8.3597 Y1.5093
G01 X8.3678 Y1.5245
G01 X8.4070 Y1.6077
G01 X8.4409 Y1.7025
G01 X8.4653 Y1.8000
G01 X8.4790 Y1.8910
G01 X8.4807 Y1.9081
G01 X8.4848 Y1.9914
G01 X8.4848 Y2.0086
G01 X8.4801 Y2.1005
G01 X8.4653 Y2.2000
G01 X8.4432 Y2.2893
G01 X8.4382 Y2.3057
G01 X8.4070 Y2.3923
G01 X8.3659 Y2.4794
G01 X8.3597 Y2.4907
G01 X8.3169 Y2.5622
G01 X8.3073 Y2.5765
G01 X8.2523 Y2.6503
G01 X8.1878 Y2.7217
G01 X8.1786 Y2.7307
G01 X8.1168 Y2.7867
G01 X8.1069 Y2.7950
G01 X8.0330 Y2.8498
G01 X8.0222 Y2.8569
G01 X7.9852 Y2.8790
G01 X7.9852 Y4.2286
G01 X7.9967 Y4.2313
G01 X8.0090 Y4.2352
G01 X8.0209 Y4.2400
G01 X8.0325 Y4.2457
G01 X8.0436 Y4.2522
G01 X8.0542 Y4.2594
G01 X8.0643 Y4.2675
G01 X8.0737 Y4.2763
G01 X8.0825 Y4.2857
G01 X8.0906 Y4.2958
G01 X8.0978 Y4.3064
G01 X8.1043 Y4.3175
G01 X8.1082 Y4.3252
G01 X8.1133 Y4.3370
G01 X8.1175 Y4.3492
G01 X8.1207 Y4.3617
G01 X8.1237 Y4.3786
G01 X8.1245 Y4.3871
G01 X8.1250 Y4.4000
G01 X8.1250 Y4.8823
G01 X11.3744 Y8.1317
G01 X11.4060 Y8.1668
G01 X11.4317 Y8.2012
G01 X11.4413 Y8.2155
G01 X11.4632 Y8.2524
G01 X11.4817 Y8.2912
G01 X11.4883 Y8.3070
G01 X11.5026 Y8.3475
G01 X11.5132 Y8.3892
G01 X11.5166 Y8.4060
G01 X11.5226 Y8.4485
G01 X11.5252 Y8.5000
G01 X11.5252 Y17.5000
G01 X11.5230 Y17.5472
G01 X11.5216 Y17.5600
G01 X11.5166 Y17.5940
G01 X11.5132 Y17.6108
G01 X11.5026 Y17.6525
G01 X11.4883 Y17.6930
G01 X11.4835 Y17.7049
G01 X11.4632 Y17.7476
G01 X11.4390 Y17.7882
G01 X11.4317 Y17.7988
G01 X11.4086 Y17.8298
G01 X11.4032 Y17.8365
G01 X11.3921 Y17.8487
G01 X11.3744 Y17.8683
G01 X11.3683 Y17.8744
G01 X11.3397 Y17.9004
G01 X11.3298 Y17.9086
G01 X11.2918 Y17.9367
G01 X11.2513 Y17.9611
G01 X11.2399 Y17.9670
G01 X11.2088 Y17.9817
G01 X11.1930 Y17.9883
G01 X11.1525 Y18.0026
G01 X11.1108 Y18.0132
G01 X11.0982 Y18.0159
G01 X11.0515 Y18.0226
G01 X11.0000 Y18.0252
G01 X8.5750 Y18.0252
G01 X8.5748 Y19.8086
G01 X8.5737 Y19.8214
G01 X8.5716 Y19.8341
G01 X8.5698 Y19.8425
G01 X8.5662 Y19.8549
G01 X8.5617 Y19.8670
G01 X8.5563 Y19.8787
G01 X8.5501 Y19.8900
G01 X8.5431 Y19.9008
G01 X8.5353 Y19.9110
G01 X8.5267 Y19.9207
G01 X8.5175 Y19.9297
G01 X8.5077 Y19.9380
G01 X8.4972 Y19.9455
G01 X8.4900 Y19.9501
G01 X8.4787 Y19.9563
G01 X8.4670 Y19.9617
G01 X8.4508 Y19.9675
G01 X8.4341 Y19.9716
G01 X8.4172 Y19.9742
G01 X8.4000 Y19.9750
G01 X6.4000 Y19.9750
G01 X6.3871 Y19.9745
G01 X6.3701 Y19.9724
G01 X6.3533 Y19.9687
G01 X6.3370 Y19.9633
G01 X6.3252 Y19.9582
G01 X6.3100 Y19.9501
G01 X6.2992 Y19.9431
G01 X6.2857 Y19.9325
G01 X6.2733 Y19.9207
G01 X6.2620 Y19.9077
G01 X6.2545 Y19.8972
G01 X6.2457 Y19.8825
G01 X6.2383 Y19.8670
G01 X6.2325 Y19.8508
G01 X6.2284 Y19.8341
G01 X6.2258 Y19.8172
G01 X6.2250 Y19.8000
G00 X6.2250 Y19.8000
G01 F30.00
G01 Z-0.0933
G01 F60.00
G01 X6.2251 Y15.7957
G01 X6.2263 Y15.7786
G01 X6.2276 Y15.7701
G01 X6.2302 Y15.7575
G01 X6.2325 Y15.7492
G01 X6.2367 Y15.7370
G01 X6.2400 Y15.7291
G01 X6.2457 Y15.7175
G01 X6.2522 Y15.7064
G01 X6.2569 Y15.6992
G01 X6.2620 Y15.6923
G01 X6.2703 Y15.6825
G01 X6.2793 Y15.6733
G01 X6.2857 Y15.6675
G01 X6.2958 Y15.6594
G01 X6.3028 Y15.6545
G01 X6.3137 Y15.6477
G01 X6.3252 Y15.6418
G01 X6.3370 Y15.6367
G01 X6.3492 Y15.6325
G01 X6.3617 Y15.6293
G01 X6.3743 Y15.6269
G01 X6.3871 Y15.6255
G01 X6.4000 Y15.6250
G01 X8.4000 Y15.6250
G01 X8.4129 Y15.6255
G01 X8.4257 Y15.6269
G01 X8.4383 Y15.6293
G01 X8.4508 Y15.6325
G01 X8.4630 Y15.6367
G01 X8.4748 Y15.6418
G01 X8.4863 Y15.6477
G01 X8.4972 Y15.6545
G01 X8.5077 Y15.6620
G01 X8.5175 Y15.6703
G01 X8.5267 Y15.6793
G01 X8.5353 Y15.6890
G01 X8.5431 Y15.6992
G01 X8.5501 Y15.7100
G01 X8.5563 Y15.7213
G01 X8.5617 Y15.7330
G01 X8.5662 Y15.7451
G01 X8.5698 Y15.7575
G01 X8.5724 Y15.7701
G01 X8.5742 Y15.7828
G01 X8.5750 Y15.8000
G01 X8.5750 Y16.9748
G01 X10.4748 Y16.9748
G01 X10.4748 Y8.7175
G01 X7.5323 Y5.7750
G01 X7.0500 Y5.7750
G01 X7.0328 Y5.7742
G01 X7.0243 Y5.7731
G01 X7.0117 Y5.7707
G01 X6.9992 Y5.7675
G01 X6.9870 Y5.7633
G01 X6.9752 Y5.7582
G01 X6.9637 Y5.7523
G01 X6.9528 Y5.7455
G01 X6.9423 Y5.7380
G01 X6.9325 Y5.7297
G01 X6.9233 Y5.7207
G01 X6.9147 Y5.7110
G01 X6.9069 Y5.7008
G01 X6.8999 Y5.6900
G01 X6.8937 Y5.6787
G01 X6.8883 Y5.6670
G01 X6.8838 Y5.6549
G01 X6.8802 Y5.6425
G01 X6.8776 Y5.6299
G01 X6.8755 Y5.6129
G01 X6.8750 Y5.6000
G01 X6.8752 Y4.3914
G01 X6.8769 Y4.3743
G01 X6.8802 Y4.3575
G01 X6.8852 Y4.3410
G01 X6.8918 Y4.3252
G01 X6.8999 Y4.3100
G01 X6.9094 Y4.2958
G01 X6.9203 Y4.2825
G01 X6.9263 Y4.2763
G01 X6.9348 Y4.2683
G01 X6.9348 Y2.8790
G01 X6.8978 Y2.8569
G01 X6.8870 Y2.8498
G01 X6.8131 Y2.7950
G01 X6.8032 Y2.7867
G01 X6.7414 Y2.7307
G01 X6.7322 Y2.7217
G01 X6.6677 Y2.6503
G01 X6.6127 Y2.5765
G01 X6.6031 Y2.5622
G01 X6.5603 Y2.4907
G01 X6.5541 Y2.4794
G01 X6.5130 Y2.3923
G01 X6.4818 Y2.3057
G01 X6.4768 Y2.2893
G01 X6.4547 Y2.2000
G01 X6.4399 Y2.1005
G01 X6.4352 Y2.0086
G01 X6.4352 Y1.9914
G01 X6.4393 Y1.9081
G01 X6.4410 Y1.8910
G01 X6.4547 Y1.8000
G01 X6.4791 Y1.7025
G01 X6.5130 Y1.6077
G01 X6.5560 Y1.5168
G01 X6.6077 Y1.4305
G01 X6.6677 Y1.3497
G01 X6.7352 Y1.2752
G01 X6.8097 Y1.2077
G01 X6.8905 Y1.1477
G01 X6.9768 Y1.0960
G01 X7.0677 Y1.0530
G01 X7.1625 Y1.0191
G01 X7.2600 Y0.9947
G01 X7.3595 Y0.9799
G01 X7.4600 Y0.9750
G01 X7.5562 Y0.9796
G01 X7.5690 Y0.9810
G01 X7.6600 Y0.9947
G01 X7.7493 Y1.0168
G01 X7.7657 Y1.0218
G01 X7.8442 Y1.0499
G01 X7.8601 Y1.0565
G01 X7.9432 Y1.0960
G01 X8.0295 Y1.1477
G01 X8.1103 Y1.2077
G01 X8.1848 Y1.2752
G01 X8.2523 Y1.3497
G01 X8.3073 Y1.4235
G01 X8.3169 Y1.4378
G01 X8.3597 Y1.5093
G01 X8.3678 Y1.5245
G01 X8.4070 Y1.6077
G01 X8.4409 Y1.7025
G01 X8.4653 Y1.8000
G01 X8.4790 Y1.8910
G01 X8.4807 Y1.9081
G01 X8.4848 Y1.9914
G01 X8.4848 Y2.0086
G01 X8.4801 Y2.1005
G01 X8.4653 Y2.2000
G01 X8.4432 Y2.2893
G01 X8.4382 Y2.3057
G01 X8.4070 Y2.3923
G01 X8.3659 Y2.4794
G01 X8.3597 Y2.4907
G01 X8.3169 Y2.5622
G01 X8.3073 Y2.5765
G01 X8.2523 Y2.6503
G01 X8.1878 Y2.7217
G01 X8.1786 Y2.7307
G01 X8.1168 Y2.7867
G01 X8.1069 Y2.7950
G01 X8.0330 Y2.8498
G01 X8.0222 Y2.8569
G01 X7.9852 Y2.8790
G01 X7.9852 Y4.2286
G01 X7.9967 Y4.2313
G01 X8.0090 Y4.2352
G01 X8.0209 Y4.2400
G01 X8.0325 Y4.2457
G01 X8.0436 Y4.2522
G01 X8.0542 Y4.2594
G01 X8.0643 Y4.2675
G01 X8.0737 Y4.2763
G01 X8.0825 Y4.2857
G01 X8.0906 Y4.2958
G01 X8.0978 Y4.3064
G01 X8.1043 Y4.3175
G01 X8.1082 Y4.3252
G01 X8.1133 Y4.3370
G01 X8.1175 Y4.3492
G01 X8.1207 Y4.3617
G01 X8.1237 Y4.3786
G01 X8.1245 Y4.3871
G01 X8.1250 Y4.4000
G01 X8.1250 Y4.8823
G01 X11.3744 Y8.1317
G01 X11.4060 Y8.1668
G01 X11.4317 Y8.2012
G01 X11.4413 Y8.2155
G01 X11.4632 Y8.2524
G01 X11.4817 Y8.2912
G01 X11.4883 Y8.3070
G01 X11.5026 Y8.3475
G01 X11.5132 Y8.3892
G01 X11.5166 Y8.4060
G01 X11.5226 Y8.4485
G01 X11.5252 Y8.5000
G01 X11.5252 Y17.5000
G01 X11.5230 Y17.5472
G01 X11.5216 Y17.5600
G01 X11.5166 Y17.5940
G01 X11.5132 Y17.6108
G01 X11.5026 Y17.6525
G01 X11.4883 Y17.6930
G01 X11.4835 Y17.7049
G01 X11.4632 Y17.7476
G01 X11.4390 Y17.7882
G01 X11.4317 Y17.7988
G01 X11.4086 Y17.8298
G01 X11.4032 Y17.8365
G01 X11.3921 Y17.8487
G01 X11.3744 Y17.8683
G01 X11.3683 Y17.8744
G01 X11.3397 Y17.9004
G01 X11.3298 Y17.9086
G01 X11.2918 Y17.9367
G01 X11.2513 Y17.9611
G01 X11.2399 Y17.9670
G01 X11.2088 Y17.9817
G01 X11.1930 Y17.9883
G01 X11.1525 Y18.0026
G01 X11.1108 Y18.0132
G01 X11.0982 Y18.0159
G01 X11.0515 Y18.0226
G01 X11.0000 Y18.0252
G01 X8.5750 Y18.0252
G01 X8.5748 Y19.8086
G01 X8.5737 Y19.8214
G01 X8.5716 Y19.8341
G01 X8.5698 Y19.8425
G01 X8.5662 Y19.8549
G01 X8.5617 Y19.8670
G01 X8.5563 Y19.8787
G01 X8.5501 Y19.8900
G01 X8.5431 Y19.9008
G01 X8.5353 Y19.9110
G01 X8.5267 Y19.9207
G01 X8.5175 Y19.9297
G01 X8.5077 Y19.9380
G01 X8.4972 Y19.9455
G01 X8.4900 Y19.9501
G01 X8.4787 Y19.9563
G01 X8.4670 Y19.9617
G01 X8.4508 Y19.9675
G01 X8.4341 Y19.9716
G01 X8.4172 Y19.9742
G01 X8.4000 Y19.9750
G01 X6.4000 Y19.9750
G01 X6.3871 Y19.9745
G01 X6.3701 Y19.9724
G01 X6.3533 Y19.9687
G01 X6.3370 Y19.9633
G01 X6.3252 Y19.9582
G01 X6.3100 Y19.9501
G01 X6.2992 Y19.9431
G01 X6.2857 Y19.9325
G01 X6.2733 Y19.9207
G01 X6.2620 Y19.9077
G01 X6.2545 Y19.8972
G01 X6.2457 Y19.8825
G01 X6.2383 Y19.8670
G01 X6.2325 Y19.8508
G01 X6.2284 Y19.8341
G01 X6.2258 Y19.8172
G01 X6.2250 Y19.8000
G00 Z2.0000
M05
G00 Z2.0000
G00 Z15.00

