(G-CODE GENERATED BY FLATCAM v8.993 - www.flatcam.org - Version Date: 2020/06/05)

(Name: isolation_endmill_05)
(Type: G-code from Geometry)
(Units: MM)

(Created on Sunday, 22 November 2020 at 16:34)

(This preprocessor is the default preprocessor used by FlatCAM.)
(It is made to work with MACH3 compatible motion controllers.)

(TOOL DIAMETER: 0.5 mm)
(Feedrate_XY: 80.0 mm/min)
(Feedrate_Z: 40.0 mm/min)
(Feedrate rapids 1500.0 mm/min)

(Z_Cut: -0.095 mm)
(DepthPerCut: 0.048 mm <=>2 passes)
(Z_Move: 2.0 mm)
(Z Start: None mm)
(Z End: 15.0 mm)
(Steps per circle: 64)
(Preprocessor Geometry: default)

(X range:    0.1500 ...   11.8500  mm)
(Y range:    0.1500 ...   21.8500  mm)

(Spindle Speed: None RPM)
G21
G90
G94



G01 F80.00
G00 Z2.0000

M03
G00 X4.4000 Y0.9196
G01 F40.00
G01 Z-0.0480
G01 F80.00
G01 X4.4000 Y0.1500
G01 X3.9750 Y0.1500
G01 X3.9750 Y1.2615
G01 X3.5500 Y0.1500
G01 X3.5500 Y7.9551
G00 X3.5500 Y7.9551
G01 F40.00
G01 Z-0.0950
G01 F80.00
G01 X3.5500 Y0.1500
G01 X3.9750 Y1.2615
G01 X3.9750 Y0.1500
G01 X4.4000 Y0.1500
G01 X4.4000 Y0.9196
G00 Z2.0000
G00 X4.8250 Y0.8042
G01 F40.00
G01 Z-0.0480
G01 F80.00
G01 X4.8250 Y0.1500
G01 X5.2500 Y0.1500
G01 X5.2500 Y0.8466
G00 X5.2500 Y0.8466
G01 F40.00
G01 Z-0.0950
G01 F80.00
G01 X5.2500 Y0.1500
G01 X4.8250 Y0.1500
G01 X4.8250 Y0.8042
G00 Z2.0000
G00 X5.6750 Y1.0674
G01 F40.00
G01 Z-0.0480
G01 F80.00
G01 X5.6750 Y0.1500
G01 X6.1000 Y0.1500
G01 X6.1000 Y1.7836
G01 X6.5250 Y1.2481
G01 X6.5250 Y0.1500
G01 X6.9500 Y0.1500
G01 X6.9500 Y0.9149
G00 X6.9500 Y0.9149
G01 F40.00
G01 Z-0.0950
G01 F80.00
G01 X6.9500 Y0.1500
G01 X6.5250 Y0.1500
G01 X6.5250 Y1.2481
G01 X6.1000 Y1.7836
G01 X6.1000 Y0.1500
G01 X5.6750 Y0.1500
G01 X5.6750 Y1.0674
G00 Z2.0000
G00 X7.3750 Y0.8038
G01 F40.00
G01 Z-0.0480
G01 F80.00
G01 X7.3750 Y0.1500
G01 X7.8000 Y0.1500
G01 X7.8000 Y0.8493
G00 X7.8000 Y0.8493
G01 F40.00
G01 Z-0.0950
G01 F80.00
G01 X7.8000 Y0.1500
G01 X7.3750 Y0.1500
G01 X7.3750 Y0.8038
G00 Z2.0000
G00 X8.2250 Y1.0756
G01 F40.00
G01 Z-0.0480
G01 F80.00
G01 X8.2250 Y0.1500
G01 X8.6500 Y0.1500
G01 X8.6500 Y1.8510
G00 X8.6500 Y1.8510
G01 F40.00
G01 Z-0.0950
G01 F80.00
G01 X8.6500 Y0.1500
G01 X8.2250 Y0.1500
G01 X8.2250 Y1.0756
G00 Z2.0000
G00 X8.9455 Y0.8661
G01 F40.00
G01 Z-0.0480
G01 F80.00
G01 X8.9287 Y0.8788
G01 X8.9187 Y0.8875
G01 X8.9025 Y0.9025
G01 X8.8875 Y0.9187
G01 X8.8759 Y0.9324
G01 X8.8627 Y0.9501
G01 X8.8559 Y0.9603
G01 X8.8442 Y0.9797
G01 X8.8358 Y0.9960
G01 X8.8264 Y1.0165
G01 X8.8189 Y1.0367
G01 X8.8150 Y1.0486
G01 X8.8094 Y1.0697
G01 X8.8057 Y1.0872
G01 X8.8022 Y1.1105
G01 X8.8011 Y1.1227
G01 X8.8000 Y1.1500
G01 X8.8000 Y2.8500
G01 X8.8008 Y2.8721
G01 X8.8022 Y2.8895
G01 X8.8057 Y2.9127
G01 X8.8081 Y2.9247
G01 X8.8133 Y2.9455
G01 X8.8189 Y2.9633
G01 X8.8264 Y2.9835
G01 X8.8358 Y3.0040
G01 X8.8442 Y3.0203
G01 X8.8561 Y3.0400
G01 X8.8661 Y3.0545
G01 X8.8793 Y3.0718
G01 X8.8875 Y3.0813
G01 X8.9025 Y3.0975
G01 X8.9187 Y3.1125
G01 X8.9281 Y3.1206
G01 X8.9455 Y3.1339
G01 X8.9607 Y3.1443
G01 X8.9786 Y3.1551
G01 X8.9894 Y3.1610
G01 X9.0107 Y3.1710
G01 X9.0220 Y3.1757
G01 X9.0427 Y3.1831
G01 X9.0545 Y3.1867
G01 X9.0757 Y3.1920
G01 X9.0877 Y3.1944
G01 X9.1153 Y3.1983
G01 X9.1433 Y3.1999
G01 X9.2998 Y3.2000
G01 X9.2998 Y4.2000
G01 X9.3002 Y4.2172
G01 X9.3019 Y4.2515
G01 X9.3046 Y4.2809
G01 X9.3117 Y4.3277
G01 X9.3155 Y4.3468
G01 X9.3262 Y4.3898
G01 X9.3345 Y4.4171
G01 X9.3490 Y4.4574
G01 X9.3573 Y4.4774
G01 X9.3748 Y4.5147
G01 X9.3849 Y4.5343
G01 X9.3910 Y4.5450
G01 X9.4123 Y4.5805
G01 X9.4248 Y4.5990
G01 X9.4557 Y4.6403
G01 X9.4654 Y4.6520
G01 X9.4931 Y4.6827
G01 X9.5049 Y4.6951
G01 X10.0000 Y5.1902
G01 X10.0000 Y5.6000
G01 X10.0008 Y5.6221
G01 X10.0022 Y5.6395
G01 X10.0057 Y5.6626
G01 X10.0081 Y5.6746
G01 X10.0152 Y5.7019
G01 X10.0189 Y5.7133
G01 X10.0264 Y5.7335
G01 X10.0316 Y5.7452
G01 X10.0410 Y5.7643
G01 X10.0524 Y5.7841
G01 X10.0595 Y5.7953
G01 X10.0719 Y5.8124
G01 X10.0797 Y5.8224
G01 X10.0941 Y5.8386
G01 X10.1025 Y5.8475
G01 X10.1114 Y5.8559
G01 X10.1274 Y5.8701
G01 X10.1501 Y5.8873
G01 X10.1659 Y5.8976
G01 X10.1790 Y5.9054
G01 X10.1898 Y5.9112
G01 X10.2165 Y5.9236
G01 X10.2427 Y5.9331
G01 X10.2602 Y5.9382
G01 X10.2752 Y5.9419
G01 X10.2872 Y5.9443
G01 X10.3153 Y5.9483
G01 X10.3455 Y5.9500
G01 X11.2545 Y5.9500
G01 X11.2847 Y5.9483
G01 X11.3062 Y5.9454
G01 X11.3194 Y5.9430
G01 X11.3398 Y5.9382
G01 X11.3513 Y5.9350
G01 X11.3725 Y5.9278
G01 X11.3893 Y5.9210
G01 X11.4162 Y5.9080
G01 X11.4341 Y5.8976
G01 X11.4488 Y5.8880
G01 X11.4713 Y5.8712
G01 X11.4886 Y5.8559
G01 X11.5018 Y5.8431
G01 X11.5203 Y5.8224
G01 X11.5339 Y5.8045
G01 X11.5441 Y5.7897
G01 X11.5590 Y5.7643
G01 X11.5684 Y5.7452
G01 X11.5757 Y5.7280
G01 X11.5848 Y5.7019
G01 X11.5906 Y5.6803
G01 X11.5943 Y5.6626
G01 X11.5978 Y5.6395
G01 X11.5992 Y5.6221
G01 X11.6000 Y5.6000
G01 X11.6000 Y4.4000
G01 X11.5997 Y4.3877
G01 X11.5985 Y4.3676
G01 X11.5954 Y4.3438
G01 X11.5931 Y4.3310
G01 X11.5906 Y4.3197
G01 X11.5866 Y4.3041
G01 X11.5830 Y4.2924
G01 X11.5757 Y4.2720
G01 X11.5710 Y4.2607
G01 X11.5617 Y4.2408
G01 X11.5526 Y4.2243
G01 X11.5405 Y4.2047
G01 X11.5281 Y4.1876
G01 X11.5165 Y4.1731
G01 X11.5059 Y4.1614
G01 X11.4931 Y4.1482
G01 X11.4770 Y4.1336
G01 X11.4678 Y4.1261
G01 X11.4499 Y4.1127
G01 X11.4397 Y4.1059
G01 X11.4210 Y4.0946
G01 X11.4102 Y4.0888
G01 X11.3893 Y4.0790
G01 X11.3780 Y4.0743
G01 X11.3573 Y4.0669
G01 X11.3455 Y4.0633
G01 X11.3303 Y4.0594
G01 X11.3194 Y4.0570
G01 X11.3062 Y4.0546
G01 X11.2906 Y4.0524
G01 X11.2721 Y4.0508
G01 X11.2500 Y4.0500
G01 X10.8402 Y4.0500
G01 X10.7002 Y3.9100
G01 X10.7002 Y3.2000
G01 X10.8567 Y3.1999
G01 X10.8784 Y3.1988
G01 X10.8965 Y3.1968
G01 X10.9123 Y3.1944
G01 X10.9243 Y3.1920
G01 X10.9455 Y3.1867
G01 X10.9573 Y3.1831
G01 X10.9780 Y3.1757
G01 X10.9893 Y3.1710
G01 X11.0102 Y3.1612
G01 X11.0215 Y3.1550
G01 X11.0389 Y3.1446
G01 X11.0545 Y3.1339
G01 X11.0719 Y3.1206
G01 X11.0886 Y3.1059
G01 X11.1018 Y3.0931
G01 X11.1167 Y3.0766
G01 X11.1245 Y3.0671
G01 X11.1371 Y3.0502
G01 X11.1476 Y3.0341
G01 X11.1588 Y3.0148
G01 X11.1684 Y2.9952
G01 X11.1736 Y2.9835
G01 X11.1811 Y2.9633
G01 X11.1850 Y2.9513
G01 X11.1906 Y2.9303
G01 X11.1943 Y2.9127
G01 X11.1968 Y2.8965
G01 X11.1985 Y2.8824
G01 X11.1997 Y2.8623
G01 X11.2000 Y2.8500
G01 X11.2000 Y1.1500
G01 X11.1997 Y1.1377
G01 X11.1985 Y1.1176
G01 X11.1968 Y1.1035
G01 X11.1931 Y1.0807
G01 X11.1882 Y1.0602
G01 X11.1850 Y1.0486
G01 X11.1778 Y1.0275
G01 X11.1710 Y1.0107
G01 X11.1588 Y0.9852
G01 X11.1476 Y0.9659
G01 X11.1372 Y0.9499
G01 X11.1207 Y0.9282
G01 X11.1019 Y0.9070
G01 X11.0886 Y0.8941
G01 X11.0716 Y0.8791
G01 X11.0497 Y0.8626
G01 X11.0345 Y0.8527
G01 X11.0210 Y0.8446
G01 X11.0102 Y0.8388
G01 X10.9896 Y0.8291
G01 X10.9725 Y0.8222
G01 X10.9518 Y0.8151
G01 X10.9243 Y0.8080
G01 X10.9123 Y0.8056
G01 X10.8965 Y0.8032
G01 X10.8781 Y0.8012
G01 X10.8500 Y0.8000
G01 X9.1444 Y0.8001
G01 X9.1159 Y0.8017
G01 X9.0877 Y0.8056
G01 X9.0757 Y0.8080
G01 X9.0602 Y0.8118
G01 X9.0425 Y0.8170
G01 X9.0161 Y0.8266
G01 X8.9901 Y0.8387
G01 X8.9789 Y0.8447
G01 X8.9659 Y0.8524
G01 X8.9559 Y0.8588
G01 X8.9455 Y0.8661
G01 X9.0750 Y0.1500
G01 X9.0750 Y0.8082
G00 X9.0750 Y0.8082
G01 F40.00
G01 Z-0.0950
G01 F80.00
G01 X9.0750 Y0.1500
G01 X8.9455 Y0.8661
G01 X8.9559 Y0.8588
G01 X8.9659 Y0.8524
G01 X8.9789 Y0.8447
G01 X8.9901 Y0.8387
G01 X9.0161 Y0.8266
G01 X9.0425 Y0.8170
G01 X9.0602 Y0.8118
G01 X9.0757 Y0.8080
G01 X9.0877 Y0.8056
G01 X9.1159 Y0.8017
G01 X9.1444 Y0.8001
G01 X10.8500 Y0.8000
G01 X10.8781 Y0.8012
G01 X10.8965 Y0.8032
G01 X10.9123 Y0.8056
G01 X10.9243 Y0.8080
G01 X10.9518 Y0.8151
G01 X10.9725 Y0.8222
G01 X10.9896 Y0.8291
G01 X11.0102 Y0.8388
G01 X11.0210 Y0.8446
G01 X11.0345 Y0.8527
G01 X11.0497 Y0.8626
G01 X11.0716 Y0.8791
G01 X11.0886 Y0.8941
G01 X11.1019 Y0.9070
G01 X11.1207 Y0.9282
G01 X11.1372 Y0.9499
G01 X11.1476 Y0.9659
G01 X11.1588 Y0.9852
G01 X11.1710 Y1.0107
G01 X11.1778 Y1.0275
G01 X11.1850 Y1.0486
G01 X11.1882 Y1.0602
G01 X11.1931 Y1.0807
G01 X11.1968 Y1.1035
G01 X11.1985 Y1.1176
G01 X11.1997 Y1.1377
G01 X11.2000 Y1.1500
G01 X11.2000 Y2.8500
G01 X11.1997 Y2.8623
G01 X11.1985 Y2.8824
G01 X11.1968 Y2.8965
G01 X11.1943 Y2.9127
G01 X11.1906 Y2.9303
G01 X11.1850 Y2.9513
G01 X11.1811 Y2.9633
G01 X11.1736 Y2.9835
G01 X11.1684 Y2.9952
G01 X11.1588 Y3.0148
G01 X11.1476 Y3.0341
G01 X11.1371 Y3.0502
G01 X11.1245 Y3.0671
G01 X11.1167 Y3.0766
G01 X11.1018 Y3.0931
G01 X11.0886 Y3.1059
G01 X11.0719 Y3.1206
G01 X11.0545 Y3.1339
G01 X11.0389 Y3.1446
G01 X11.0215 Y3.1550
G01 X11.0102 Y3.1612
G01 X10.9893 Y3.1710
G01 X10.9780 Y3.1757
G01 X10.9573 Y3.1831
G01 X10.9455 Y3.1867
G01 X10.9243 Y3.1920
G01 X10.9123 Y3.1944
G01 X10.8965 Y3.1968
G01 X10.8784 Y3.1988
G01 X10.8567 Y3.1999
G01 X10.7002 Y3.2000
G01 X10.7002 Y3.9100
G01 X10.8402 Y4.0500
G01 X11.2500 Y4.0500
G01 X11.2721 Y4.0508
G01 X11.2906 Y4.0524
G01 X11.3062 Y4.0546
G01 X11.3194 Y4.0570
G01 X11.3303 Y4.0594
G01 X11.3455 Y4.0633
G01 X11.3573 Y4.0669
G01 X11.3780 Y4.0743
G01 X11.3893 Y4.0790
G01 X11.4102 Y4.0888
G01 X11.4210 Y4.0946
G01 X11.4397 Y4.1059
G01 X11.4499 Y4.1127
G01 X11.4678 Y4.1261
G01 X11.4770 Y4.1336
G01 X11.4931 Y4.1482
G01 X11.5059 Y4.1614
G01 X11.5165 Y4.1731
G01 X11.5281 Y4.1876
G01 X11.5405 Y4.2047
G01 X11.5526 Y4.2243
G01 X11.5617 Y4.2408
G01 X11.5710 Y4.2607
G01 X11.5757 Y4.2720
G01 X11.5830 Y4.2924
G01 X11.5866 Y4.3041
G01 X11.5906 Y4.3197
G01 X11.5931 Y4.3310
G01 X11.5954 Y4.3438
G01 X11.5985 Y4.3676
G01 X11.5997 Y4.3877
G01 X11.6000 Y4.4000
G01 X11.6000 Y5.6000
G01 X11.5992 Y5.6221
G01 X11.5978 Y5.6395
G01 X11.5943 Y5.6626
G01 X11.5906 Y5.6803
G01 X11.5848 Y5.7019
G01 X11.5757 Y5.7280
G01 X11.5684 Y5.7452
G01 X11.5590 Y5.7643
G01 X11.5441 Y5.7897
G01 X11.5339 Y5.8045
G01 X11.5203 Y5.8224
G01 X11.5018 Y5.8431
G01 X11.4886 Y5.8559
G01 X11.4713 Y5.8712
G01 X11.4488 Y5.8880
G01 X11.4341 Y5.8976
G01 X11.4162 Y5.9080
G01 X11.3893 Y5.9210
G01 X11.3725 Y5.9278
G01 X11.3513 Y5.9350
G01 X11.3398 Y5.9382
G01 X11.3194 Y5.9430
G01 X11.3062 Y5.9454
G01 X11.2847 Y5.9483
G01 X11.2545 Y5.9500
G01 X10.3455 Y5.9500
G01 X10.3153 Y5.9483
G01 X10.2872 Y5.9443
G01 X10.2752 Y5.9419
G01 X10.2602 Y5.9382
G01 X10.2427 Y5.9331
G01 X10.2165 Y5.9236
G01 X10.1898 Y5.9112
G01 X10.1790 Y5.9054
G01 X10.1659 Y5.8976
G01 X10.1501 Y5.8873
G01 X10.1274 Y5.8701
G01 X10.1114 Y5.8559
G01 X10.1025 Y5.8475
G01 X10.0941 Y5.8386
G01 X10.0797 Y5.8224
G01 X10.0719 Y5.8124
G01 X10.0595 Y5.7953
G01 X10.0524 Y5.7841
G01 X10.0410 Y5.7643
G01 X10.0316 Y5.7452
G01 X10.0264 Y5.7335
G01 X10.0189 Y5.7133
G01 X10.0152 Y5.7019
G01 X10.0081 Y5.6746
G01 X10.0057 Y5.6626
G01 X10.0022 Y5.6395
G01 X10.0008 Y5.6221
G01 X10.0000 Y5.6000
G01 X10.0000 Y5.1902
G01 X9.5049 Y4.6951
G01 X9.4931 Y4.6827
G01 X9.4654 Y4.6520
G01 X9.4557 Y4.6403
G01 X9.4248 Y4.5990
G01 X9.4123 Y4.5805
G01 X9.3910 Y4.5450
G01 X9.3849 Y4.5343
G01 X9.3748 Y4.5147
G01 X9.3573 Y4.4774
G01 X9.3490 Y4.4574
G01 X9.3345 Y4.4171
G01 X9.3262 Y4.3898
G01 X9.3155 Y4.3468
G01 X9.3117 Y4.3277
G01 X9.3046 Y4.2809
G01 X9.3019 Y4.2515
G01 X9.3002 Y4.2172
G01 X9.2998 Y4.2000
G01 X9.2998 Y3.2000
G01 X9.1433 Y3.1999
G01 X9.1153 Y3.1983
G01 X9.0877 Y3.1944
G01 X9.0757 Y3.1920
G01 X9.0545 Y3.1867
G01 X9.0427 Y3.1831
G01 X9.0220 Y3.1757
G01 X9.0107 Y3.1710
G01 X8.9894 Y3.1610
G01 X8.9786 Y3.1551
G01 X8.9607 Y3.1443
G01 X8.9455 Y3.1339
G01 X8.9281 Y3.1206
G01 X8.9187 Y3.1125
G01 X8.9025 Y3.0975
G01 X8.8875 Y3.0813
G01 X8.8793 Y3.0718
G01 X8.8661 Y3.0545
G01 X8.8561 Y3.0400
G01 X8.8442 Y3.0203
G01 X8.8358 Y3.0040
G01 X8.8264 Y2.9835
G01 X8.8189 Y2.9633
G01 X8.8133 Y2.9455
G01 X8.8081 Y2.9247
G01 X8.8057 Y2.9127
G01 X8.8022 Y2.8895
G01 X8.8008 Y2.8721
G01 X8.8000 Y2.8500
G01 X8.8000 Y1.1500
G01 X8.8011 Y1.1227
G01 X8.8022 Y1.1105
G01 X8.8057 Y1.0872
G01 X8.8094 Y1.0697
G01 X8.8150 Y1.0486
G01 X8.8189 Y1.0367
G01 X8.8264 Y1.0165
G01 X8.8358 Y0.9960
G01 X8.8442 Y0.9797
G01 X8.8559 Y0.9603
G01 X8.8627 Y0.9501
G01 X8.8759 Y0.9324
G01 X8.8875 Y0.9187
G01 X8.9025 Y0.9025
G01 X8.9187 Y0.8875
G01 X8.9287 Y0.8788
G01 X8.9455 Y0.8661
G00 Z2.0000
G00 X9.5000 Y0.8000
G01 F40.00
G01 Z-0.0480
G01 F80.00
G01 X9.5000 Y0.1500
G01 X9.9250 Y0.1500
G01 X9.9250 Y0.8000
G01 X10.3500 Y0.8000
G01 X10.3500 Y0.1500
G01 X10.7750 Y0.1500
G01 X10.7750 Y0.8000
G00 X10.7750 Y0.8000
G01 F40.00
G01 Z-0.0950
G01 F80.00
G01 X10.7750 Y0.1500
G01 X10.3500 Y0.1500
G01 X10.3500 Y0.8000
G01 X9.9250 Y0.8000
G01 X9.9250 Y0.1500
G01 X9.5000 Y0.1500
G01 X9.5000 Y0.8000
G00 Z2.0000
G00 X8.6500 Y2.1490
G01 F40.00
G01 Z-0.0480
G01 F80.00
G01 X8.6500 Y5.1598
G00 X8.6500 Y5.1598
G01 F40.00
G01 Z-0.0950
G01 F80.00
G01 X8.6500 Y2.1490
G00 Z2.0000
G00 X8.2250 Y2.9244
G01 F40.00
G01 Z-0.0480
G01 F80.00
G01 X8.2250 Y4.1836
G01 X9.5000 Y4.6901
G01 X9.5000 Y6.0098
G01 X9.9250 Y6.4348
G01 X9.9250 Y5.1152
G00 X9.9250 Y5.1152
G01 F40.00
G01 Z-0.0950
G01 F80.00
G01 X9.9250 Y6.4348
G01 X9.5000 Y6.0098
G01 X9.5000 Y4.6901
G01 X8.2250 Y4.1836
G01 X8.2250 Y2.9244
G00 Z2.0000
G00 X9.0750 Y3.1918
G01 F40.00
G01 Z-0.0480
G01 F80.00
G01 X9.0750 Y5.5848
G00 X9.0750 Y5.5848
G01 F40.00
G01 Z-0.0950
G01 F80.00
G01 X9.0750 Y3.1918
G00 Z2.0000
G00 X10.7750 Y3.2000
G01 F40.00
G01 Z-0.0480
G01 F80.00
G01 X10.7750 Y3.9848
G01 X11.2000 Y4.0500
G01 X11.2000 Y0.1500
G01 X11.6250 Y0.1500
G01 X11.6250 Y8.1848
G00 X11.6250 Y8.1848
G01 F40.00
G01 Z-0.0950
G01 F80.00
G01 X11.6250 Y0.1500
G01 X11.2000 Y0.1500
G01 X11.2000 Y4.0500
G01 X10.7750 Y3.9848
G01 X10.7750 Y3.2000
G00 Z2.0000
G00 X10.3500 Y5.9500
G01 F40.00
G01 Z-0.0480
G01 F80.00
G01 X10.3500 Y6.8598
G01 X10.7750 Y7.2848
G01 X10.7750 Y5.9500
G01 X11.2000 Y5.9500
G01 X11.2000 Y7.7098
G00 X11.2000 Y7.7098
G01 F40.00
G01 Z-0.0950
G01 F80.00
G01 X11.2000 Y5.9500
G01 X10.7750 Y5.9500
G01 X10.7750 Y7.2848
G01 X10.3500 Y6.8598
G01 X10.3500 Y5.9500
G00 Z2.0000
G00 X9.0750 Y7.5652
G01 F40.00
G01 Z-0.0480
G01 F80.00
G01 X9.0750 Y16.7998
G01 X9.5000 Y16.7998
G01 X9.5000 Y7.9902
G01 X9.9250 Y8.4152
G01 X9.9250 Y16.7998
G00 X9.9250 Y16.7998
G01 F40.00
G01 Z-0.0950
G01 F80.00
G01 X9.9250 Y8.4152
G01 X9.5000 Y7.9902
G01 X9.5000 Y16.7998
G01 X9.0750 Y16.7998
G01 X9.0750 Y7.5652
G00 Z2.0000
G00 X8.6500 Y7.9551
G01 F40.00
G01 Z-0.0480
G01 F80.00
G01 X8.6500 Y7.1402
G01 X8.2250 Y6.7152
G01 X8.2250 Y7.8500
G01 X7.8000 Y7.8500
G01 X7.8000 Y6.2902
G01 X7.3750 Y5.9500
G01 X7.3750 Y7.8500
G01 X6.9500 Y7.8500
G01 X6.9500 Y5.9354
G00 X6.9500 Y5.9354
G01 F40.00
G01 Z-0.0950
G01 F80.00
G01 X6.9500 Y7.8500
G01 X7.3750 Y7.8500
G01 X7.3750 Y5.9500
G01 X7.8000 Y6.2902
G01 X7.8000 Y7.8500
G01 X8.2250 Y7.8500
G01 X8.2250 Y6.7152
G01 X8.6500 Y7.1402
G01 X8.6500 Y7.9551
G00 Z2.0000
G00 X6.5250 Y7.8500
G01 F40.00
G01 Z-0.0480
G01 F80.00
G01 X6.5250 Y2.7519
G01 X6.1000 Y2.2164
G01 X6.1000 Y8.0200
G00 X6.1000 Y8.0200
G01 F40.00
G01 Z-0.0950
G01 F80.00
G01 X6.1000 Y2.2164
G01 X6.5250 Y2.7519
G01 X6.5250 Y7.8500
G00 Z2.0000
G00 X5.6750 Y7.8500
G01 F40.00
G01 Z-0.0480
G01 F80.00
G01 X5.6750 Y2.9326
G00 X5.6750 Y2.9326
G01 F40.00
G01 Z-0.0950
G01 F80.00
G01 X5.6750 Y7.8500
G00 Z2.0000
G00 X3.9750 Y7.8500
G01 F40.00
G01 Z-0.0480
G01 F80.00
G01 X3.9750 Y2.7385
G00 X3.9750 Y2.7385
G01 F40.00
G01 Z-0.0950
G01 F80.00
G01 X3.9750 Y7.8500
G00 Z2.0000
G00 X3.1250 Y7.8500
G01 F40.00
G01 Z-0.0480
G01 F80.00
G01 X3.1250 Y0.1500
G01 X2.7000 Y0.1500
G01 X2.7000 Y7.8500
G01 X2.2750 Y7.8500
G01 X2.2750 Y0.1500
G01 X1.8500 Y0.1500
G01 X1.8500 Y7.8500
G01 X1.4250 Y7.8500
G01 X1.4250 Y0.1500
G01 X1.0000 Y0.1500
G01 X1.0000 Y7.9128
G00 X1.0000 Y7.9128
G01 F40.00
G01 Z-0.0950
G01 F80.00
G01 X1.0000 Y0.1500
G01 X1.4250 Y0.1500
G01 X1.4250 Y7.8500
G01 X1.8500 Y7.8500
G01 X1.8500 Y0.1500
G01 X2.2750 Y0.1500
G01 X2.2750 Y7.8500
G01 X2.7000 Y7.8500
G01 X2.7000 Y0.1500
G01 X3.1250 Y0.1500
G01 X3.1250 Y7.8500
G00 Z2.0000
G00 X3.5500 Y12.4449
G01 F40.00
G01 Z-0.0480
G01 F80.00
G01 X3.5500 Y15.5551
G00 X3.5500 Y15.5551
G01 F40.00
G01 Z-0.0950
G01 F80.00
G01 X3.5500 Y12.4449
G00 Z2.0000
G00 X3.9750 Y12.5500
G01 F40.00
G01 Z-0.0480
G01 F80.00
G01 X3.9750 Y15.4500
G01 X4.4000 Y15.4500
G01 X4.4000 Y12.5500
G01 X4.8250 Y12.5500
G01 X4.8250 Y15.4500
G01 X5.2500 Y15.4500
G01 X5.2500 Y12.5500
G01 X5.6750 Y12.5500
G01 X5.6750 Y15.4500
G00 X5.6750 Y15.4500
G01 F40.00
G01 Z-0.0950
G01 F80.00
G01 X5.6750 Y12.5500
G01 X5.2500 Y12.5500
G01 X5.2500 Y15.4500
G01 X4.8250 Y15.4500
G01 X4.8250 Y12.5500
G01 X4.4000 Y12.5500
G01 X4.4000 Y15.4500
G01 X3.9750 Y15.4500
G01 X3.9750 Y12.5500
G00 Z2.0000
G00 X6.1000 Y12.3800
G01 F40.00
G01 Z-0.0480
G01 F80.00
G01 X6.1000 Y15.6200
G00 X6.1000 Y15.6200
G01 F40.00
G01 Z-0.0950
G01 F80.00
G01 X6.1000 Y12.3800
G00 Z2.0000
G00 X6.5250 Y12.5500
G01 F40.00
G01 Z-0.0480
G01 F80.00
G01 X6.5250 Y15.4500
G01 X6.9500 Y15.4500
G01 X6.9500 Y12.5500
G01 X7.3750 Y12.5500
G01 X7.3750 Y15.4500
G01 X7.8000 Y15.4500
G01 X7.8000 Y12.5500
G01 X8.2250 Y12.5500
G01 X8.2250 Y15.4500
G00 X8.2250 Y15.4500
G01 F40.00
G01 Z-0.0950
G01 F80.00
G01 X8.2250 Y12.5500
G01 X7.8000 Y12.5500
G01 X7.8000 Y15.4500
G01 X7.3750 Y15.4500
G01 X7.3750 Y12.5500
G01 X6.9500 Y12.5500
G01 X6.9500 Y15.4500
G01 X6.5250 Y15.4500
G01 X6.5250 Y12.5500
G00 Z2.0000
G00 X8.6500 Y12.4449
G01 F40.00
G01 Z-0.0480
G01 F80.00
G01 X8.6500 Y15.5551
G00 X8.6500 Y15.5551
G01 F40.00
G01 Z-0.0950
G01 F80.00
G01 X8.6500 Y12.4449
G00 Z2.0000
G00 X10.7750 Y18.2002
G01 F40.00
G01 Z-0.0480
G01 F80.00
G01 X10.7750 Y21.0129
G01 X10.3500 Y21.4379
G01 X10.3500 Y18.2002
G01 X9.9250 Y18.2002
G01 X9.9250 Y21.8500
G01 X9.5000 Y21.8500
G01 X9.5000 Y18.2002
G01 X9.0750 Y18.2002
G01 X9.0750 Y21.8500
G01 X8.6500 Y20.0449
G01 X8.6500 Y21.8500
G01 X8.2250 Y21.8500
G01 X8.2250 Y20.1500
G01 X7.8000 Y20.1500
G01 X7.8000 Y21.8500
G01 X7.3750 Y21.8500
G01 X7.3750 Y20.1500
G01 X6.9500 Y20.1500
G01 X6.9500 Y21.8500
G01 X6.5250 Y21.8500
G01 X6.5250 Y20.1500
G00 X6.5250 Y20.1500
G01 F40.00
G01 Z-0.0950
G01 F80.00
G01 X6.5250 Y21.8500
G01 X6.9500 Y21.8500
G01 X6.9500 Y20.1500
G01 X7.3750 Y20.1500
G01 X7.3750 Y21.8500
G01 X7.8000 Y21.8500
G01 X7.8000 Y20.1500
G01 X8.2250 Y20.1500
G01 X8.2250 Y21.8500
G01 X8.6500 Y21.8500
G01 X8.6500 Y20.0449
G01 X9.0750 Y21.8500
G01 X9.0750 Y18.2002
G01 X9.5000 Y18.2002
G01 X9.5000 Y21.8500
G01 X9.9250 Y21.8500
G01 X9.9250 Y18.2002
G01 X10.3500 Y18.2002
G01 X10.3500 Y21.4379
G01 X10.7750 Y21.0129
G01 X10.7750 Y18.2002
G00 Z2.0000
G00 X11.2000 Y18.1709
G01 F40.00
G01 Z-0.0480
G01 F80.00
G01 X11.2000 Y20.5879
G01 X11.6250 Y20.1629
G01 X11.6250 Y17.8152
G00 X11.6250 Y17.8152
G01 F40.00
G01 Z-0.0950
G01 F80.00
G01 X11.6250 Y20.1629
G01 X11.2000 Y20.5879
G01 X11.2000 Y18.1709
G00 Z2.0000
G00 X6.1000 Y19.9800
G01 F40.00
G01 Z-0.0480
G01 F80.00
G01 X6.1000 Y21.8500
G01 X5.6750 Y21.8500
G01 X5.6750 Y20.1500
G01 X5.2500 Y20.1500
G01 X5.2500 Y21.8500
G01 X4.8250 Y21.8500
G01 X4.8250 Y20.1500
G01 X4.4000 Y20.1500
G01 X4.4000 Y21.8500
G01 X3.9750 Y21.8500
G01 X3.9750 Y20.1500
G00 X3.9750 Y20.1500
G01 F40.00
G01 Z-0.0950
G01 F80.00
G01 X3.9750 Y21.8500
G01 X4.4000 Y21.8500
G01 X4.4000 Y20.1500
G01 X4.8250 Y20.1500
G01 X4.8250 Y21.8500
G01 X5.2500 Y21.8500
G01 X5.2500 Y20.1500
G01 X5.6750 Y20.1500
G01 X5.6750 Y21.8500
G01 X6.1000 Y21.8500
G01 X6.1000 Y19.9800
G00 Z2.0000
G00 X3.5500 Y20.0449
G01 F40.00
G01 Z-0.0480
G01 F80.00
G01 X3.5500 Y21.8500
G01 X3.1250 Y21.8500
G01 X3.1250 Y20.1500
G01 X2.7000 Y20.1500
G01 X2.7000 Y21.8500
G01 X2.2750 Y21.8500
G01 X2.2750 Y20.1500
G01 X1.8500 Y20.1500
G01 X1.8500 Y21.8500
G01 X1.4250 Y21.8500
G01 X1.4250 Y20.1500
G00 X1.4250 Y20.1500
G01 F40.00
G01 Z-0.0950
G01 F80.00
G01 X1.4250 Y21.8500
G01 X1.8500 Y21.8500
G01 X1.8500 Y20.1500
G01 X2.2750 Y20.1500
G01 X2.2750 Y21.8500
G01 X2.7000 Y21.8500
G01 X2.7000 Y20.1500
G01 X3.1250 Y20.1500
G01 X3.1250 Y21.8500
G01 X3.5500 Y21.8500
G01 X3.5500 Y20.0449
G00 Z2.0000
G00 X1.0000 Y20.0872
G01 F40.00
G01 Z-0.0480
G01 F80.00
G01 X1.0000 Y21.8500
G01 X0.1500 Y21.8500
G01 X0.1500 Y0.1500
G01 X11.8500 Y0.1500
G01 X11.8500 Y19.9379
G01 X9.9379 Y21.8500
G01 X0.1500 Y21.8500
G01 X0.5750 Y21.8500
G01 X0.5750 Y0.1500
G01 X0.1500 Y0.1500
G01 X0.1500 Y21.8500
G00 X0.1500 Y21.8500
G01 F40.00
G01 Z-0.0950
G01 F80.00
G01 X0.1500 Y0.1500
G01 X0.5750 Y0.1500
G01 X0.5750 Y21.8500
G01 X0.1500 Y21.8500
G01 X9.9379 Y21.8500
G01 X11.8500 Y19.9379
G01 X11.8500 Y0.1500
G01 X0.1500 Y0.1500
G01 X0.1500 Y21.8500
G01 X1.0000 Y21.8500
G01 X1.0000 Y20.0872
G00 Z2.0000
G00 X0.8594 Y19.8803
G01 F40.00
G01 Z-0.0480
G01 F80.00
G01 X0.8556 Y19.8620
G01 X0.8524 Y19.8405
G01 X0.8508 Y19.8221
G01 X0.8500 Y19.8000
G01 X0.8500 Y15.8000
G01 X0.8508 Y15.7779
G01 X0.8517 Y15.7659
G01 X0.8532 Y15.7535
G01 X0.8556 Y15.7377
G01 X0.8580 Y15.7257
G01 X0.8651 Y15.6982
G01 X0.8744 Y15.6718
G01 X0.8791 Y15.6604
G01 X0.8858 Y15.6460
G01 X0.8946 Y15.6290
G01 X0.9093 Y15.6051
G01 X0.9253 Y15.5832
G01 X0.9375 Y15.5687
G01 X0.9484 Y15.5568
G01 X0.9570 Y15.5481
G01 X0.9782 Y15.5293
G01 X0.9999 Y15.5128
G01 X1.0159 Y15.5024
G01 X1.0297 Y15.4942
G01 X1.0406 Y15.4885
G01 X1.0665 Y15.4764
G01 X1.0926 Y15.4669
G01 X1.1044 Y15.4633
G01 X1.1197 Y15.4594
G01 X1.1307 Y15.4569
G01 X1.1438 Y15.4546
G01 X1.1676 Y15.4515
G01 X1.1877 Y15.4503
G01 X1.2000 Y15.4500
G01 X3.2000 Y15.4500
G01 X3.2273 Y15.4511
G01 X3.2465 Y15.4532
G01 X3.2692 Y15.4569
G01 X3.2898 Y15.4618
G01 X3.3073 Y15.4669
G01 X3.3335 Y15.4764
G01 X3.3540 Y15.4858
G01 X3.3703 Y15.4942
G01 X3.3900 Y15.5061
G01 X3.4045 Y15.5161
G01 X3.4218 Y15.5293
G01 X3.4386 Y15.5441
G01 X3.4518 Y15.5569
G01 X3.4666 Y15.5733
G01 X3.4744 Y15.5828
G01 X3.4878 Y15.6009
G01 X3.5000 Y15.6200
G01 X3.5125 Y15.6005
G01 X3.5256 Y15.5828
G01 X3.5334 Y15.5733
G01 X3.5482 Y15.5569
G01 X3.5614 Y15.5441
G01 X3.5782 Y15.5293
G01 X3.5955 Y15.5161
G01 X3.6100 Y15.5061
G01 X3.6297 Y15.4942
G01 X3.6460 Y15.4858
G01 X3.6665 Y15.4764
G01 X3.6927 Y15.4669
G01 X3.7102 Y15.4618
G01 X3.7308 Y15.4569
G01 X3.7535 Y15.4532
G01 X3.7727 Y15.4511
G01 X3.8000 Y15.4500
G01 X5.8091 Y15.4502
G01 X5.8324 Y15.4515
G01 X5.8562 Y15.4546
G01 X5.8746 Y15.4581
G01 X5.8959 Y15.4634
G01 X5.9133 Y15.4689
G01 X5.9335 Y15.4764
G01 X5.9592 Y15.4883
G01 X5.9757 Y15.4974
G01 X5.9953 Y15.5095
G01 X6.0174 Y15.5257
G01 X6.0313 Y15.5375
G01 X6.0475 Y15.5525
G01 X6.0625 Y15.5687
G01 X6.0747 Y15.5832
G01 X6.0880 Y15.6012
G01 X6.1000 Y15.6200
G01 X6.1095 Y15.6047
G01 X6.1223 Y15.5871
G01 X6.1336 Y15.5730
G01 X6.1482 Y15.5569
G01 X6.1614 Y15.5441
G01 X6.1776 Y15.5297
G01 X6.1955 Y15.5161
G01 X6.2103 Y15.5059
G01 X6.2300 Y15.4941
G01 X6.2460 Y15.4858
G01 X6.2665 Y15.4764
G01 X6.2924 Y15.4670
G01 X6.3102 Y15.4618
G01 X6.3310 Y15.4569
G01 X6.3535 Y15.4532
G01 X6.3727 Y15.4511
G01 X6.4000 Y15.4500
G01 X8.4000 Y15.4500
G01 X8.4273 Y15.4511
G01 X8.4465 Y15.4532
G01 X8.4694 Y15.4570
G01 X8.4955 Y15.4633
G01 X8.5073 Y15.4669
G01 X8.5225 Y15.4722
G01 X8.5335 Y15.4764
G01 X8.5452 Y15.4816
G01 X8.5602 Y15.4888
G01 X8.5710 Y15.4946
G01 X8.5953 Y15.5095
G01 X8.6045 Y15.5161
G01 X8.6213 Y15.5288
G01 X8.6386 Y15.5441
G01 X8.6475 Y15.5525
G01 X8.6559 Y15.5614
G01 X8.6669 Y15.5736
G01 X8.6747 Y15.5832
G01 X8.6905 Y15.6047
G01 X8.7054 Y15.6290
G01 X8.7142 Y15.6460
G01 X8.7210 Y15.6607
G01 X8.7257 Y15.6720
G01 X8.7350 Y15.6987
G01 X8.7419 Y15.7252
G01 X8.7443 Y15.7372
G01 X8.7478 Y15.7605
G01 X8.7492 Y15.7779
G01 X8.7500 Y15.8000
G01 X8.7500 Y16.7998
G01 X10.2998 Y16.7998
G01 X10.2998 Y8.7900
G01 X7.4598 Y5.9500
G01 X7.0500 Y5.9500
G01 X7.0377 Y5.9497
G01 X7.0216 Y5.9488
G01 X7.0094 Y5.9476
G01 X6.9810 Y5.9431
G01 X6.9602 Y5.9382
G01 X6.9481 Y5.9348
G01 X6.9220 Y5.9257
G01 X6.9048 Y5.9184
G01 X6.8857 Y5.9090
G01 X6.8603 Y5.8941
G01 X6.8455 Y5.8839
G01 X6.8276 Y5.8703
G01 X6.8069 Y5.8518
G01 X6.7941 Y5.8386
G01 X6.7797 Y5.8224
G01 X6.7627 Y5.7999
G01 X6.7524 Y5.7841
G01 X6.7410 Y5.7643
G01 X6.7290 Y5.7393
G01 X6.7222 Y5.7225
G01 X6.7152 Y5.7019
G01 X6.7081 Y5.6746
G01 X6.7046 Y5.6562
G01 X6.7024 Y5.6406
G01 X6.7012 Y5.6284
G01 X6.7000 Y5.6000
G01 X6.7000 Y4.3955
G01 X6.7017 Y4.3653
G01 X6.7046 Y4.3438
G01 X6.7081 Y4.3254
G01 X6.7152 Y4.2981
G01 X6.7243 Y4.2720
G01 X6.7290 Y4.2607
G01 X6.7358 Y4.2460
G01 X6.7441 Y4.2300
G01 X6.7598 Y4.2043
G01 X6.7598 Y2.9734
G01 X6.7123 Y2.9382
G01 X6.6896 Y2.9199
G01 X6.6239 Y2.8604
G01 X6.6081 Y2.8450
G01 X6.5996 Y2.8361
G01 X6.5436 Y2.7743
G01 X6.5356 Y2.7650
G01 X6.5218 Y2.7477
G01 X6.4721 Y2.6807
G01 X6.4596 Y2.6625
G01 X6.4530 Y2.6522
G01 X6.4102 Y2.5806
G01 X6.4041 Y2.5699
G01 X6.3940 Y2.5503
G01 X6.3583 Y2.4749
G01 X6.3533 Y2.4637
G01 X6.3452 Y2.4432
G01 X6.3171 Y2.3647
G01 X6.3089 Y2.3385
G01 X6.2868 Y2.2509
G01 X6.2841 Y2.2389
G01 X6.2801 Y2.2172
G01 X6.2679 Y2.1347
G01 X6.2654 Y2.1127
G01 X6.2645 Y2.1005
G01 X6.2602 Y2.0095
G01 X6.2604 Y1.9828
G01 X6.2645 Y1.8995
G01 X6.2672 Y1.8701
G01 X6.2801 Y1.7828
G01 X6.2822 Y1.7707
G01 X6.2868 Y1.7491
G01 X6.3071 Y1.6682
G01 X6.3104 Y1.6564
G01 X6.3171 Y1.6353
G01 X6.3452 Y1.5568
G01 X6.3496 Y1.5454
G01 X6.3583 Y1.5251
G01 X6.3940 Y1.4497
G01 X6.3995 Y1.4387
G01 X6.4102 Y1.4194
G01 X6.4530 Y1.3478
G01 X6.4596 Y1.3375
G01 X6.4721 Y1.3193
G01 X6.5218 Y1.2523
G01 X6.5294 Y1.2426
G01 X6.5436 Y1.2257
G01 X6.5996 Y1.1639
G01 X6.6150 Y1.1481
G01 X6.6239 Y1.1396
G01 X6.6857 Y1.0836
G01 X6.7026 Y1.0694
G01 X6.7123 Y1.0618
G01 X6.7793 Y1.0121
G01 X6.7975 Y0.9996
G01 X6.8078 Y0.9930
G01 X6.8794 Y0.9502
G01 X6.9057 Y0.9359
G01 X6.9851 Y0.8983
G01 X7.0054 Y0.8896
G01 X7.0168 Y0.8852
G01 X7.0953 Y0.8571
G01 X7.1219 Y0.8488
G01 X7.2091 Y0.8268
G01 X7.2307 Y0.8222
G01 X7.2428 Y0.8201
G01 X7.3253 Y0.8079
G01 X7.3473 Y0.8054
G01 X7.3595 Y0.8045
G01 X7.4494 Y0.8002
G01 X7.4772 Y0.8004
G01 X7.5605 Y0.8045
G01 X7.5825 Y0.8064
G01 X7.5947 Y0.8079
G01 X7.6772 Y0.8201
G01 X7.6893 Y0.8222
G01 X7.7109 Y0.8268
G01 X7.7981 Y0.8488
G01 X7.8202 Y0.8555
G01 X7.9032 Y0.8852
G01 X7.9146 Y0.8896
G01 X7.9349 Y0.8983
G01 X8.0103 Y0.9340
G01 X8.0299 Y0.9441
G01 X8.0406 Y0.9502
G01 X8.1165 Y0.9957
G01 X8.1407 Y1.0121
G01 X8.2077 Y1.0618
G01 X8.2250 Y1.0756
G01 X8.2343 Y1.0836
G01 X8.3010 Y1.1442
G01 X8.3204 Y1.1639
G01 X8.3764 Y1.2257
G01 X8.3906 Y1.2426
G01 X8.3982 Y1.2523
G01 X8.4480 Y1.3194
G01 X8.4549 Y1.3293
G01 X8.4670 Y1.3478
G01 X8.5098 Y1.4194
G01 X8.5205 Y1.4387
G01 X8.5260 Y1.4497
G01 X8.5617 Y1.5251
G01 X8.5704 Y1.5454
G01 X8.5748 Y1.5568
G01 X8.6040 Y1.6385
G01 X8.6129 Y1.6682
G01 X8.6332 Y1.7491
G01 X8.6378 Y1.7707
G01 X8.6399 Y1.7828
G01 X8.6521 Y1.8653
G01 X8.6536 Y1.8775
G01 X8.6555 Y1.8995
G01 X8.6596 Y1.9828
G01 X8.6597 Y2.0140
G01 X8.6555 Y2.1005
G01 X8.6546 Y2.1127
G01 X8.6521 Y2.1347
G01 X8.6399 Y2.2172
G01 X8.6359 Y2.2389
G01 X8.6332 Y2.2509
G01 X8.6129 Y2.3318
G01 X8.6096 Y2.3436
G01 X8.6040 Y2.3615
G01 X8.5748 Y2.4432
G01 X8.5649 Y2.4679
G01 X8.5235 Y2.5555
G01 X8.5098 Y2.5806
G01 X8.4670 Y2.6522
G01 X8.4549 Y2.6707
G01 X8.4479 Y2.6807
G01 X8.3944 Y2.7528
G01 X8.3764 Y2.7743
G01 X8.3204 Y2.8361
G01 X8.3004 Y2.8564
G01 X8.2343 Y2.9164
G01 X8.2250 Y2.9244
G01 X8.2117 Y2.9352
G01 X8.1619 Y2.9722
G01 X8.1604 Y4.1204
G01 X8.1770 Y4.1336
G01 X8.1931 Y4.1482
G01 X8.2018 Y4.1569
G01 X8.2165 Y4.1731
G01 X8.2243 Y4.1826
G01 X8.2373 Y4.2001
G01 X8.2441 Y4.2103
G01 X8.2590 Y4.2357
G01 X8.2684 Y4.2548
G01 X8.2736 Y4.2665
G01 X8.2811 Y4.2867
G01 X8.2848 Y4.2981
G01 X8.2882 Y4.3102
G01 X8.2931 Y4.3310
G01 X8.2968 Y4.3535
G01 X8.2985 Y4.3676
G01 X8.2997 Y4.3877
G01 X8.3000 Y4.4000
G01 X8.3000 Y4.8098
G01 X11.4994 Y8.0093
G01 X11.5300 Y8.0428
G01 X11.5380 Y8.0521
G01 X11.5488 Y8.0654
G01 X11.5723 Y8.0970
G01 X11.5889 Y8.1215
G01 X11.6144 Y8.1644
G01 X11.6222 Y8.1792
G01 X11.6399 Y8.2163
G01 X11.6515 Y8.2438
G01 X11.6664 Y8.2856
G01 X11.6713 Y8.3015
G01 X11.6746 Y8.3133
G01 X11.6845 Y8.3532
G01 X11.6897 Y8.3803
G01 X11.6960 Y8.4244
G01 X11.6981 Y8.4485
G01 X11.6998 Y8.4831
G01 X11.7002 Y8.5000
G01 X11.7002 Y17.5000
G01 X11.6998 Y17.5172
G01 X11.6972 Y17.5637
G01 X11.6947 Y17.5857
G01 X11.6885 Y17.6269
G01 X11.6840 Y17.6488
G01 X11.6731 Y17.6926
G01 X11.6655 Y17.7171
G01 X11.6531 Y17.7519
G01 X11.6486 Y17.7634
G01 X11.6412 Y17.7809
G01 X11.6197 Y17.8257
G01 X11.6118 Y17.8403
G01 X11.5914 Y17.8745
G01 X11.5760 Y17.8980
G01 X11.5443 Y17.9403
G01 X11.5306 Y17.9565
G01 X11.5069 Y17.9827
G01 X11.4872 Y18.0028
G01 X11.4479 Y18.0380
G01 X11.4355 Y18.0481
G01 X11.4030 Y18.0723
G01 X11.3797 Y18.0881
G01 X11.3343 Y18.1151
G01 X11.3196 Y18.1228
G01 X11.2815 Y18.1409
G01 X11.2634 Y18.1486
G01 X11.2519 Y18.1531
G01 X11.2138 Y18.1666
G01 X11.1985 Y18.1713
G01 X11.1867 Y18.1746
G01 X11.1468 Y18.1845
G01 X11.1197 Y18.1897
G01 X11.0844 Y18.1949
G01 X11.0637 Y18.1972
G01 X11.0172 Y18.1998
G01 X11.0000 Y18.2002
G01 X8.7500 Y18.2002
G01 X8.7500 Y19.8000
G01 X8.7489 Y19.8275
G01 X8.7468 Y19.8465
G01 X8.7430 Y19.8694
G01 X8.7354 Y19.9001
G01 X8.7311 Y19.9133
G01 X8.7254 Y19.9288
G01 X8.7184 Y19.9452
G01 X8.7121 Y19.9583
G01 X8.7064 Y19.9691
G01 X8.6905 Y19.9953
G01 X8.6738 Y20.0180
G01 X8.6660 Y20.0274
G01 X8.6559 Y20.0386
G01 X8.6424 Y20.0525
G01 X8.6271 Y20.0663
G01 X8.6185 Y20.0734
G01 X8.6045 Y20.0839
G01 X8.5921 Y20.0925
G01 X8.5710 Y20.1054
G01 X8.5602 Y20.1112
G01 X8.5452 Y20.1184
G01 X8.5275 Y20.1259
G01 X8.5013 Y20.1350
G01 X8.4898 Y20.1382
G01 X8.4701 Y20.1429
G01 X8.4562 Y20.1454
G01 X8.4369 Y20.1480
G01 X8.4221 Y20.1492
G01 X8.4000 Y20.1500
G01 X6.4000 Y20.1500
G01 X6.3705 Y20.1487
G01 X6.3535 Y20.1468
G01 X6.3301 Y20.1430
G01 X6.3102 Y20.1382
G01 X6.2924 Y20.1330
G01 X6.2725 Y20.1259
G01 X6.2548 Y20.1184
G01 X6.2347 Y20.1085
G01 X6.2119 Y20.0951
G01 X6.2011 Y20.0880
G01 X6.1804 Y20.0725
G01 X6.1614 Y20.0559
G01 X6.1503 Y20.0452
G01 X6.1340 Y20.0274
G01 X6.1262 Y20.0180
G01 X6.1095 Y19.9953
G01 X6.1000 Y19.9800
G01 X6.0905 Y19.9953
G01 X6.0738 Y20.0180
G01 X6.0660 Y20.0274
G01 X6.0497 Y20.0452
G01 X6.0386 Y20.0559
G01 X6.0196 Y20.0725
G01 X5.9984 Y20.0883
G01 X5.9881 Y20.0951
G01 X5.9688 Y20.1066
G01 X5.9587 Y20.1119
G01 X5.9452 Y20.1184
G01 X5.9295 Y20.1251
G01 X5.9076 Y20.1330
G01 X5.8898 Y20.1382
G01 X5.8699 Y20.1430
G01 X5.8465 Y20.1468
G01 X5.8295 Y20.1487
G01 X5.8000 Y20.1500
G01 X3.7939 Y20.1499
G01 X3.7705 Y20.1487
G01 X3.7535 Y20.1468
G01 X3.7300 Y20.1429
G01 X3.7045 Y20.1367
G01 X3.6867 Y20.1311
G01 X3.6676 Y20.1240
G01 X3.6457 Y20.1141
G01 X3.6295 Y20.1056
G01 X3.6068 Y20.0919
G01 X3.5876 Y20.0781
G01 X3.5727 Y20.0661
G01 X3.5539 Y20.0489
G01 X3.5375 Y20.0313
G01 X3.5265 Y20.0183
G01 X3.5122 Y19.9991
G01 X3.5000 Y19.9800
G01 X3.4878 Y19.9991
G01 X3.4735 Y20.0183
G01 X3.4657 Y20.0278
G01 X3.4497 Y20.0452
G01 X3.4313 Y20.0625
G01 X3.4191 Y20.0730
G01 X3.3986 Y20.0882
G01 X3.3884 Y20.0949
G01 X3.3643 Y20.1090
G01 X3.3452 Y20.1184
G01 X3.3273 Y20.1260
G01 X3.3073 Y20.1331
G01 X3.2898 Y20.1382
G01 X3.2700 Y20.1429
G01 X3.2465 Y20.1468
G01 X3.2295 Y20.1487
G01 X3.2000 Y20.1500
G01 X1.1939 Y20.1499
G01 X1.1779 Y20.1492
G01 X1.1631 Y20.1480
G01 X1.1350 Y20.1439
G01 X1.1248 Y20.1418
G01 X1.1044 Y20.1367
G01 X1.0926 Y20.1331
G01 X1.0775 Y20.1278
G01 X1.0676 Y20.1240
G01 X1.0548 Y20.1184
G01 X1.0400 Y20.1113
G01 X1.0294 Y20.1056
G01 X1.0071 Y20.0920
G01 X0.9955 Y20.0839
G01 X0.9804 Y20.0725
G01 X0.9725 Y20.0659
G01 X0.9559 Y20.0508
G01 X0.9473 Y20.0421
G01 X0.9375 Y20.0313
G01 X0.9306 Y20.0235
G01 X0.9219 Y20.0124
G01 X0.9125 Y19.9995
G01 X0.9057 Y19.9893
G01 X0.8974 Y19.9757
G01 X0.8900 Y19.9625
G01 X0.8769 Y19.9346
G01 X0.8668 Y19.9069
G01 X0.8632 Y19.8952
G01 X0.8594 Y19.8803
G00 X0.8594 Y19.8803
G01 F40.00
G01 Z-0.0950
G01 F80.00
G01 X0.8632 Y19.8952
G01 X0.8668 Y19.9069
G01 X0.8769 Y19.9346
G01 X0.8900 Y19.9625
G01 X0.8974 Y19.9757
G01 X0.9057 Y19.9893
G01 X0.9125 Y19.9995
G01 X0.9219 Y20.0124
G01 X0.9306 Y20.0235
G01 X0.9375 Y20.0313
G01 X0.9473 Y20.0421
G01 X0.9559 Y20.0508
G01 X0.9725 Y20.0659
G01 X0.9804 Y20.0725
G01 X0.9955 Y20.0839
G01 X1.0071 Y20.0920
G01 X1.0294 Y20.1056
G01 X1.0400 Y20.1113
G01 X1.0548 Y20.1184
G01 X1.0676 Y20.1240
G01 X1.0775 Y20.1278
G01 X1.0926 Y20.1331
G01 X1.1044 Y20.1367
G01 X1.1248 Y20.1418
G01 X1.1350 Y20.1439
G01 X1.1631 Y20.1480
G01 X1.1779 Y20.1492
G01 X1.1939 Y20.1499
G01 X3.2000 Y20.1500
G01 X3.2295 Y20.1487
G01 X3.2465 Y20.1468
G01 X3.2700 Y20.1429
G01 X3.2898 Y20.1382
G01 X3.3073 Y20.1331
G01 X3.3273 Y20.1260
G01 X3.3452 Y20.1184
G01 X3.3643 Y20.1090
G01 X3.3884 Y20.0949
G01 X3.3986 Y20.0882
G01 X3.4191 Y20.0730
G01 X3.4313 Y20.0625
G01 X3.4497 Y20.0452
G01 X3.4657 Y20.0278
G01 X3.4735 Y20.0183
G01 X3.4878 Y19.9991
G01 X3.5000 Y19.9800
G01 X3.5122 Y19.9991
G01 X3.5265 Y20.0183
G01 X3.5375 Y20.0313
G01 X3.5539 Y20.0489
G01 X3.5727 Y20.0661
G01 X3.5876 Y20.0781
G01 X3.6068 Y20.0919
G01 X3.6295 Y20.1056
G01 X3.6457 Y20.1141
G01 X3.6676 Y20.1240
G01 X3.6867 Y20.1311
G01 X3.7045 Y20.1367
G01 X3.7300 Y20.1429
G01 X3.7535 Y20.1468
G01 X3.7705 Y20.1487
G01 X3.7939 Y20.1499
G01 X5.8000 Y20.1500
G01 X5.8295 Y20.1487
G01 X5.8465 Y20.1468
G01 X5.8699 Y20.1430
G01 X5.8898 Y20.1382
G01 X5.9076 Y20.1330
G01 X5.9295 Y20.1251
G01 X5.9452 Y20.1184
G01 X5.9587 Y20.1119
G01 X5.9688 Y20.1066
G01 X5.9881 Y20.0951
G01 X5.9984 Y20.0883
G01 X6.0196 Y20.0725
G01 X6.0386 Y20.0559
G01 X6.0497 Y20.0452
G01 X6.0660 Y20.0274
G01 X6.0738 Y20.0180
G01 X6.0905 Y19.9953
G01 X6.1000 Y19.9800
G01 X6.1095 Y19.9953
G01 X6.1262 Y20.0180
G01 X6.1340 Y20.0274
G01 X6.1503 Y20.0452
G01 X6.1614 Y20.0559
G01 X6.1804 Y20.0725
G01 X6.2011 Y20.0880
G01 X6.2119 Y20.0951
G01 X6.2347 Y20.1085
G01 X6.2548 Y20.1184
G01 X6.2725 Y20.1259
G01 X6.2924 Y20.1330
G01 X6.3102 Y20.1382
G01 X6.3301 Y20.1430
G01 X6.3535 Y20.1468
G01 X6.3705 Y20.1487
G01 X6.4000 Y20.1500
G01 X8.4000 Y20.1500
G01 X8.4221 Y20.1492
G01 X8.4369 Y20.1480
G01 X8.4562 Y20.1454
G01 X8.4701 Y20.1429
G01 X8.4898 Y20.1382
G01 X8.5013 Y20.1350
G01 X8.5275 Y20.1259
G01 X8.5452 Y20.1184
G01 X8.5602 Y20.1112
G01 X8.5710 Y20.1054
G01 X8.5921 Y20.0925
G01 X8.6045 Y20.0839
G01 X8.6185 Y20.0734
G01 X8.6271 Y20.0663
G01 X8.6424 Y20.0525
G01 X8.6559 Y20.0386
G01 X8.6660 Y20.0274
G01 X8.6738 Y20.0180
G01 X8.6905 Y19.9953
G01 X8.7064 Y19.9691
G01 X8.7121 Y19.9583
G01 X8.7184 Y19.9452
G01 X8.7254 Y19.9288
G01 X8.7311 Y19.9133
G01 X8.7354 Y19.9001
G01 X8.7430 Y19.8694
G01 X8.7468 Y19.8465
G01 X8.7489 Y19.8275
G01 X8.7500 Y19.8000
G01 X8.7500 Y18.2002
G01 X11.0000 Y18.2002
G01 X11.0172 Y18.1998
G01 X11.0637 Y18.1972
G01 X11.0844 Y18.1949
G01 X11.1197 Y18.1897
G01 X11.1468 Y18.1845
G01 X11.1867 Y18.1746
G01 X11.1985 Y18.1713
G01 X11.2138 Y18.1666
G01 X11.2519 Y18.1531
G01 X11.2634 Y18.1486
G01 X11.2815 Y18.1409
G01 X11.3196 Y18.1228
G01 X11.3343 Y18.1151
G01 X11.3797 Y18.0881
G01 X11.4030 Y18.0723
G01 X11.4355 Y18.0481
G01 X11.4479 Y18.0380
G01 X11.4872 Y18.0028
G01 X11.5069 Y17.9827
G01 X11.5306 Y17.9565
G01 X11.5443 Y17.9403
G01 X11.5760 Y17.8980
G01 X11.5914 Y17.8745
G01 X11.6118 Y17.8403
G01 X11.6197 Y17.8257
G01 X11.6412 Y17.7809
G01 X11.6486 Y17.7634
G01 X11.6531 Y17.7519
G01 X11.6655 Y17.7171
G01 X11.6731 Y17.6926
G01 X11.6840 Y17.6488
G01 X11.6885 Y17.6269
G01 X11.6947 Y17.5857
G01 X11.6972 Y17.5637
G01 X11.6998 Y17.5172
G01 X11.7002 Y17.5000
G01 X11.7002 Y8.5000
G01 X11.6998 Y8.4831
G01 X11.6981 Y8.4485
G01 X11.6960 Y8.4244
G01 X11.6897 Y8.3803
G01 X11.6845 Y8.3532
G01 X11.6746 Y8.3133
G01 X11.6713 Y8.3015
G01 X11.6664 Y8.2856
G01 X11.6515 Y8.2438
G01 X11.6399 Y8.2163
G01 X11.6222 Y8.1792
G01 X11.6144 Y8.1644
G01 X11.5889 Y8.1215
G01 X11.5723 Y8.0970
G01 X11.5488 Y8.0654
G01 X11.5380 Y8.0521
G01 X11.5300 Y8.0428
G01 X11.4994 Y8.0093
G01 X8.3000 Y4.8098
G01 X8.3000 Y4.4000
G01 X8.2997 Y4.3877
G01 X8.2985 Y4.3676
G01 X8.2968 Y4.3535
G01 X8.2931 Y4.3310
G01 X8.2882 Y4.3102
G01 X8.2848 Y4.2981
G01 X8.2811 Y4.2867
G01 X8.2736 Y4.2665
G01 X8.2684 Y4.2548
G01 X8.2590 Y4.2357
G01 X8.2441 Y4.2103
G01 X8.2373 Y4.2001
G01 X8.2243 Y4.1826
G01 X8.2165 Y4.1731
G01 X8.2018 Y4.1569
G01 X8.1931 Y4.1482
G01 X8.1770 Y4.1336
G01 X8.1604 Y4.1204
G01 X8.1619 Y2.9722
G01 X8.2117 Y2.9352
G01 X8.2250 Y2.9244
G01 X8.2343 Y2.9164
G01 X8.3004 Y2.8564
G01 X8.3204 Y2.8361
G01 X8.3764 Y2.7743
G01 X8.3944 Y2.7528
G01 X8.4479 Y2.6807
G01 X8.4549 Y2.6707
G01 X8.4670 Y2.6522
G01 X8.5098 Y2.5806
G01 X8.5235 Y2.5555
G01 X8.5649 Y2.4679
G01 X8.5748 Y2.4432
G01 X8.6040 Y2.3615
G01 X8.6096 Y2.3436
G01 X8.6129 Y2.3318
G01 X8.6332 Y2.2509
G01 X8.6359 Y2.2389
G01 X8.6399 Y2.2172
G01 X8.6521 Y2.1347
G01 X8.6546 Y2.1127
G01 X8.6555 Y2.1005
G01 X8.6597 Y2.0140
G01 X8.6596 Y1.9828
G01 X8.6555 Y1.8995
G01 X8.6536 Y1.8775
G01 X8.6521 Y1.8653
G01 X8.6399 Y1.7828
G01 X8.6378 Y1.7707
G01 X8.6332 Y1.7491
G01 X8.6129 Y1.6682
G01 X8.6040 Y1.6385
G01 X8.5748 Y1.5568
G01 X8.5704 Y1.5454
G01 X8.5617 Y1.5251
G01 X8.5260 Y1.4497
G01 X8.5205 Y1.4387
G01 X8.5098 Y1.4194
G01 X8.4670 Y1.3478
G01 X8.4549 Y1.3293
G01 X8.4480 Y1.3194
G01 X8.3982 Y1.2523
G01 X8.3906 Y1.2426
G01 X8.3764 Y1.2257
G01 X8.3204 Y1.1639
G01 X8.3010 Y1.1442
G01 X8.2343 Y1.0836
G01 X8.2250 Y1.0756
G01 X8.2077 Y1.0618
G01 X8.1407 Y1.0121
G01 X8.1165 Y0.9957
G01 X8.0406 Y0.9502
G01 X8.0299 Y0.9441
G01 X8.0103 Y0.9340
G01 X7.9349 Y0.8983
G01 X7.9146 Y0.8896
G01 X7.9032 Y0.8852
G01 X7.8202 Y0.8555
G01 X7.7981 Y0.8488
G01 X7.7109 Y0.8268
G01 X7.6893 Y0.8222
G01 X7.6772 Y0.8201
G01 X7.5947 Y0.8079
G01 X7.5825 Y0.8064
G01 X7.5605 Y0.8045
G01 X7.4772 Y0.8004
G01 X7.4494 Y0.8002
G01 X7.3595 Y0.8045
G01 X7.3473 Y0.8054
G01 X7.3253 Y0.8079
G01 X7.2428 Y0.8201
G01 X7.2307 Y0.8222
G01 X7.2091 Y0.8268
G01 X7.1219 Y0.8488
G01 X7.0953 Y0.8571
G01 X7.0168 Y0.8852
G01 X7.0054 Y0.8896
G01 X6.9851 Y0.8983
G01 X6.9057 Y0.9359
G01 X6.8794 Y0.9502
G01 X6.8078 Y0.9930
G01 X6.7975 Y0.9996
G01 X6.7793 Y1.0121
G01 X6.7123 Y1.0618
G01 X6.7026 Y1.0694
G01 X6.6857 Y1.0836
G01 X6.6239 Y1.1396
G01 X6.6150 Y1.1481
G01 X6.5996 Y1.1639
G01 X6.5436 Y1.2257
G01 X6.5294 Y1.2426
G01 X6.5218 Y1.2523
G01 X6.4721 Y1.3193
G01 X6.4596 Y1.3375
G01 X6.4530 Y1.3478
G01 X6.4102 Y1.4194
G01 X6.3995 Y1.4387
G01 X6.3940 Y1.4497
G01 X6.3583 Y1.5251
G01 X6.3496 Y1.5454
G01 X6.3452 Y1.5568
G01 X6.3171 Y1.6353
G01 X6.3104 Y1.6564
G01 X6.3071 Y1.6682
G01 X6.2868 Y1.7491
G01 X6.2822 Y1.7707
G01 X6.2801 Y1.7828
G01 X6.2672 Y1.8701
G01 X6.2645 Y1.8995
G01 X6.2604 Y1.9828
G01 X6.2602 Y2.0095
G01 X6.2645 Y2.1005
G01 X6.2654 Y2.1127
G01 X6.2679 Y2.1347
G01 X6.2801 Y2.2172
G01 X6.2841 Y2.2389
G01 X6.2868 Y2.2509
G01 X6.3089 Y2.3385
G01 X6.3171 Y2.3647
G01 X6.3452 Y2.4432
G01 X6.3533 Y2.4637
G01 X6.3583 Y2.4749
G01 X6.3940 Y2.5503
G01 X6.4041 Y2.5699
G01 X6.4102 Y2.5806
G01 X6.4530 Y2.6522
G01 X6.4596 Y2.6625
G01 X6.4721 Y2.6807
G01 X6.5218 Y2.7477
G01 X6.5356 Y2.7650
G01 X6.5436 Y2.7743
G01 X6.5996 Y2.8361
G01 X6.6081 Y2.8450
G01 X6.6239 Y2.8604
G01 X6.6896 Y2.9199
G01 X6.7123 Y2.9382
G01 X6.7598 Y2.9734
G01 X6.7598 Y4.2043
G01 X6.7441 Y4.2300
G01 X6.7358 Y4.2460
G01 X6.7290 Y4.2607
G01 X6.7243 Y4.2720
G01 X6.7152 Y4.2981
G01 X6.7081 Y4.3254
G01 X6.7046 Y4.3438
G01 X6.7017 Y4.3653
G01 X6.7000 Y4.3955
G01 X6.7000 Y5.6000
G01 X6.7012 Y5.6284
G01 X6.7024 Y5.6406
G01 X6.7046 Y5.6562
G01 X6.7081 Y5.6746
G01 X6.7152 Y5.7019
G01 X6.7222 Y5.7225
G01 X6.7290 Y5.7393
G01 X6.7410 Y5.7643
G01 X6.7524 Y5.7841
G01 X6.7627 Y5.7999
G01 X6.7797 Y5.8224
G01 X6.7941 Y5.8386
G01 X6.8069 Y5.8518
G01 X6.8276 Y5.8703
G01 X6.8455 Y5.8839
G01 X6.8603 Y5.8941
G01 X6.8857 Y5.9090
G01 X6.9048 Y5.9184
G01 X6.9220 Y5.9257
G01 X6.9481 Y5.9348
G01 X6.9602 Y5.9382
G01 X6.9810 Y5.9431
G01 X7.0094 Y5.9476
G01 X7.0216 Y5.9488
G01 X7.0377 Y5.9497
G01 X7.0500 Y5.9500
G01 X7.4598 Y5.9500
G01 X10.2998 Y8.7900
G01 X10.2998 Y16.7998
G01 X8.7500 Y16.7998
G01 X8.7500 Y15.8000
G01 X8.7492 Y15.7779
G01 X8.7478 Y15.7605
G01 X8.7443 Y15.7372
G01 X8.7419 Y15.7252
G01 X8.7350 Y15.6987
G01 X8.7257 Y15.6720
G01 X8.7210 Y15.6607
G01 X8.7142 Y15.6460
G01 X8.7054 Y15.6290
G01 X8.6905 Y15.6047
G01 X8.6747 Y15.5832
G01 X8.6669 Y15.5736
G01 X8.6559 Y15.5614
G01 X8.6475 Y15.5525
G01 X8.6386 Y15.5441
G01 X8.6213 Y15.5288
G01 X8.6045 Y15.5161
G01 X8.5953 Y15.5095
G01 X8.5710 Y15.4946
G01 X8.5602 Y15.4888
G01 X8.5452 Y15.4816
G01 X8.5335 Y15.4764
G01 X8.5225 Y15.4722
G01 X8.5073 Y15.4669
G01 X8.4955 Y15.4633
G01 X8.4694 Y15.4570
G01 X8.4465 Y15.4532
G01 X8.4273 Y15.4511
G01 X8.4000 Y15.4500
G01 X6.4000 Y15.4500
G01 X6.3727 Y15.4511
G01 X6.3535 Y15.4532
G01 X6.3310 Y15.4569
G01 X6.3102 Y15.4618
G01 X6.2924 Y15.4670
G01 X6.2665 Y15.4764
G01 X6.2460 Y15.4858
G01 X6.2300 Y15.4941
G01 X6.2103 Y15.5059
G01 X6.1955 Y15.5161
G01 X6.1776 Y15.5297
G01 X6.1614 Y15.5441
G01 X6.1482 Y15.5569
G01 X6.1336 Y15.5730
G01 X6.1223 Y15.5871
G01 X6.1095 Y15.6047
G01 X6.1000 Y15.6200
G01 X6.0880 Y15.6012
G01 X6.0747 Y15.5832
G01 X6.0625 Y15.5687
G01 X6.0475 Y15.5525
G01 X6.0313 Y15.5375
G01 X6.0174 Y15.5257
G01 X5.9953 Y15.5095
G01 X5.9757 Y15.4974
G01 X5.9592 Y15.4883
G01 X5.9335 Y15.4764
G01 X5.9133 Y15.4689
G01 X5.8959 Y15.4634
G01 X5.8746 Y15.4581
G01 X5.8562 Y15.4546
G01 X5.8324 Y15.4515
G01 X5.8091 Y15.4502
G01 X3.8000 Y15.4500
G01 X3.7727 Y15.4511
G01 X3.7535 Y15.4532
G01 X3.7308 Y15.4569
G01 X3.7102 Y15.4618
G01 X3.6927 Y15.4669
G01 X3.6665 Y15.4764
G01 X3.6460 Y15.4858
G01 X3.6297 Y15.4942
G01 X3.6100 Y15.5061
G01 X3.5955 Y15.5161
G01 X3.5782 Y15.5293
G01 X3.5614 Y15.5441
G01 X3.5482 Y15.5569
G01 X3.5334 Y15.5733
G01 X3.5256 Y15.5828
G01 X3.5125 Y15.6005
G01 X3.5000 Y15.6200
G01 X3.4878 Y15.6009
G01 X3.4744 Y15.5828
G01 X3.4666 Y15.5733
G01 X3.4518 Y15.5569
G01 X3.4386 Y15.5441
G01 X3.4218 Y15.5293
G01 X3.4045 Y15.5161
G01 X3.3900 Y15.5061
G01 X3.3703 Y15.4942
G01 X3.3540 Y15.4858
G01 X3.3335 Y15.4764
G01 X3.3073 Y15.4669
G01 X3.2898 Y15.4618
G01 X3.2692 Y15.4569
G01 X3.2465 Y15.4532
G01 X3.2273 Y15.4511
G01 X3.2000 Y15.4500
G01 X1.2000 Y15.4500
G01 X1.1877 Y15.4503
G01 X1.1676 Y15.4515
G01 X1.1438 Y15.4546
G01 X1.1307 Y15.4569
G01 X1.1197 Y15.4594
G01 X1.1044 Y15.4633
G01 X1.0926 Y15.4669
G01 X1.0665 Y15.4764
G01 X1.0406 Y15.4885
G01 X1.0297 Y15.4942
G01 X1.0159 Y15.5024
G01 X0.9999 Y15.5128
G01 X0.9782 Y15.5293
G01 X0.9570 Y15.5481
G01 X0.9484 Y15.5568
G01 X0.9375 Y15.5687
G01 X0.9253 Y15.5832
G01 X0.9093 Y15.6051
G01 X0.8946 Y15.6290
G01 X0.8858 Y15.6460
G01 X0.8791 Y15.6604
G01 X0.8744 Y15.6718
G01 X0.8651 Y15.6982
G01 X0.8580 Y15.7257
G01 X0.8556 Y15.7377
G01 X0.8532 Y15.7535
G01 X0.8517 Y15.7659
G01 X0.8508 Y15.7779
G01 X0.8500 Y15.8000
G01 X0.8500 Y19.8000
G01 X0.8508 Y19.8221
G01 X0.8524 Y19.8405
G01 X0.8556 Y19.8620
G01 X0.8594 Y19.8803
G00 Z2.0000
G00 X3.1250 Y15.4500
G01 F40.00
G01 Z-0.0480
G01 F80.00
G01 X3.1250 Y12.5500
G01 X2.7000 Y12.5500
G01 X2.7000 Y15.4500
G01 X2.2750 Y15.4500
G01 X2.2750 Y12.5500
G01 X1.8500 Y12.5500
G01 X1.8500 Y15.4500
G01 X1.4250 Y15.4500
G01 X1.4250 Y12.5500
G00 X1.4250 Y12.5500
G01 F40.00
G01 Z-0.0950
G01 F80.00
G01 X1.4250 Y15.4500
G01 X1.8500 Y15.4500
G01 X1.8500 Y12.5500
G01 X2.2750 Y12.5500
G01 X2.2750 Y15.4500
G01 X2.7000 Y15.4500
G01 X2.7000 Y12.5500
G01 X3.1250 Y12.5500
G01 X3.1250 Y15.4500
G00 Z2.0000
G00 X1.0000 Y12.4872
G01 F40.00
G01 Z-0.0480
G01 F80.00
G01 X1.0000 Y15.5128
G01 X0.8974 Y12.3757
G01 X0.8887 Y12.3599
G01 X0.8766 Y12.3339
G01 X0.8689 Y12.3133
G01 X0.8634 Y12.2958
G01 X0.8567 Y12.2683
G01 X0.8532 Y12.2465
G01 X0.8512 Y12.2281
G01 X0.8501 Y12.2056
G01 X0.8500 Y8.2000
G01 X0.8512 Y8.1719
G01 X0.8524 Y8.1597
G01 X0.8546 Y8.1438
G01 X0.8580 Y8.1257
G01 X0.8651 Y8.0982
G01 X0.8744 Y8.0718
G01 X0.8791 Y8.0604
G01 X0.8858 Y8.0460
G01 X0.8946 Y8.0290
G01 X0.9093 Y8.0051
G01 X0.9253 Y7.9832
G01 X0.9332 Y7.9735
G01 X0.9441 Y7.9614
G01 X0.9570 Y7.9481
G01 X0.9782 Y7.9293
G01 X0.9999 Y7.9128
G01 X1.0104 Y7.9058
G01 X1.0243 Y7.8974
G01 X1.0406 Y7.8885
G01 X1.0665 Y7.8764
G01 X1.0926 Y7.8669
G01 X1.1044 Y7.8633
G01 X1.1197 Y7.8594
G01 X1.1307 Y7.8569
G01 X1.1438 Y7.8546
G01 X1.1605 Y7.8522
G01 X1.1727 Y7.8511
G01 X1.2000 Y7.8500
G01 X3.2000 Y7.8500
G01 X3.2273 Y7.8511
G01 X3.2465 Y7.8532
G01 X3.2692 Y7.8569
G01 X3.2898 Y7.8618
G01 X3.3073 Y7.8669
G01 X3.3335 Y7.8764
G01 X3.3540 Y7.8858
G01 X3.3703 Y7.8942
G01 X3.3900 Y7.9061
G01 X3.4045 Y7.9161
G01 X3.4218 Y7.9293
G01 X3.4386 Y7.9441
G01 X3.4518 Y7.9569
G01 X3.4666 Y7.9733
G01 X3.4744 Y7.9828
G01 X3.4878 Y8.0009
G01 X3.5000 Y8.0200
G01 X3.5125 Y8.0005
G01 X3.5256 Y7.9828
G01 X3.5334 Y7.9733
G01 X3.5482 Y7.9569
G01 X3.5569 Y7.9482
G01 X3.5734 Y7.9333
G01 X3.5829 Y7.9255
G01 X3.5998 Y7.9129
G01 X3.6100 Y7.9061
G01 X3.6297 Y7.8942
G01 X3.6406 Y7.8885
G01 X3.6607 Y7.8790
G01 X3.6720 Y7.8743
G01 X3.6927 Y7.8669
G01 X3.7045 Y7.8633
G01 X3.7253 Y7.8581
G01 X3.7438 Y7.8546
G01 X3.7676 Y7.8515
G01 X3.7909 Y7.8502
G01 X4.0998 Y7.8500
G01 X4.0998 Y2.8748
G01 X4.0796 Y2.8564
G01 X4.0636 Y2.8404
G01 X3.9990 Y2.7691
G01 X3.9818 Y2.7477
G01 X3.9321 Y2.6807
G01 X3.9174 Y2.6592
G01 X3.8702 Y2.5806
G01 X3.8641 Y2.5699
G01 X3.8540 Y2.5503
G01 X3.8183 Y2.4749
G01 X3.8096 Y2.4546
G01 X3.8052 Y2.4432
G01 X3.7746 Y2.3574
G01 X3.7671 Y2.3318
G01 X3.7468 Y2.2509
G01 X3.7422 Y2.2293
G01 X3.7401 Y2.2172
G01 X3.7272 Y2.1298
G01 X3.7245 Y2.1005
G01 X3.7204 Y2.0172
G01 X3.7201 Y1.9951
G01 X3.7204 Y1.9828
G01 X3.7245 Y1.8995
G01 X3.7272 Y1.8704
G01 X3.7411 Y1.7766
G01 X3.7468 Y1.7491
G01 X3.7671 Y1.6682
G01 X3.7704 Y1.6564
G01 X3.7771 Y1.6353
G01 X3.8052 Y1.5568
G01 X3.8133 Y1.5363
G01 X3.8183 Y1.5251
G01 X3.8540 Y1.4497
G01 X3.8641 Y1.4301
G01 X3.8702 Y1.4194
G01 X3.9130 Y1.3478
G01 X3.9251 Y1.3293
G01 X3.9321 Y1.3193
G01 X3.9856 Y1.2472
G01 X4.0036 Y1.2257
G01 X4.0596 Y1.1639
G01 X4.0750 Y1.1481
G01 X4.0839 Y1.1396
G01 X4.1457 Y1.0836
G01 X4.1626 Y1.0694
G01 X4.1723 Y1.0618
G01 X4.2393 Y1.0121
G01 X4.2493 Y1.0051
G01 X4.2678 Y0.9930
G01 X4.3394 Y0.9502
G01 X4.3501 Y0.9441
G01 X4.3697 Y0.9340
G01 X4.4451 Y0.8983
G01 X4.4654 Y0.8896
G01 X4.4768 Y0.8852
G01 X4.5553 Y0.8571
G01 X4.5764 Y0.8504
G01 X4.5882 Y0.8471
G01 X4.6691 Y0.8268
G01 X4.6907 Y0.8222
G01 X4.7028 Y0.8201
G01 X4.7853 Y0.8079
G01 X4.8073 Y0.8054
G01 X4.8195 Y0.8045
G01 X4.9094 Y0.8002
G01 X4.9372 Y0.8004
G01 X5.0205 Y0.8045
G01 X5.0425 Y0.8064
G01 X5.0547 Y0.8079
G01 X5.1372 Y0.8201
G01 X5.1493 Y0.8222
G01 X5.1709 Y0.8268
G01 X5.2581 Y0.8488
G01 X5.2847 Y0.8571
G01 X5.3687 Y0.8872
G01 X5.3906 Y0.8963
G01 X5.4703 Y0.9340
G01 X5.4813 Y0.9395
G01 X5.5006 Y0.9502
G01 X5.5722 Y0.9930
G01 X5.5907 Y1.0051
G01 X5.6007 Y1.0121
G01 X5.6677 Y1.0618
G01 X5.6774 Y1.0694
G01 X5.6943 Y1.0836
G01 X5.7561 Y1.1396
G01 X5.7719 Y1.1550
G01 X5.7804 Y1.1639
G01 X5.8364 Y1.2257
G01 X5.8506 Y1.2426
G01 X5.8582 Y1.2523
G01 X5.9080 Y1.3194
G01 X5.9149 Y1.3293
G01 X5.9270 Y1.3478
G01 X5.9698 Y1.4194
G01 X5.9805 Y1.4387
G01 X5.9860 Y1.4497
G01 X6.0217 Y1.5251
G01 X6.0304 Y1.5454
G01 X6.0348 Y1.5568
G01 X6.0629 Y1.6353
G01 X6.0668 Y1.6470
G01 X6.0729 Y1.6682
G01 X6.0932 Y1.7491
G01 X6.0978 Y1.7707
G01 X6.0999 Y1.7828
G01 X6.1121 Y1.8653
G01 X6.1146 Y1.8873
G01 X6.1155 Y1.8995
G01 X6.1198 Y1.9906
G01 X6.1196 Y2.0172
G01 X6.1155 Y2.1005
G01 X6.1128 Y2.1300
G01 X6.0999 Y2.2172
G01 X6.0978 Y2.2293
G01 X6.0932 Y2.2509
G01 X6.0729 Y2.3318
G01 X6.0696 Y2.3436
G01 X6.0629 Y2.3647
G01 X6.0348 Y2.4432
G01 X6.0304 Y2.4546
G01 X6.0217 Y2.4749
G01 X5.9860 Y2.5503
G01 X5.9759 Y2.5699
G01 X5.9698 Y2.5806
G01 X5.9270 Y2.6522
G01 X5.9204 Y2.6625
G01 X5.9079 Y2.6807
G01 X5.8582 Y2.7477
G01 X5.8444 Y2.7650
G01 X5.8364 Y2.7743
G01 X5.7804 Y2.8361
G01 X5.7650 Y2.8519
G01 X5.7561 Y2.8604
G01 X5.6904 Y2.9199
G01 X5.6677 Y2.9382
G01 X5.6007 Y2.9879
G01 X5.5825 Y3.0004
G01 X5.5722 Y3.0070
G01 X5.5002 Y3.0501
G01 X5.5002 Y7.8500
G01 X5.8091 Y7.8502
G01 X5.8324 Y7.8515
G01 X5.8562 Y7.8546
G01 X5.8746 Y7.8581
G01 X5.8959 Y7.8634
G01 X5.9076 Y7.8670
G01 X5.9280 Y7.8743
G01 X5.9393 Y7.8790
G01 X5.9592 Y7.8883
G01 X5.9700 Y7.8941
G01 X5.9897 Y7.9059
G01 X5.9999 Y7.9127
G01 X6.0174 Y7.9257
G01 X6.0269 Y7.9335
G01 X6.0431 Y7.9482
G01 X6.0518 Y7.9569
G01 X6.0669 Y7.9736
G01 X6.0747 Y7.9832
G01 X6.0880 Y8.0012
G01 X6.1000 Y8.0200
G01 X6.1095 Y8.0047
G01 X6.1261 Y7.9822
G01 X6.1336 Y7.9730
G01 X6.1441 Y7.9614
G01 X6.1569 Y7.9482
G01 X6.1776 Y7.9297
G01 X6.1955 Y7.9161
G01 X6.2103 Y7.9059
G01 X6.2300 Y7.8941
G01 X6.2460 Y7.8858
G01 X6.2665 Y7.8764
G01 X6.2924 Y7.8670
G01 X6.3102 Y7.8618
G01 X6.3310 Y7.8569
G01 X6.3605 Y7.8522
G01 X6.3779 Y7.8508
G01 X6.4000 Y7.8500
G01 X8.4000 Y7.8500
G01 X8.4273 Y7.8511
G01 X8.4395 Y7.8522
G01 X8.4628 Y7.8557
G01 X8.4803 Y7.8594
G01 X8.5013 Y7.8650
G01 X8.5133 Y7.8689
G01 X8.5335 Y7.8764
G01 X8.5540 Y7.8858
G01 X8.5710 Y7.8946
G01 X8.5897 Y7.9059
G01 X8.6045 Y7.9161
G01 X8.6213 Y7.9288
G01 X8.6386 Y7.9441
G01 X8.6518 Y7.9569
G01 X8.6669 Y7.9736
G01 X8.6747 Y7.9832
G01 X8.6873 Y8.0001
G01 X8.6941 Y8.0103
G01 X8.7026 Y8.0243
G01 X8.7080 Y8.0338
G01 X8.7142 Y8.0460
G01 X8.7210 Y8.0607
G01 X8.7257 Y8.0720
G01 X8.7350 Y8.0987
G01 X8.7382 Y8.1102
G01 X8.7430 Y8.1306
G01 X8.7468 Y8.1535
G01 X8.7489 Y8.1727
G01 X8.7500 Y8.2000
G01 X8.7500 Y12.2000
G01 X8.7497 Y12.2123
G01 X8.7485 Y12.2324
G01 X8.7468 Y12.2465
G01 X8.7443 Y12.2628
G01 X8.7419 Y12.2748
G01 X8.7367 Y12.2955
G01 X8.7331 Y12.3073
G01 X8.7257 Y12.3280
G01 X8.7210 Y12.3393
G01 X8.7142 Y12.3540
G01 X8.7080 Y12.3662
G01 X8.7026 Y12.3757
G01 X8.6905 Y12.3953
G01 X8.6839 Y12.4045
G01 X8.6712 Y12.4213
G01 X8.6518 Y12.4431
G01 X8.6386 Y12.4559
G01 X8.6213 Y12.4712
G01 X8.6045 Y12.4839
G01 X8.5953 Y12.4905
G01 X8.5710 Y12.5054
G01 X8.5540 Y12.5142
G01 X8.5393 Y12.5210
G01 X8.5280 Y12.5257
G01 X8.5013 Y12.5350
G01 X8.4898 Y12.5382
G01 X8.4694 Y12.5430
G01 X8.4465 Y12.5468
G01 X8.4273 Y12.5489
G01 X8.4000 Y12.5500
G01 X6.4000 Y12.5500
G01 X6.3727 Y12.5489
G01 X6.3535 Y12.5468
G01 X6.3310 Y12.5431
G01 X6.3102 Y12.5382
G01 X6.2924 Y12.5330
G01 X6.2665 Y12.5236
G01 X6.2460 Y12.5142
G01 X6.2300 Y12.5059
G01 X6.2103 Y12.4941
G01 X6.1955 Y12.4839
G01 X6.1776 Y12.4703
G01 X6.1614 Y12.4559
G01 X6.1482 Y12.4431
G01 X6.1331 Y12.4264
G01 X6.1253 Y12.4168
G01 X6.1120 Y12.3988
G01 X6.1000 Y12.3800
G01 X6.0905 Y12.3953
G01 X6.0739 Y12.4178
G01 X6.0625 Y12.4313
G01 X6.0475 Y12.4475
G01 X6.0313 Y12.4625
G01 X6.0174 Y12.4743
G01 X5.9953 Y12.4905
G01 X5.9757 Y12.5026
G01 X5.9592 Y12.5117
G01 X5.9335 Y12.5236
G01 X5.9133 Y12.5311
G01 X5.8959 Y12.5366
G01 X5.8746 Y12.5419
G01 X5.8562 Y12.5454
G01 X5.8324 Y12.5485
G01 X5.8091 Y12.5498
G01 X3.8000 Y12.5500
G01 X3.7727 Y12.5489
G01 X3.7535 Y12.5468
G01 X3.7308 Y12.5431
G01 X3.7102 Y12.5382
G01 X3.6927 Y12.5331
G01 X3.6665 Y12.5236
G01 X3.6460 Y12.5142
G01 X3.6297 Y12.5058
G01 X3.6100 Y12.4939
G01 X3.5955 Y12.4839
G01 X3.5782 Y12.4707
G01 X3.5614 Y12.4559
G01 X3.5482 Y12.4431
G01 X3.5334 Y12.4267
G01 X3.5256 Y12.4172
G01 X3.5122 Y12.3991
G01 X3.5000 Y12.3800
G01 X3.4875 Y12.3995
G01 X3.4744 Y12.4172
G01 X3.4666 Y12.4267
G01 X3.4518 Y12.4431
G01 X3.4386 Y12.4559
G01 X3.4218 Y12.4707
G01 X3.4045 Y12.4839
G01 X3.3900 Y12.4939
G01 X3.3703 Y12.5058
G01 X3.3540 Y12.5142
G01 X3.3335 Y12.5236
G01 X3.3073 Y12.5331
G01 X3.2898 Y12.5382
G01 X3.2692 Y12.5431
G01 X3.2465 Y12.5468
G01 X3.2273 Y12.5489
G01 X3.2000 Y12.5500
G01 X1.1910 Y12.5498
G01 X1.1676 Y12.5485
G01 X1.1438 Y12.5454
G01 X1.1252 Y12.5419
G01 X1.1044 Y12.5367
G01 X1.0867 Y12.5311
G01 X1.0665 Y12.5236
G01 X1.0406 Y12.5115
G01 X1.0243 Y12.5026
G01 X1.0047 Y12.4905
G01 X0.9824 Y12.4741
G01 X0.9687 Y12.4625
G01 X0.9525 Y12.4475
G01 X0.9375 Y12.4313
G01 X0.9253 Y12.4168
G01 X0.9088 Y12.3941
G01 X0.8974 Y12.3757
G00 X0.8974 Y12.3757
G01 F40.00
G01 Z-0.0950
G01 F80.00
G01 X0.9088 Y12.3941
G01 X0.9253 Y12.4168
G01 X0.9375 Y12.4313
G01 X0.9525 Y12.4475
G01 X0.9687 Y12.4625
G01 X0.9824 Y12.4741
G01 X1.0047 Y12.4905
G01 X1.0243 Y12.5026
G01 X1.0406 Y12.5115
G01 X1.0665 Y12.5236
G01 X1.0867 Y12.5311
G01 X1.1044 Y12.5367
G01 X1.1252 Y12.5419
G01 X1.1438 Y12.5454
G01 X1.1676 Y12.5485
G01 X1.1910 Y12.5498
G01 X3.2000 Y12.5500
G01 X3.2273 Y12.5489
G01 X3.2465 Y12.5468
G01 X3.2692 Y12.5431
G01 X3.2898 Y12.5382
G01 X3.3073 Y12.5331
G01 X3.3335 Y12.5236
G01 X3.3540 Y12.5142
G01 X3.3703 Y12.5058
G01 X3.3900 Y12.4939
G01 X3.4045 Y12.4839
G01 X3.4218 Y12.4707
G01 X3.4386 Y12.4559
G01 X3.4518 Y12.4431
G01 X3.4666 Y12.4267
G01 X3.4744 Y12.4172
G01 X3.4875 Y12.3995
G01 X3.5000 Y12.3800
G01 X3.5122 Y12.3991
G01 X3.5256 Y12.4172
G01 X3.5334 Y12.4267
G01 X3.5482 Y12.4431
G01 X3.5614 Y12.4559
G01 X3.5782 Y12.4707
G01 X3.5955 Y12.4839
G01 X3.6100 Y12.4939
G01 X3.6297 Y12.5058
G01 X3.6460 Y12.5142
G01 X3.6665 Y12.5236
G01 X3.6927 Y12.5331
G01 X3.7102 Y12.5382
G01 X3.7308 Y12.5431
G01 X3.7535 Y12.5468
G01 X3.7727 Y12.5489
G01 X3.8000 Y12.5500
G01 X5.8091 Y12.5498
G01 X5.8324 Y12.5485
G01 X5.8562 Y12.5454
G01 X5.8746 Y12.5419
G01 X5.8959 Y12.5366
G01 X5.9133 Y12.5311
G01 X5.9335 Y12.5236
G01 X5.9592 Y12.5117
G01 X5.9757 Y12.5026
G01 X5.9953 Y12.4905
G01 X6.0174 Y12.4743
G01 X6.0313 Y12.4625
G01 X6.0475 Y12.4475
G01 X6.0625 Y12.4313
G01 X6.0739 Y12.4178
G01 X6.0905 Y12.3953
G01 X6.1000 Y12.3800
G01 X6.1120 Y12.3988
G01 X6.1253 Y12.4168
G01 X6.1331 Y12.4264
G01 X6.1482 Y12.4431
G01 X6.1614 Y12.4559
G01 X6.1776 Y12.4703
G01 X6.1955 Y12.4839
G01 X6.2103 Y12.4941
G01 X6.2300 Y12.5059
G01 X6.2460 Y12.5142
G01 X6.2665 Y12.5236
G01 X6.2924 Y12.5330
G01 X6.3102 Y12.5382
G01 X6.3310 Y12.5431
G01 X6.3535 Y12.5468
G01 X6.3727 Y12.5489
G01 X6.4000 Y12.5500
G01 X8.4000 Y12.5500
G01 X8.4273 Y12.5489
G01 X8.4465 Y12.5468
G01 X8.4694 Y12.5430
G01 X8.4898 Y12.5382
G01 X8.5013 Y12.5350
G01 X8.5280 Y12.5257
G01 X8.5393 Y12.5210
G01 X8.5540 Y12.5142
G01 X8.5710 Y12.5054
G01 X8.5953 Y12.4905
G01 X8.6045 Y12.4839
G01 X8.6213 Y12.4712
G01 X8.6386 Y12.4559
G01 X8.6518 Y12.4431
G01 X8.6712 Y12.4213
G01 X8.6839 Y12.4045
G01 X8.6905 Y12.3953
G01 X8.7026 Y12.3757
G01 X8.7080 Y12.3662
G01 X8.7142 Y12.3540
G01 X8.7210 Y12.3393
G01 X8.7257 Y12.3280
G01 X8.7331 Y12.3073
G01 X8.7367 Y12.2955
G01 X8.7419 Y12.2748
G01 X8.7443 Y12.2628
G01 X8.7468 Y12.2465
G01 X8.7485 Y12.2324
G01 X8.7497 Y12.2123
G01 X8.7500 Y12.2000
G01 X8.7500 Y8.2000
G01 X8.7489 Y8.1727
G01 X8.7468 Y8.1535
G01 X8.7430 Y8.1306
G01 X8.7382 Y8.1102
G01 X8.7350 Y8.0987
G01 X8.7257 Y8.0720
G01 X8.7210 Y8.0607
G01 X8.7142 Y8.0460
G01 X8.7080 Y8.0338
G01 X8.7026 Y8.0243
G01 X8.6941 Y8.0103
G01 X8.6873 Y8.0001
G01 X8.6747 Y7.9832
G01 X8.6669 Y7.9736
G01 X8.6518 Y7.9569
G01 X8.6386 Y7.9441
G01 X8.6213 Y7.9288
G01 X8.6045 Y7.9161
G01 X8.5897 Y7.9059
G01 X8.5710 Y7.8946
G01 X8.5540 Y7.8858
G01 X8.5335 Y7.8764
G01 X8.5133 Y7.8689
G01 X8.5013 Y7.8650
G01 X8.4803 Y7.8594
G01 X8.4628 Y7.8557
G01 X8.4395 Y7.8522
G01 X8.4273 Y7.8511
G01 X8.4000 Y7.8500
G01 X6.4000 Y7.8500
G01 X6.3779 Y7.8508
G01 X6.3605 Y7.8522
G01 X6.3310 Y7.8569
G01 X6.3102 Y7.8618
G01 X6.2924 Y7.8670
G01 X6.2665 Y7.8764
G01 X6.2460 Y7.8858
G01 X6.2300 Y7.8941
G01 X6.2103 Y7.9059
G01 X6.1955 Y7.9161
G01 X6.1776 Y7.9297
G01 X6.1569 Y7.9482
G01 X6.1441 Y7.9614
G01 X6.1336 Y7.9730
G01 X6.1261 Y7.9822
G01 X6.1095 Y8.0047
G01 X6.1000 Y8.0200
G01 X6.0880 Y8.0012
G01 X6.0747 Y7.9832
G01 X6.0669 Y7.9736
G01 X6.0518 Y7.9569
G01 X6.0431 Y7.9482
G01 X6.0269 Y7.9335
G01 X6.0174 Y7.9257
G01 X5.9999 Y7.9127
G01 X5.9897 Y7.9059
G01 X5.9700 Y7.8941
G01 X5.9592 Y7.8883
G01 X5.9393 Y7.8790
G01 X5.9280 Y7.8743
G01 X5.9076 Y7.8670
G01 X5.8959 Y7.8634
G01 X5.8746 Y7.8581
G01 X5.8562 Y7.8546
G01 X5.8324 Y7.8515
G01 X5.8091 Y7.8502
G01 X5.5002 Y7.8500
G01 X5.5002 Y3.0501
G01 X5.5722 Y3.0070
G01 X5.5825 Y3.0004
G01 X5.6007 Y2.9879
G01 X5.6677 Y2.9382
G01 X5.6904 Y2.9199
G01 X5.7561 Y2.8604
G01 X5.7650 Y2.8519
G01 X5.7804 Y2.8361
G01 X5.8364 Y2.7743
G01 X5.8444 Y2.7650
G01 X5.8582 Y2.7477
G01 X5.9079 Y2.6807
G01 X5.9204 Y2.6625
G01 X5.9270 Y2.6522
G01 X5.9698 Y2.5806
G01 X5.9759 Y2.5699
G01 X5.9860 Y2.5503
G01 X6.0217 Y2.4749
G01 X6.0304 Y2.4546
G01 X6.0348 Y2.4432
G01 X6.0629 Y2.3647
G01 X6.0696 Y2.3436
G01 X6.0729 Y2.3318
G01 X6.0932 Y2.2509
G01 X6.0978 Y2.2293
G01 X6.0999 Y2.2172
G01 X6.1128 Y2.1300
G01 X6.1155 Y2.1005
G01 X6.1196 Y2.0172
G01 X6.1198 Y1.9906
G01 X6.1155 Y1.8995
G01 X6.1146 Y1.8873
G01 X6.1121 Y1.8653
G01 X6.0999 Y1.7828
G01 X6.0978 Y1.7707
G01 X6.0932 Y1.7491
G01 X6.0729 Y1.6682
G01 X6.0668 Y1.6470
G01 X6.0629 Y1.6353
G01 X6.0348 Y1.5568
G01 X6.0304 Y1.5454
G01 X6.0217 Y1.5251
G01 X5.9860 Y1.4497
G01 X5.9805 Y1.4387
G01 X5.9698 Y1.4194
G01 X5.9270 Y1.3478
G01 X5.9149 Y1.3293
G01 X5.9080 Y1.3194
G01 X5.8582 Y1.2523
G01 X5.8506 Y1.2426
G01 X5.8364 Y1.2257
G01 X5.7804 Y1.1639
G01 X5.7719 Y1.1550
G01 X5.7561 Y1.1396
G01 X5.6943 Y1.0836
G01 X5.6774 Y1.0694
G01 X5.6677 Y1.0618
G01 X5.6007 Y1.0121
G01 X5.5907 Y1.0051
G01 X5.5722 Y0.9930
G01 X5.5006 Y0.9502
G01 X5.4813 Y0.9395
G01 X5.4703 Y0.9340
G01 X5.3906 Y0.8963
G01 X5.3687 Y0.8872
G01 X5.2847 Y0.8571
G01 X5.2581 Y0.8488
G01 X5.1709 Y0.8268
G01 X5.1493 Y0.8222
G01 X5.1372 Y0.8201
G01 X5.0547 Y0.8079
G01 X5.0425 Y0.8064
G01 X5.0205 Y0.8045
G01 X4.9372 Y0.8004
G01 X4.9094 Y0.8002
G01 X4.8195 Y0.8045
G01 X4.8073 Y0.8054
G01 X4.7853 Y0.8079
G01 X4.7028 Y0.8201
G01 X4.6907 Y0.8222
G01 X4.6691 Y0.8268
G01 X4.5882 Y0.8471
G01 X4.5764 Y0.8504
G01 X4.5553 Y0.8571
G01 X4.4768 Y0.8852
G01 X4.4654 Y0.8896
G01 X4.4451 Y0.8983
G01 X4.3697 Y0.9340
G01 X4.3501 Y0.9441
G01 X4.3394 Y0.9502
G01 X4.2678 Y0.9930
G01 X4.2493 Y1.0051
G01 X4.2393 Y1.0121
G01 X4.1723 Y1.0618
G01 X4.1626 Y1.0694
G01 X4.1457 Y1.0836
G01 X4.0839 Y1.1396
G01 X4.0750 Y1.1481
G01 X4.0596 Y1.1639
G01 X4.0036 Y1.2257
G01 X3.9856 Y1.2472
G01 X3.9321 Y1.3193
G01 X3.9251 Y1.3293
G01 X3.9130 Y1.3478
G01 X3.8702 Y1.4194
G01 X3.8641 Y1.4301
G01 X3.8540 Y1.4497
G01 X3.8183 Y1.5251
G01 X3.8133 Y1.5363
G01 X3.8052 Y1.5568
G01 X3.7771 Y1.6353
G01 X3.7704 Y1.6564
G01 X3.7671 Y1.6682
G01 X3.7468 Y1.7491
G01 X3.7411 Y1.7766
G01 X3.7272 Y1.8704
G01 X3.7245 Y1.8995
G01 X3.7204 Y1.9828
G01 X3.7201 Y1.9951
G01 X3.7204 Y2.0172
G01 X3.7245 Y2.1005
G01 X3.7272 Y2.1298
G01 X3.7401 Y2.2172
G01 X3.7422 Y2.2293
G01 X3.7468 Y2.2509
G01 X3.7671 Y2.3318
G01 X3.7746 Y2.3574
G01 X3.8052 Y2.4432
G01 X3.8096 Y2.4546
G01 X3.8183 Y2.4749
G01 X3.8540 Y2.5503
G01 X3.8641 Y2.5699
G01 X3.8702 Y2.5806
G01 X3.9174 Y2.6592
G01 X3.9321 Y2.6807
G01 X3.9818 Y2.7477
G01 X3.9990 Y2.7691
G01 X4.0636 Y2.8404
G01 X4.0796 Y2.8564
G01 X4.0998 Y2.8748
G01 X4.0998 Y7.8500
G01 X3.7909 Y7.8502
G01 X3.7676 Y7.8515
G01 X3.7438 Y7.8546
G01 X3.7253 Y7.8581
G01 X3.7045 Y7.8633
G01 X3.6927 Y7.8669
G01 X3.6720 Y7.8743
G01 X3.6607 Y7.8790
G01 X3.6406 Y7.8885
G01 X3.6297 Y7.8942
G01 X3.6100 Y7.9061
G01 X3.5998 Y7.9129
G01 X3.5829 Y7.9255
G01 X3.5734 Y7.9333
G01 X3.5569 Y7.9482
G01 X3.5482 Y7.9569
G01 X3.5334 Y7.9733
G01 X3.5256 Y7.9828
G01 X3.5125 Y8.0005
G01 X3.5000 Y8.0200
G01 X3.4878 Y8.0009
G01 X3.4744 Y7.9828
G01 X3.4666 Y7.9733
G01 X3.4518 Y7.9569
G01 X3.4386 Y7.9441
G01 X3.4218 Y7.9293
G01 X3.4045 Y7.9161
G01 X3.3900 Y7.9061
G01 X3.3703 Y7.8942
G01 X3.3540 Y7.8858
G01 X3.3335 Y7.8764
G01 X3.3073 Y7.8669
G01 X3.2898 Y7.8618
G01 X3.2692 Y7.8569
G01 X3.2465 Y7.8532
G01 X3.2273 Y7.8511
G01 X3.2000 Y7.8500
G01 X1.2000 Y7.8500
G01 X1.1727 Y7.8511
G01 X1.1605 Y7.8522
G01 X1.1438 Y7.8546
G01 X1.1307 Y7.8569
G01 X1.1197 Y7.8594
G01 X1.1044 Y7.8633
G01 X1.0926 Y7.8669
G01 X1.0665 Y7.8764
G01 X1.0406 Y7.8885
G01 X1.0243 Y7.8974
G01 X1.0104 Y7.9058
G01 X0.9999 Y7.9128
G01 X0.9782 Y7.9293
G01 X0.9570 Y7.9481
G01 X0.9441 Y7.9614
G01 X0.9332 Y7.9735
G01 X0.9253 Y7.9832
G01 X0.9093 Y8.0051
G01 X0.8946 Y8.0290
G01 X0.8858 Y8.0460
G01 X0.8791 Y8.0604
G01 X0.8744 Y8.0718
G01 X0.8651 Y8.0982
G01 X0.8580 Y8.1257
G01 X0.8546 Y8.1438
G01 X0.8524 Y8.1597
G01 X0.8512 Y8.1719
G01 X0.8500 Y8.2000
G01 X0.8501 Y12.2056
G01 X0.8512 Y12.2281
G01 X0.8532 Y12.2465
G01 X0.8567 Y12.2683
G01 X0.8634 Y12.2958
G01 X0.8689 Y12.3133
G01 X0.8766 Y12.3339
G01 X0.8887 Y12.3599
G01 X0.8974 Y12.3757
G01 X1.0000 Y15.5128
G01 X1.0000 Y12.4872
G00 Z2.0000
M05
G00 Z2.0000
G00 Z15.00

