(G-CODE GENERATED BY FLATCAM v8.993 - www.flatcam.org - Version Date: 2020/06/05)

(Name: isolation_endmill_08)
(Type: G-code from Geometry)
(Units: MM)

(Created on Sunday, 22 November 2020 at 17:04)

(This preprocessor is the default preprocessor used by FlatCAM.)
(It is made to work with MACH3 compatible motion controllers.)

(TOOL DIAMETER: 0.8 mm)
(Feedrate_XY: 80.0 mm/min)
(Feedrate_Z: 40.0 mm/min)
(Feedrate rapids 1500.0 mm/min)

(Z_Cut: -0.095 mm)
(DepthPerCut: 0.048 mm <=>2 passes)
(Z_Move: 2.0 mm)
(Z Start: None mm)
(Z End: 15.0 mm)
(Steps per circle: 64)
(Preprocessor Geometry: default)

(X range:    0.3000 ...   11.7000  mm)
(Y range:    0.3000 ...   21.7000  mm)

(Spindle Speed: None RPM)
G21
G90
G94



G01 F80.00
G00 Z2.0000

M03
G00 X3.7000 Y1.4244
G01 F40.00
G01 Z-0.0480
G01 F80.00
G01 X3.7000 Y0.3000
G01 X3.0200 Y0.3000
G01 X3.0200 Y7.7000
G01 X2.3400 Y7.7000
G01 X2.3400 Y0.3000
G01 X1.6600 Y0.3000
G01 X1.6600 Y7.7000
G00 X1.6600 Y7.7000
G01 F40.00
G01 Z-0.0950
G01 F80.00
G01 X1.6600 Y0.3000
G01 X2.3400 Y0.3000
G01 X2.3400 Y7.7000
G01 X3.0200 Y7.7000
G01 X3.0200 Y0.3000
G01 X3.7000 Y0.3000
G01 X3.7000 Y1.4244
G00 Z2.0000
G00 X4.3800 Y0.7632
G01 F40.00
G01 Z-0.0480
G01 F80.00
G01 X4.3800 Y0.3000
G01 X5.0600 Y0.3000
G01 X5.0600 Y0.6574
G00 X5.0600 Y0.6574
G01 F40.00
G01 Z-0.0950
G01 F80.00
G01 X5.0600 Y0.3000
G01 X4.3800 Y0.3000
G01 X4.3800 Y0.7632
G00 Z2.0000
G00 X5.7400 Y0.9287
G01 F40.00
G01 Z-0.0480
G01 F80.00
G01 X5.7400 Y0.3000
G01 X6.4200 Y0.3000
G01 X6.4200 Y1.1394
G00 X6.4200 Y1.1394
G01 F40.00
G01 Z-0.0950
G01 F80.00
G01 X6.4200 Y0.3000
G01 X5.7400 Y0.3000
G01 X5.7400 Y0.9287
G00 Z2.0000
G00 X7.1000 Y0.6995
G01 F40.00
G01 Z-0.0480
G01 F80.00
G01 X7.1000 Y0.3000
G01 X7.7800 Y0.3000
G01 X7.7800 Y0.6895
G01 X8.4600 Y0.3000
G01 X8.4600 Y1.0946
G00 X8.4600 Y1.0946
G01 F40.00
G01 Z-0.0950
G01 F80.00
G01 X8.4600 Y0.3000
G01 X7.7800 Y0.6895
G01 X7.7800 Y0.3000
G01 X7.1000 Y0.3000
G01 X7.1000 Y0.6995
G00 Z2.0000
G00 X9.1400 Y0.6501
G01 F40.00
G01 Z-0.0480
G01 F80.00
G01 X9.1400 Y0.3000
G01 X9.8200 Y0.3000
G01 X9.8200 Y0.6500
G01 X10.5000 Y0.6500
G01 X10.5000 Y0.3000
G01 X11.1800 Y0.3000
G01 X11.1800 Y0.7745
G00 X11.1800 Y0.7745
G01 F40.00
G01 Z-0.0950
G01 F80.00
G01 X11.1800 Y0.3000
G01 X10.5000 Y0.3000
G01 X10.5000 Y0.6500
G01 X9.8200 Y0.6500
G01 X9.8200 Y0.3000
G01 X9.1400 Y0.3000
G01 X9.1400 Y0.6501
G00 Z2.0000
G00 X8.4600 Y2.9054
G01 F40.00
G01 Z-0.0480
G01 F80.00
G01 X8.4600 Y4.7577
G01 X9.1400 Y5.4377
G01 X9.1400 Y3.3499
G00 X9.1400 Y3.3499
G01 F40.00
G01 Z-0.0950
G01 F80.00
G01 X9.1400 Y5.4377
G01 X8.4600 Y4.7577
G01 X8.4600 Y2.9054
G00 Z2.0000
G00 X9.8200 Y5.2223
G01 F40.00
G01 Z-0.0480
G01 F80.00
G01 X9.8200 Y6.1177
G01 X10.5000 Y6.1000
G01 X10.5000 Y6.7977
G01 X11.1800 Y7.4777
G01 X11.1800 Y6.1000
G00 X11.1800 Y6.1000
G01 F40.00
G01 Z-0.0950
G01 F80.00
G01 X11.1800 Y7.4777
G01 X10.5000 Y6.7977
G01 X10.5000 Y6.1000
G01 X9.8200 Y6.1177
G01 X9.8200 Y5.2223
G00 Z2.0000
G00 X11.1800 Y3.9000
G01 F40.00
G01 Z-0.0480
G01 F80.00
G01 X11.1800 Y3.2255
G00 X11.1800 Y3.2255
G01 F40.00
G01 Z-0.0950
G01 F80.00
G01 X11.1800 Y3.9000
G00 Z2.0000
G00 X11.7000 Y8.0177
G01 F40.00
G01 Z-0.0480
G01 F80.00
G01 X11.7000 Y5.8177
G01 X11.6865 Y5.8438
G01 X11.6707 Y5.8702
G01 X11.6597 Y5.8865
G01 X11.6486 Y5.9017
G01 X11.6300 Y5.9250
G01 X11.6171 Y5.9393
G01 X11.6036 Y5.9536
G01 X11.5821 Y5.9737
G01 X11.5741 Y5.9807
G01 X11.5589 Y5.9931
G01 X11.5347 Y6.0110
G01 X11.5190 Y6.0215
G01 X11.5028 Y6.0313
G01 X11.4780 Y6.0450
G01 X11.4593 Y6.0540
G01 X11.4406 Y6.0623
G01 X11.4138 Y6.0723
G01 X11.3855 Y6.0813
G01 X11.3667 Y6.0861
G01 X11.3494 Y6.0900
G01 X11.3185 Y6.0952
G01 X11.2895 Y6.0984
G01 X11.2696 Y6.0995
G01 X11.2500 Y6.1000
G01 X10.3500 Y6.1000
G01 X10.3206 Y6.0990
G01 X10.2909 Y6.0965
G01 X10.2718 Y6.0937
G01 X10.2506 Y6.0900
G01 X10.2238 Y6.0837
G01 X10.2054 Y6.0786
G01 X10.1862 Y6.0723
G01 X10.1594 Y6.0623
G01 X10.1407 Y6.0540
G01 X10.1220 Y6.0450
G01 X10.1047 Y6.0357
G01 X10.0798 Y6.0207
G01 X10.0635 Y6.0097
G01 X10.0483 Y5.9986
G01 X10.0319 Y5.9858
G01 X10.0179 Y5.9737
G01 X10.0035 Y5.9604
G01 X9.9896 Y5.9465
G01 X9.9763 Y5.9321
G01 X9.9639 Y5.9177
G01 X9.9456 Y5.8938
G01 X9.9293 Y5.8702
G01 X9.9187 Y5.8528
G01 X9.9085 Y5.8346
G01 X9.9002 Y5.8182
G01 X9.8918 Y5.8000
G01 X9.8843 Y5.7818
G01 X9.8777 Y5.7638
G01 X9.8689 Y5.7360
G01 X9.8639 Y5.7167
G01 X9.8598 Y5.6986
G01 X9.8563 Y5.6782
G01 X9.8533 Y5.6573
G01 X9.8515 Y5.6377
G01 X9.8503 Y5.6145
G01 X9.8500 Y5.6000
G01 X9.8500 Y5.2523
G01 X9.3988 Y4.8012
G01 X9.3819 Y4.7834
G01 X9.3588 Y4.7579
G01 X9.3460 Y4.7431
G01 X9.3277 Y4.7200
G01 X9.3072 Y4.6924
G01 X9.2959 Y4.6763
G01 X9.2800 Y4.6516
G01 X9.2623 Y4.6221
G01 X9.2537 Y4.6070
G01 X9.2425 Y4.5856
G01 X9.2200 Y4.5379
G01 X9.2090 Y4.5113
G01 X9.1903 Y4.4588
G01 X9.1812 Y4.4281
G01 X9.1715 Y4.3898
G01 X9.1653 Y4.3610
G01 X9.1620 Y4.3417
G01 X9.1559 Y4.3000
G01 X9.1536 Y4.2784
G01 X9.1521 Y4.2589
G01 X9.1501 Y4.2147
G01 X9.1498 Y3.3500
G01 X9.1206 Y3.3490
G01 X9.0909 Y3.3465
G01 X9.0621 Y3.3422
G01 X9.0333 Y3.3361
G01 X9.0054 Y3.3286
G01 X8.9770 Y3.3190
G01 X8.9500 Y3.3082
G01 X8.9213 Y3.2946
G01 X8.8972 Y3.2813
G01 X8.8721 Y3.2657
G01 X8.8483 Y3.2486
G01 X8.8254 Y3.2303
G01 X8.8035 Y3.2104
G01 X8.7829 Y3.1893
G01 X8.7632 Y3.1668
G01 X8.7514 Y3.1517
G01 X8.7406 Y3.1369
G01 X8.7296 Y3.1207
G01 X8.7238 Y3.1112
G01 X8.7089 Y3.0854
G01 X8.6960 Y3.0593
G01 X8.6877 Y3.0406
G01 X8.6777 Y3.0138
G01 X8.6714 Y2.9946
G01 X8.6639 Y2.9667
G01 X8.6579 Y2.9386
G01 X8.6548 Y2.9185
G01 X8.6521 Y2.8960
G01 X8.6503 Y2.8645
G01 X8.6500 Y2.6372
G01 X8.6385 Y2.6577
G01 X8.5956 Y2.7293
G01 X8.5797 Y2.7540
G01 X8.5684 Y2.7701
G01 X8.5187 Y2.8371
G01 X8.4997 Y2.8610
G01 X8.4875 Y2.8750
G01 X8.4315 Y2.9368
G01 X8.4110 Y2.9580
G01 X8.3968 Y2.9715
G01 X8.3350 Y3.0275
G01 X8.3118 Y3.0472
G01 X8.3105 Y4.0536
G01 X8.3237 Y4.0679
G01 X8.3361 Y4.0823
G01 X8.3544 Y4.1062
G01 X8.3707 Y4.1298
G01 X8.3813 Y4.1472
G01 X8.3915 Y4.1654
G01 X8.3998 Y4.1818
G01 X8.4082 Y4.2000
G01 X8.4157 Y4.2182
G01 X8.4223 Y4.2362
G01 X8.4311 Y4.2640
G01 X8.4361 Y4.2833
G01 X8.4402 Y4.3014
G01 X8.4437 Y4.3218
G01 X8.4467 Y4.3427
G01 X8.4485 Y4.3623
G01 X8.4497 Y4.3855
G01 X8.4500 Y4.4000
G01 X8.4500 Y4.7477
G01 X11.6012 Y7.8988
G01 X11.6181 Y7.9166
G01 X11.6412 Y7.9421
G01 X11.6540 Y7.9569
G01 X11.6675 Y7.9737
G01 X11.7000 Y8.0177
G00 X11.7000 Y8.0177
G01 F40.00
G01 Z-0.0950
G01 F80.00
G01 X11.6675 Y7.9737
G01 X11.6540 Y7.9569
G01 X11.6412 Y7.9421
G01 X11.6181 Y7.9166
G01 X11.6012 Y7.8988
G01 X8.4500 Y4.7477
G01 X8.4500 Y4.4000
G01 X8.4497 Y4.3855
G01 X8.4485 Y4.3623
G01 X8.4467 Y4.3427
G01 X8.4437 Y4.3218
G01 X8.4402 Y4.3014
G01 X8.4361 Y4.2833
G01 X8.4311 Y4.2640
G01 X8.4223 Y4.2362
G01 X8.4157 Y4.2182
G01 X8.4082 Y4.2000
G01 X8.3998 Y4.1818
G01 X8.3915 Y4.1654
G01 X8.3813 Y4.1472
G01 X8.3707 Y4.1298
G01 X8.3544 Y4.1062
G01 X8.3361 Y4.0823
G01 X8.3237 Y4.0679
G01 X8.3105 Y4.0536
G01 X8.3118 Y3.0472
G01 X8.3350 Y3.0275
G01 X8.3968 Y2.9715
G01 X8.4110 Y2.9580
G01 X8.4315 Y2.9368
G01 X8.4875 Y2.8750
G01 X8.4997 Y2.8610
G01 X8.5187 Y2.8371
G01 X8.5684 Y2.7701
G01 X8.5797 Y2.7540
G01 X8.5956 Y2.7293
G01 X8.6385 Y2.6577
G01 X8.6500 Y2.6372
G01 X8.6503 Y2.8645
G01 X8.6521 Y2.8960
G01 X8.6548 Y2.9185
G01 X8.6579 Y2.9386
G01 X8.6639 Y2.9667
G01 X8.6714 Y2.9946
G01 X8.6777 Y3.0138
G01 X8.6877 Y3.0406
G01 X8.6960 Y3.0593
G01 X8.7089 Y3.0854
G01 X8.7238 Y3.1112
G01 X8.7296 Y3.1207
G01 X8.7406 Y3.1369
G01 X8.7514 Y3.1517
G01 X8.7632 Y3.1668
G01 X8.7829 Y3.1893
G01 X8.8035 Y3.2104
G01 X8.8254 Y3.2303
G01 X8.8483 Y3.2486
G01 X8.8721 Y3.2657
G01 X8.8972 Y3.2813
G01 X8.9213 Y3.2946
G01 X8.9500 Y3.3082
G01 X8.9770 Y3.3190
G01 X9.0054 Y3.3286
G01 X9.0333 Y3.3361
G01 X9.0621 Y3.3422
G01 X9.0909 Y3.3465
G01 X9.1206 Y3.3490
G01 X9.1498 Y3.3500
G01 X9.1501 Y4.2147
G01 X9.1521 Y4.2589
G01 X9.1536 Y4.2784
G01 X9.1559 Y4.3000
G01 X9.1620 Y4.3417
G01 X9.1653 Y4.3610
G01 X9.1715 Y4.3898
G01 X9.1812 Y4.4281
G01 X9.1903 Y4.4588
G01 X9.2090 Y4.5113
G01 X9.2200 Y4.5379
G01 X9.2425 Y4.5856
G01 X9.2537 Y4.6070
G01 X9.2623 Y4.6221
G01 X9.2800 Y4.6516
G01 X9.2959 Y4.6763
G01 X9.3072 Y4.6924
G01 X9.3277 Y4.7200
G01 X9.3460 Y4.7431
G01 X9.3588 Y4.7579
G01 X9.3819 Y4.7834
G01 X9.3988 Y4.8012
G01 X9.8500 Y5.2523
G01 X9.8500 Y5.6000
G01 X9.8503 Y5.6145
G01 X9.8515 Y5.6377
G01 X9.8533 Y5.6573
G01 X9.8563 Y5.6782
G01 X9.8598 Y5.6986
G01 X9.8639 Y5.7167
G01 X9.8689 Y5.7360
G01 X9.8777 Y5.7638
G01 X9.8843 Y5.7818
G01 X9.8918 Y5.8000
G01 X9.9002 Y5.8182
G01 X9.9085 Y5.8346
G01 X9.9187 Y5.8528
G01 X9.9293 Y5.8702
G01 X9.9456 Y5.8938
G01 X9.9639 Y5.9177
G01 X9.9763 Y5.9321
G01 X9.9896 Y5.9465
G01 X10.0035 Y5.9604
G01 X10.0179 Y5.9737
G01 X10.0319 Y5.9858
G01 X10.0483 Y5.9986
G01 X10.0635 Y6.0097
G01 X10.0798 Y6.0207
G01 X10.1047 Y6.0357
G01 X10.1220 Y6.0450
G01 X10.1407 Y6.0540
G01 X10.1594 Y6.0623
G01 X10.1862 Y6.0723
G01 X10.2054 Y6.0786
G01 X10.2238 Y6.0837
G01 X10.2506 Y6.0900
G01 X10.2718 Y6.0937
G01 X10.2909 Y6.0965
G01 X10.3206 Y6.0990
G01 X10.3500 Y6.1000
G01 X11.2500 Y6.1000
G01 X11.2696 Y6.0995
G01 X11.2895 Y6.0984
G01 X11.3185 Y6.0952
G01 X11.3494 Y6.0900
G01 X11.3667 Y6.0861
G01 X11.3855 Y6.0813
G01 X11.4138 Y6.0723
G01 X11.4406 Y6.0623
G01 X11.4593 Y6.0540
G01 X11.4780 Y6.0450
G01 X11.5028 Y6.0313
G01 X11.5190 Y6.0215
G01 X11.5347 Y6.0110
G01 X11.5589 Y5.9931
G01 X11.5741 Y5.9807
G01 X11.5821 Y5.9737
G01 X11.6036 Y5.9536
G01 X11.6171 Y5.9393
G01 X11.6300 Y5.9250
G01 X11.6486 Y5.9017
G01 X11.6597 Y5.8865
G01 X11.6707 Y5.8702
G01 X11.6865 Y5.8438
G01 X11.7000 Y5.8177
G01 X11.7000 Y8.0177
G00 Z2.0000
G00 X9.8200 Y8.5223
G01 F40.00
G01 Z-0.0480
G01 F80.00
G01 X9.8200 Y16.6498
G01 X9.1400 Y16.6498
G01 X9.1400 Y7.8423
G00 X9.1400 Y7.8423
G01 F40.00
G01 Z-0.0950
G01 F80.00
G01 X9.1400 Y16.6498
G01 X9.8200 Y16.6498
G01 X9.8200 Y8.5223
G00 Z2.0000
G00 X8.4600 Y7.7037
G01 F40.00
G01 Z-0.0480
G01 F80.00
G01 X8.4600 Y7.1623
G01 X7.7800 Y7.7000
G01 X7.7800 Y6.4823
G01 X7.1000 Y6.1000
G01 X7.1000 Y7.7000
G01 X6.4200 Y7.7000
G01 X6.4200 Y2.8606
G01 X5.7400 Y3.0713
G01 X5.7400 Y7.7000
G00 X5.7400 Y7.7000
G01 F40.00
G01 Z-0.0950
G01 F80.00
G01 X5.7400 Y3.0713
G01 X6.4200 Y2.8606
G01 X6.4200 Y7.7000
G01 X7.1000 Y7.7000
G01 X7.1000 Y6.1000
G01 X7.7800 Y6.4823
G01 X7.7800 Y7.7000
G01 X8.4600 Y7.1623
G01 X8.4600 Y7.7037
G00 Z2.0000
G00 X3.7000 Y7.7101
G01 F40.00
G01 Z-0.0480
G01 F80.00
G01 X3.7000 Y2.5756
G00 X3.7000 Y2.5756
G01 F40.00
G01 Z-0.0950
G01 F80.00
G01 X3.7000 Y7.7101
G00 Z2.0000
G00 X0.9800 Y7.7511
G01 F40.00
G01 Z-0.0480
G01 F80.00
G01 X0.9800 Y0.3000
G01 X0.3000 Y0.3000
G01 X0.3000 Y21.7000
G00 X0.3000 Y21.7000
G01 F40.00
G01 Z-0.0950
G01 F80.00
G01 X0.3000 Y0.3000
G01 X0.9800 Y0.3000
G01 X0.9800 Y7.7511
G00 Z2.0000
G00 X0.9800 Y12.6489
G01 F40.00
G01 Z-0.0480
G01 F80.00
G01 X0.9800 Y15.3511
G00 X0.9800 Y15.3511
G01 F40.00
G01 Z-0.0950
G01 F80.00
G01 X0.9800 Y12.6489
G00 Z2.0000
G00 X3.0200 Y12.7000
G01 F40.00
G01 Z-0.0480
G01 F80.00
G01 X3.0200 Y15.3000
G01 X2.3400 Y15.3000
G01 X2.3400 Y12.7000
G01 X1.6600 Y12.7000
G01 X1.6600 Y15.3000
G00 X1.6600 Y15.3000
G01 F40.00
G01 Z-0.0950
G01 F80.00
G01 X1.6600 Y12.7000
G01 X2.3400 Y12.7000
G01 X2.3400 Y15.3000
G01 X3.0200 Y15.3000
G01 X3.0200 Y12.7000
G00 Z2.0000
G00 X3.7000 Y12.6899
G01 F40.00
G01 Z-0.0480
G01 F80.00
G01 X3.7000 Y15.3101
G00 X3.7000 Y15.3101
G01 F40.00
G01 Z-0.0950
G01 F80.00
G01 X3.7000 Y12.6899
G00 Z2.0000
G00 X4.3800 Y15.3000
G01 F40.00
G01 Z-0.0480
G01 F80.00
G01 X4.3800 Y12.7000
G01 X5.0600 Y12.7000
G01 X5.0600 Y15.3000
G01 X5.7400 Y15.3000
G01 X5.7400 Y12.7000
G01 X6.4200 Y12.7000
G01 X6.4200 Y15.3000
G01 X7.1000 Y15.3000
G01 X7.1000 Y12.7000
G01 X7.7800 Y12.7000
G01 X7.7800 Y15.3000
G00 X7.7800 Y15.3000
G01 F40.00
G01 Z-0.0950
G01 F80.00
G01 X7.7800 Y12.7000
G01 X7.1000 Y12.7000
G01 X7.1000 Y15.3000
G01 X6.4200 Y15.3000
G01 X6.4200 Y12.7000
G01 X5.7400 Y12.7000
G01 X5.7400 Y15.3000
G01 X5.0600 Y15.3000
G01 X5.0600 Y12.7000
G01 X4.3800 Y12.7000
G01 X4.3800 Y15.3000
G00 Z2.0000
G00 X8.4600 Y15.3037
G01 F40.00
G01 Z-0.0480
G01 F80.00
G01 X8.4600 Y12.6963
G00 X8.4600 Y12.6963
G01 F40.00
G01 Z-0.0950
G01 F80.00
G01 X8.4600 Y15.3037
G00 Z2.0000
G00 X10.5000 Y18.3502
G01 F40.00
G01 Z-0.0480
G01 F80.00
G01 X10.5000 Y21.0757
G01 X9.8200 Y21.7000
G01 X9.8200 Y18.3502
G01 X9.1400 Y18.3502
G01 X9.1400 Y21.7000
G01 X8.4600 Y20.2963
G01 X8.4600 Y21.7000
G01 X7.7800 Y21.7000
G01 X7.7800 Y20.3000
G01 X7.1000 Y20.3000
G01 X7.1000 Y21.7000
G01 X6.4200 Y21.7000
G01 X6.4200 Y20.3000
G01 X5.7400 Y20.3000
G01 X5.7400 Y21.7000
G01 X5.0600 Y21.7000
G01 X5.0600 Y20.3000
G01 X4.3800 Y20.3000
G01 X4.3800 Y21.7000
G01 X3.7000 Y21.7000
G01 X3.7000 Y20.2899
G00 X3.7000 Y20.2899
G01 F40.00
G01 Z-0.0950
G01 F80.00
G01 X3.7000 Y21.7000
G01 X4.3800 Y21.7000
G01 X4.3800 Y20.3000
G01 X5.0600 Y20.3000
G01 X5.0600 Y21.7000
G01 X5.7400 Y21.7000
G01 X5.7400 Y20.3000
G01 X6.4200 Y20.3000
G01 X6.4200 Y21.7000
G01 X7.1000 Y21.7000
G01 X7.1000 Y20.3000
G01 X7.7800 Y20.3000
G01 X7.7800 Y21.7000
G01 X8.4600 Y21.7000
G01 X8.4600 Y20.2963
G01 X9.1400 Y21.7000
G01 X9.1400 Y18.3502
G01 X9.8200 Y18.3502
G01 X9.8200 Y21.7000
G01 X10.5000 Y21.0757
G01 X10.5000 Y18.3502
G00 Z2.0000
G00 X11.1800 Y18.3308
G01 F40.00
G01 Z-0.0480
G01 F80.00
G01 X11.1800 Y20.3957
G00 X11.1800 Y20.3957
G01 F40.00
G01 Z-0.0950
G01 F80.00
G01 X11.1800 Y18.3308
G00 Z2.0000
G00 X3.0200 Y20.3000
G01 F40.00
G01 Z-0.0480
G01 F80.00
G01 X3.0200 Y21.7000
G01 X2.3400 Y21.7000
G01 X2.3400 Y20.3000
G01 X1.6600 Y20.3000
G01 X1.6600 Y21.7000
G01 X0.9800 Y21.7000
G01 X0.9800 Y20.2489
G00 X0.9800 Y20.2489
G01 F40.00
G01 Z-0.0950
G01 F80.00
G01 X0.9800 Y21.7000
G01 X1.6600 Y21.7000
G01 X1.6600 Y20.3000
G01 X2.3400 Y20.3000
G01 X2.3400 Y21.7000
G01 X3.0200 Y21.7000
G01 X3.0200 Y20.3000
G00 Z2.0000
G00 X0.3000 Y21.7000
G01 F40.00
G01 Z-0.0480
G01 F80.00
G01 X9.8757 Y21.7000
G01 X11.7000 Y19.8757
G01 X11.7000 Y17.9823
G01 X11.6675 Y18.0263
G01 X11.6481 Y18.0500
G01 X11.6117 Y18.0903
G01 X11.5906 Y18.1114
G01 X11.5496 Y18.1485
G01 X11.5278 Y18.1663
G01 X11.4829 Y18.1996
G01 X11.4682 Y18.2095
G01 X11.4516 Y18.2200
G01 X11.4116 Y18.2438
G01 X11.3964 Y18.2520
G01 X11.3788 Y18.2608
G01 X11.3444 Y18.2771
G01 X11.3298 Y18.2835
G01 X11.3094 Y18.2917
G01 X11.2701 Y18.3059
G01 X11.2515 Y18.3120
G01 X11.2334 Y18.3174
G01 X11.1794 Y18.3309
G01 X11.1514 Y18.3365
G01 X11.0969 Y18.3445
G01 X11.0784 Y18.3464
G01 X11.0589 Y18.3479
G01 X11.0245 Y18.3496
G01 X11.0000 Y18.3502
G01 X8.9000 Y18.3502
G01 X8.9000 Y19.8000
G01 X8.8990 Y19.8294
G01 X8.8967 Y19.8576
G01 X8.8920 Y19.8888
G01 X8.8882 Y19.9080
G01 X8.8792 Y19.9427
G01 X8.8723 Y19.9638
G01 X8.8652 Y19.9831
G01 X8.8540 Y20.0093
G01 X8.8465 Y20.0250
G01 X8.8373 Y20.0423
G01 X8.8262 Y20.0612
G01 X8.8149 Y20.0791
G01 X8.8044 Y20.0938
G01 X8.7917 Y20.1107
G01 X8.7792 Y20.1258
G01 X8.7671 Y20.1393
G01 X8.7571 Y20.1500
G01 X8.7454 Y20.1615
G01 X8.7185 Y20.1854
G01 X8.7017 Y20.1986
G01 X8.6841 Y20.2115
G01 X8.6677 Y20.2223
G01 X8.6528 Y20.2313
G01 X8.6280 Y20.2450
G01 X8.6093 Y20.2540
G01 X8.5889 Y20.2630
G01 X8.5730 Y20.2690
G01 X8.5542 Y20.2756
G01 X8.5355 Y20.2813
G01 X8.5086 Y20.2880
G01 X8.4923 Y20.2914
G01 X8.4782 Y20.2937
G01 X8.4608 Y20.2962
G01 X8.4413 Y20.2983
G01 X8.4196 Y20.2995
G01 X8.4000 Y20.3000
G01 X6.4000 Y20.3000
G01 X6.3804 Y20.2995
G01 X6.3587 Y20.2983
G01 X6.3468 Y20.2972
G01 X6.3315 Y20.2952
G01 X6.3083 Y20.2915
G01 X6.2916 Y20.2881
G01 X6.2640 Y20.2811
G01 X6.2362 Y20.2723
G01 X6.2190 Y20.2661
G01 X6.2033 Y20.2597
G01 X6.1814 Y20.2496
G01 X6.1639 Y20.2407
G01 X6.1472 Y20.2313
G01 X6.1324 Y20.2223
G01 X6.1151 Y20.2109
G01 X6.1000 Y20.1999
G01 X6.0841 Y20.2115
G01 X6.0677 Y20.2223
G01 X6.0503 Y20.2327
G01 X6.0331 Y20.2423
G01 X6.0182 Y20.2498
G01 X5.9954 Y20.2602
G01 X5.9843 Y20.2648
G01 X5.9638 Y20.2723
G01 X5.9360 Y20.2811
G01 X5.9084 Y20.2881
G01 X5.8917 Y20.2915
G01 X5.8685 Y20.2952
G01 X5.8532 Y20.2972
G01 X5.8413 Y20.2983
G01 X5.8196 Y20.2995
G01 X5.8000 Y20.3000
G01 X3.7902 Y20.2999
G01 X3.7706 Y20.2990
G01 X3.7468 Y20.2972
G01 X3.7315 Y20.2952
G01 X3.7080 Y20.2915
G01 X3.6915 Y20.2881
G01 X3.6645 Y20.2813
G01 X3.6362 Y20.2723
G01 X3.6190 Y20.2661
G01 X3.6033 Y20.2597
G01 X3.5814 Y20.2496
G01 X3.5639 Y20.2407
G01 X3.5472 Y20.2313
G01 X3.5324 Y20.2223
G01 X3.5151 Y20.2109
G01 X3.5000 Y20.1999
G01 X3.4845 Y20.2112
G01 X3.4681 Y20.2220
G01 X3.4518 Y20.2319
G01 X3.4346 Y20.2415
G01 X3.4182 Y20.2498
G01 X3.3961 Y20.2600
G01 X3.3808 Y20.2661
G01 X3.3638 Y20.2723
G01 X3.3355 Y20.2813
G01 X3.3085 Y20.2881
G01 X3.2920 Y20.2915
G01 X3.2685 Y20.2952
G01 X3.2532 Y20.2972
G01 X3.2413 Y20.2983
G01 X3.2196 Y20.2995
G01 X3.2000 Y20.3000
G01 X1.2000 Y20.3000
G01 X1.1706 Y20.2990
G01 X1.1468 Y20.2972
G01 X1.1218 Y20.2937
G01 X1.0995 Y20.2898
G01 X1.0833 Y20.2861
G01 X1.0551 Y20.2785
G01 X1.0362 Y20.2723
G01 X1.0111 Y20.2630
G01 X0.9907 Y20.2540
G01 X0.9722 Y20.2451
G01 X0.9553 Y20.2360
G01 X0.9328 Y20.2226
G01 X0.9153 Y20.2110
G01 X0.8946 Y20.1958
G01 X0.8741 Y20.1791
G01 X0.8519 Y20.1589
G01 X0.8381 Y20.1449
G01 X0.8208 Y20.1258
G01 X0.8083 Y20.1107
G01 X0.7898 Y20.0859
G01 X0.7789 Y20.0696
G01 X0.7687 Y20.0528
G01 X0.7569 Y20.0317
G01 X0.7424 Y20.0014
G01 X0.7346 Y19.9827
G01 X0.7277 Y19.9638
G01 X0.7210 Y19.9435
G01 X0.7137 Y19.9159
G01 X0.7094 Y19.8967
G01 X0.7048 Y19.8685
G01 X0.7024 Y19.8494
G01 X0.7010 Y19.8294
G01 X0.7000 Y19.8000
G01 X0.7000 Y15.8000
G01 X0.7005 Y15.7804
G01 X0.7016 Y15.7609
G01 X0.7048 Y15.7315
G01 X0.7078 Y15.7121
G01 X0.7116 Y15.6928
G01 X0.7163 Y15.6738
G01 X0.7216 Y15.6545
G01 X0.7277 Y15.6362
G01 X0.7344 Y15.6178
G01 X0.7419 Y15.5996
G01 X0.7502 Y15.5818
G01 X0.7550 Y15.5720
G01 X0.7643 Y15.5547
G01 X0.7742 Y15.5381
G01 X0.7847 Y15.5215
G01 X0.7956 Y15.5062
G01 X0.8068 Y15.4912
G01 X0.8195 Y15.4756
G01 X0.8263 Y15.4679
G01 X0.8398 Y15.4532
G01 X0.8537 Y15.4394
G01 X0.8683 Y15.4260
G01 X0.8832 Y15.4132
G01 X0.8983 Y15.4014
G01 X0.9132 Y15.3904
G01 X0.9300 Y15.3792
G01 X0.9388 Y15.3738
G01 X0.9559 Y15.3637
G01 X0.9732 Y15.3544
G01 X0.9907 Y15.3460
G01 X1.0094 Y15.3377
G01 X1.0270 Y15.3310
G01 X1.0456 Y15.3245
G01 X1.0644 Y15.3188
G01 X1.0833 Y15.3139
G01 X1.1008 Y15.3099
G01 X1.1218 Y15.3063
G01 X1.1427 Y15.3033
G01 X1.1623 Y15.3015
G01 X1.1855 Y15.3003
G01 X1.2000 Y15.3000
G01 X3.2000 Y15.3000
G01 X3.2145 Y15.3003
G01 X3.2460 Y15.3021
G01 X3.2685 Y15.3048
G01 X3.2886 Y15.3079
G01 X3.3079 Y15.3118
G01 X3.3262 Y15.3163
G01 X3.3446 Y15.3214
G01 X3.3638 Y15.3277
G01 X3.3818 Y15.3343
G01 X3.4000 Y15.3418
G01 X3.4182 Y15.3502
G01 X3.4354 Y15.3589
G01 X3.4528 Y15.3687
G01 X3.4707 Y15.3796
G01 X3.4869 Y15.3906
G01 X3.5000 Y15.4001
G01 X3.5131 Y15.3906
G01 X3.5293 Y15.3796
G01 X3.5472 Y15.3687
G01 X3.5646 Y15.3589
G01 X3.5818 Y15.3502
G01 X3.6000 Y15.3418
G01 X3.6182 Y15.3343
G01 X3.6362 Y15.3277
G01 X3.6554 Y15.3214
G01 X3.6738 Y15.3163
G01 X3.6921 Y15.3118
G01 X3.7114 Y15.3079
G01 X3.7427 Y15.3033
G01 X3.7623 Y15.3015
G01 X3.7804 Y15.3005
G01 X3.8000 Y15.3000
G01 X5.8000 Y15.3000
G01 X5.8145 Y15.3003
G01 X5.8377 Y15.3015
G01 X5.8573 Y15.3033
G01 X5.8782 Y15.3063
G01 X5.8986 Y15.3098
G01 X5.9167 Y15.3139
G01 X5.9360 Y15.3189
G01 X5.9547 Y15.3246
G01 X5.9730 Y15.3310
G01 X5.9906 Y15.3377
G01 X6.0093 Y15.3460
G01 X6.0346 Y15.3585
G01 X6.0528 Y15.3687
G01 X6.0702 Y15.3793
G01 X6.0865 Y15.3903
G01 X6.1000 Y15.4001
G01 X6.1135 Y15.3903
G01 X6.1298 Y15.3793
G01 X6.1472 Y15.3687
G01 X6.1654 Y15.3585
G01 X6.1818 Y15.3502
G01 X6.2000 Y15.3418
G01 X6.2182 Y15.3343
G01 X6.2362 Y15.3277
G01 X6.2544 Y15.3217
G01 X6.2738 Y15.3163
G01 X6.2923 Y15.3118
G01 X6.3116 Y15.3079
G01 X6.3315 Y15.3048
G01 X6.3540 Y15.3021
G01 X6.3855 Y15.3003
G01 X6.4000 Y15.3000
G01 X8.4000 Y15.3000
G01 X8.4143 Y15.3003
G01 X8.4377 Y15.3015
G01 X8.4573 Y15.3033
G01 X8.4685 Y15.3048
G01 X8.4994 Y15.3100
G01 X8.5167 Y15.3139
G01 X8.5355 Y15.3187
G01 X8.5638 Y15.3277
G01 X8.5818 Y15.3343
G01 X8.6000 Y15.3418
G01 X8.6182 Y15.3502
G01 X8.6377 Y15.3601
G01 X8.6528 Y15.3687
G01 X8.6702 Y15.3793
G01 X8.6938 Y15.3956
G01 X8.7089 Y15.4069
G01 X8.7241 Y15.4193
G01 X8.7393 Y15.4329
G01 X8.7536 Y15.4464
G01 X8.7737 Y15.4679
G01 X8.7807 Y15.4759
G01 X8.7931 Y15.4911
G01 X8.8044 Y15.5062
G01 X8.8149 Y15.5209
G01 X8.8262 Y15.5388
G01 X8.8357 Y15.5547
G01 X8.8450 Y15.5720
G01 X8.8498 Y15.5818
G01 X8.8623 Y15.6094
G01 X8.8690 Y15.6270
G01 X8.8756 Y15.6458
G01 X8.8837 Y15.6738
G01 X8.8882 Y15.6920
G01 X8.8920 Y15.7112
G01 X8.8952 Y15.7315
G01 X8.8979 Y15.7540
G01 X8.8997 Y15.7857
G01 X8.9000 Y15.8000
G01 X8.9000 Y16.6498
G01 X10.1498 Y16.6498
G01 X10.1498 Y8.8522
G01 X7.3977 Y6.1000
G01 X7.0500 Y6.1000
G01 X7.0304 Y6.0995
G01 X7.0004 Y6.0975
G01 X6.9815 Y6.0952
G01 X6.9616 Y6.0921
G01 X6.9333 Y6.0861
G01 X6.9044 Y6.0783
G01 X6.8862 Y6.0723
G01 X6.8594 Y6.0623
G01 X6.8407 Y6.0540
G01 X6.8236 Y6.0458
G01 X6.8062 Y6.0365
G01 X6.7798 Y6.0207
G01 X6.7635 Y6.0097
G01 X6.7483 Y5.9986
G01 X6.7323 Y5.9861
G01 X6.7179 Y5.9737
G01 X6.6964 Y5.9536
G01 X6.6829 Y5.9393
G01 X6.6700 Y5.9250
G01 X6.6576 Y5.9098
G01 X6.6403 Y5.8865
G01 X6.6293 Y5.8702
G01 X6.6187 Y5.8528
G01 X6.6085 Y5.8346
G01 X6.5960 Y5.8093
G01 X6.5918 Y5.8000
G01 X6.5843 Y5.7818
G01 X6.5777 Y5.7638
G01 X6.5717 Y5.7456
G01 X6.5663 Y5.7262
G01 X6.5618 Y5.7077
G01 X6.5579 Y5.6884
G01 X6.5563 Y5.6782
G01 X6.5535 Y5.6591
G01 X6.5516 Y5.6395
G01 X6.5505 Y5.6196
G01 X6.5500 Y5.6000
G01 X6.5501 Y4.3927
G01 X6.5516 Y4.3605
G01 X6.5548 Y4.3315
G01 X6.5598 Y4.3014
G01 X6.5663 Y4.2738
G01 X6.5746 Y4.2453
G01 X6.5843 Y4.2182
G01 X6.5918 Y4.2000
G01 X6.5960 Y4.1907
G01 X6.6042 Y4.1736
G01 X6.6098 Y4.1629
G01 X6.6098 Y3.0485
G01 X6.5850 Y3.0275
G01 X6.5232 Y2.9715
G01 X6.5090 Y2.9580
G01 X6.4885 Y2.9368
G01 X6.4325 Y2.8750
G01 X6.4134 Y2.8526
G01 X6.4013 Y2.8371
G01 X6.3469 Y2.7636
G01 X6.3349 Y2.7459
G01 X6.3244 Y2.7293
G01 X6.2815 Y2.6577
G01 X6.2751 Y2.6467
G01 X6.2637 Y2.6252
G01 X6.2176 Y2.5278
G01 X6.2077 Y2.5038
G01 X6.1900 Y2.4548
G01 X6.1723 Y2.5038
G01 X6.1624 Y2.5278
G01 X6.1216 Y2.6145
G01 X6.1163 Y2.6252
G01 X6.1049 Y2.6467
G01 X6.0556 Y2.7293
G01 X6.0451 Y2.7459
G01 X6.0284 Y2.7701
G01 X5.9725 Y2.8451
G01 X5.9533 Y2.8685
G01 X5.8851 Y2.9437
G01 X5.8637 Y2.9651
G01 X5.7950 Y3.0275
G01 X5.7801 Y3.0404
G01 X5.7571 Y3.0587
G01 X5.6812 Y3.1148
G01 X5.6659 Y3.1251
G01 X5.6502 Y3.1351
G01 X5.6502 Y7.7000
G01 X5.8000 Y7.7000
G01 X5.8196 Y7.7005
G01 X5.8377 Y7.7015
G01 X5.8573 Y7.7033
G01 X5.8884 Y7.7079
G01 X5.9077 Y7.7118
G01 X5.9360 Y7.7189
G01 X5.9547 Y7.7246
G01 X5.9818 Y7.7343
G01 X6.0000 Y7.7418
G01 X6.0093 Y7.7460
G01 X6.0346 Y7.7585
G01 X6.0528 Y7.7687
G01 X6.0791 Y7.7851
G01 X6.1000 Y7.8001
G01 X6.1135 Y7.7903
G01 X6.1298 Y7.7793
G01 X6.1472 Y7.7687
G01 X6.1654 Y7.7585
G01 X6.1818 Y7.7502
G01 X6.2000 Y7.7418
G01 X6.2182 Y7.7343
G01 X6.2362 Y7.7277
G01 X6.2544 Y7.7217
G01 X6.2738 Y7.7163
G01 X6.2923 Y7.7118
G01 X6.3116 Y7.7079
G01 X6.3315 Y7.7048
G01 X6.3540 Y7.7021
G01 X6.3855 Y7.7003
G01 X6.4000 Y7.7000
G01 X8.4000 Y7.7000
G01 X8.4143 Y7.7003
G01 X8.4377 Y7.7015
G01 X8.4573 Y7.7033
G01 X8.4888 Y7.7080
G01 X8.5167 Y7.7139
G01 X8.5446 Y7.7214
G01 X8.5730 Y7.7310
G01 X8.6000 Y7.7418
G01 X8.6280 Y7.7550
G01 X8.6528 Y7.7687
G01 X8.6791 Y7.7851
G01 X8.7017 Y7.8014
G01 X8.7241 Y7.8193
G01 X8.7465 Y7.8396
G01 X8.7671 Y7.8607
G01 X8.7875 Y7.8841
G01 X8.8044 Y7.9062
G01 X8.8207 Y7.9298
G01 X8.8313 Y7.9472
G01 X8.8399 Y7.9623
G01 X8.8540 Y7.9907
G01 X8.8582 Y8.0000
G01 X8.8657 Y8.0182
G01 X8.8723 Y8.0362
G01 X8.8786 Y8.0554
G01 X8.8837 Y8.0738
G01 X8.8882 Y8.0920
G01 X8.8920 Y8.1112
G01 X8.8937 Y8.1218
G01 X8.8967 Y8.1427
G01 X8.8979 Y8.1540
G01 X8.8997 Y8.1857
G01 X8.9000 Y8.2000
G01 X8.9000 Y12.2000
G01 X8.8995 Y12.2196
G01 X8.8979 Y12.2460
G01 X8.8952 Y12.2685
G01 X8.8900 Y12.2994
G01 X8.8837 Y12.3262
G01 X8.8786 Y12.3446
G01 X8.8723 Y12.3638
G01 X8.8623 Y12.3906
G01 X8.8540 Y12.4093
G01 X8.8450 Y12.4280
G01 X8.8357 Y12.4453
G01 X8.8207 Y12.4702
G01 X8.8097 Y12.4865
G01 X8.7931 Y12.5089
G01 X8.7807 Y12.5241
G01 X8.7604 Y12.5465
G01 X8.7465 Y12.5604
G01 X8.7241 Y12.5807
G01 X8.7017 Y12.5986
G01 X8.6791 Y12.6149
G01 X8.6612 Y12.6262
G01 X8.6377 Y12.6399
G01 X8.6182 Y12.6498
G01 X8.5906 Y12.6623
G01 X8.5638 Y12.6723
G01 X8.5446 Y12.6786
G01 X8.5262 Y12.6837
G01 X8.4994 Y12.6900
G01 X8.4685 Y12.6952
G01 X8.4460 Y12.6979
G01 X8.4196 Y12.6995
G01 X8.4000 Y12.7000
G01 X6.4000 Y12.7000
G01 X6.3804 Y12.6995
G01 X6.3623 Y12.6985
G01 X6.3427 Y12.6967
G01 X6.3218 Y12.6937
G01 X6.3014 Y12.6902
G01 X6.2833 Y12.6861
G01 X6.2640 Y12.6811
G01 X6.2362 Y12.6723
G01 X6.2182 Y12.6657
G01 X6.2000 Y12.6582
G01 X6.1818 Y12.6498
G01 X6.1654 Y12.6415
G01 X6.1472 Y12.6313
G01 X6.1298 Y12.6207
G01 X6.1135 Y12.6097
G01 X6.1000 Y12.5999
G01 X6.0865 Y12.6097
G01 X6.0702 Y12.6207
G01 X6.0528 Y12.6313
G01 X6.0346 Y12.6415
G01 X6.0093 Y12.6540
G01 X5.9906 Y12.6623
G01 X5.9730 Y12.6690
G01 X5.9547 Y12.6754
G01 X5.9360 Y12.6811
G01 X5.9167 Y12.6861
G01 X5.8986 Y12.6902
G01 X5.8782 Y12.6937
G01 X5.8573 Y12.6967
G01 X5.8377 Y12.6985
G01 X5.8145 Y12.6997
G01 X5.8000 Y12.7000
G01 X3.8000 Y12.7000
G01 X3.7804 Y12.6995
G01 X3.7623 Y12.6985
G01 X3.7427 Y12.6967
G01 X3.7114 Y12.6921
G01 X3.6921 Y12.6882
G01 X3.6738 Y12.6837
G01 X3.6554 Y12.6786
G01 X3.6362 Y12.6723
G01 X3.6182 Y12.6657
G01 X3.6000 Y12.6582
G01 X3.5818 Y12.6498
G01 X3.5646 Y12.6411
G01 X3.5472 Y12.6313
G01 X3.5293 Y12.6204
G01 X3.5131 Y12.6094
G01 X3.5000 Y12.5999
G01 X3.4869 Y12.6094
G01 X3.4707 Y12.6204
G01 X3.4528 Y12.6313
G01 X3.4354 Y12.6411
G01 X3.4093 Y12.6540
G01 X3.3906 Y12.6623
G01 X3.3730 Y12.6690
G01 X3.3542 Y12.6756
G01 X3.3355 Y12.6813
G01 X3.3167 Y12.6861
G01 X3.2990 Y12.6901
G01 X3.2782 Y12.6937
G01 X3.2573 Y12.6967
G01 X3.2377 Y12.6985
G01 X3.2145 Y12.6997
G01 X3.2000 Y12.7000
G01 X1.2000 Y12.7000
G01 X1.1855 Y12.6997
G01 X1.1540 Y12.6979
G01 X1.1427 Y12.6967
G01 X1.1218 Y12.6937
G01 X1.1113 Y12.6920
G01 X1.0920 Y12.6882
G01 X1.0644 Y12.6812
G01 X1.0362 Y12.6723
G01 X1.0094 Y12.6623
G01 X0.9907 Y12.6540
G01 X0.9646 Y12.6411
G01 X0.9388 Y12.6262
G01 X0.9298 Y12.6207
G01 X0.9135 Y12.6097
G01 X0.8978 Y12.5982
G01 X0.8823 Y12.5861
G01 X0.8607 Y12.5671
G01 X0.8396 Y12.5465
G01 X0.8193 Y12.5241
G01 X0.8069 Y12.5089
G01 X0.7952 Y12.4933
G01 X0.7787 Y12.4693
G01 X0.7687 Y12.4528
G01 X0.7597 Y12.4369
G01 X0.7460 Y12.4093
G01 X0.7344 Y12.3822
G01 X0.7245 Y12.3547
G01 X0.7163 Y12.3262
G01 X0.7096 Y12.2976
G01 X0.7063 Y12.2782
G01 X0.7035 Y12.2586
G01 X0.7010 Y12.2294
G01 X0.7000 Y12.2000
G01 X0.7000 Y8.2000
G01 X0.7005 Y8.1804
G01 X0.7024 Y8.1513
G01 X0.7048 Y8.1315
G01 X0.7096 Y8.1024
G01 X0.7139 Y8.0833
G01 X0.7188 Y8.0641
G01 X0.7245 Y8.0453
G01 X0.7310 Y8.0270
G01 X0.7381 Y8.0087
G01 X0.7460 Y7.9907
G01 X0.7550 Y7.9720
G01 X0.7643 Y7.9547
G01 X0.7742 Y7.9381
G01 X0.7847 Y7.9215
G01 X0.7956 Y7.9062
G01 X0.8129 Y7.8835
G01 X0.8263 Y7.8679
G01 X0.8398 Y7.8532
G01 X0.8537 Y7.8394
G01 X0.8756 Y7.8195
G01 X0.8907 Y7.8072
G01 X0.9062 Y7.7956
G01 X0.9213 Y7.7849
G01 X0.9388 Y7.7738
G01 X0.9559 Y7.7637
G01 X0.9732 Y7.7544
G01 X0.9907 Y7.7460
G01 X1.0094 Y7.7377
G01 X1.0362 Y7.7277
G01 X1.0551 Y7.7215
G01 X1.0738 Y7.7163
G01 X1.0920 Y7.7118
G01 X1.1113 Y7.7080
G01 X1.1315 Y7.7048
G01 X1.1427 Y7.7033
G01 X1.1623 Y7.7015
G01 X1.1855 Y7.7003
G01 X1.2000 Y7.7000
G01 X3.2000 Y7.7000
G01 X3.2145 Y7.7003
G01 X3.2460 Y7.7021
G01 X3.2685 Y7.7048
G01 X3.2886 Y7.7079
G01 X3.3079 Y7.7118
G01 X3.3262 Y7.7163
G01 X3.3446 Y7.7214
G01 X3.3638 Y7.7277
G01 X3.3818 Y7.7343
G01 X3.4000 Y7.7418
G01 X3.4182 Y7.7502
G01 X3.4354 Y7.7589
G01 X3.4528 Y7.7687
G01 X3.4707 Y7.7796
G01 X3.4869 Y7.7906
G01 X3.5000 Y7.8001
G01 X3.5201 Y7.7857
G01 X3.5472 Y7.7687
G01 X3.5646 Y7.7589
G01 X3.5907 Y7.7460
G01 X3.6000 Y7.7418
G01 X3.6182 Y7.7343
G01 X3.6458 Y7.7244
G01 X3.6645 Y7.7187
G01 X3.6921 Y7.7118
G01 X3.7114 Y7.7079
G01 X3.7427 Y7.7033
G01 X3.7623 Y7.7015
G01 X3.7804 Y7.7005
G01 X3.8000 Y7.7000
G01 X3.9498 Y7.7000
G01 X3.9498 Y2.9383
G01 X3.8925 Y2.8750
G01 X3.8734 Y2.8526
G01 X3.8613 Y2.8371
G01 X3.8116 Y2.7701
G01 X3.7914 Y2.7405
G01 X3.7415 Y2.6577
G01 X3.7272 Y2.6320
G01 X3.7184 Y2.6145
G01 X3.6827 Y2.5391
G01 X3.6776 Y2.5278
G01 X3.6677 Y2.5038
G01 X3.6358 Y2.4152
G01 X3.6268 Y2.3872
G01 X3.6216 Y2.3682
G01 X3.6013 Y2.2873
G01 X3.5945 Y2.2554
G01 X3.5917 Y2.2392
G01 X3.5795 Y2.1567
G01 X3.5761 Y2.1274
G01 X3.5747 Y2.1078
G01 X3.5706 Y2.0245
G01 X3.5701 Y2.0049
G01 X3.5703 Y1.9842
G01 X3.5753 Y1.8828
G01 X3.5771 Y1.8628
G01 X3.5795 Y1.8433
G01 X3.5917 Y1.7608
G01 X3.5951 Y1.7415
G01 X3.6013 Y1.7127
G01 X3.6216 Y1.6318
G01 X3.6246 Y1.6205
G01 X3.6319 Y1.5963
G01 X3.6677 Y1.4962
G01 X3.6776 Y1.4722
G01 X3.6827 Y1.4609
G01 X3.7184 Y1.3855
G01 X3.7272 Y1.3680
G01 X3.7415 Y1.3423
G01 X3.7844 Y1.2707
G01 X3.8003 Y1.2460
G01 X3.8116 Y1.2299
G01 X3.8675 Y1.1549
G01 X3.8796 Y1.1399
G01 X3.8925 Y1.1250
G01 X3.9485 Y1.0632
G01 X3.9620 Y1.0490
G01 X3.9832 Y1.0285
G01 X4.0450 Y0.9725
G01 X4.0533 Y0.9651
G01 X4.0731 Y0.9489
G01 X4.1564 Y0.8869
G01 X4.1741 Y0.8749
G01 X4.1907 Y0.8644
G01 X4.2623 Y0.8215
G01 X4.2880 Y0.8072
G01 X4.3055 Y0.7984
G01 X4.3809 Y0.7627
G01 X4.3989 Y0.7548
G01 X4.4190 Y0.7466
G01 X4.5120 Y0.7133
G01 X4.5328 Y0.7068
G01 X4.5518 Y0.7016
G01 X4.6327 Y0.6813
G01 X4.6518 Y0.6770
G01 X4.6808 Y0.6717
G01 X4.7633 Y0.6595
G01 X4.7828 Y0.6571
G01 X4.8028 Y0.6553
G01 X4.9060 Y0.6502
G01 X4.9249 Y0.6501
G01 X4.9445 Y0.6506
G01 X5.0278 Y0.6547
G01 X5.0474 Y0.6561
G01 X5.0767 Y0.6595
G01 X5.1592 Y0.6717
G01 X5.1882 Y0.6770
G01 X5.2073 Y0.6813
G01 X5.2882 Y0.7016
G01 X5.3072 Y0.7068
G01 X5.3280 Y0.7133
G01 X5.4226 Y0.7472
G01 X5.4411 Y0.7548
G01 X5.4591 Y0.7627
G01 X5.5345 Y0.7984
G01 X5.5607 Y0.8118
G01 X5.5777 Y0.8215
G01 X5.6493 Y0.8644
G01 X5.6659 Y0.8749
G01 X5.6836 Y0.8869
G01 X5.7669 Y0.9489
G01 X5.7802 Y0.9597
G01 X5.7950 Y0.9725
G01 X5.8646 Y1.0358
G01 X5.8780 Y1.0490
G01 X5.8915 Y1.0632
G01 X5.9475 Y1.1250
G01 X5.9604 Y1.1399
G01 X5.9787 Y1.1629
G01 X6.0285 Y1.2301
G01 X6.0397 Y1.2460
G01 X6.0492 Y1.2603
G01 X6.0985 Y1.3423
G01 X6.1082 Y1.3593
G01 X6.1171 Y1.3762
G01 X6.1624 Y1.4722
G01 X6.1723 Y1.4962
G01 X6.1900 Y1.5452
G01 X6.2077 Y1.4962
G01 X6.2176 Y1.4722
G01 X6.2629 Y1.3762
G01 X6.2718 Y1.3593
G01 X6.2815 Y1.3423
G01 X6.3244 Y1.2707
G01 X6.3349 Y1.2541
G01 X6.3463 Y1.2372
G01 X6.4013 Y1.1629
G01 X6.4134 Y1.1474
G01 X6.4325 Y1.1250
G01 X6.4885 Y1.0632
G01 X6.5020 Y1.0490
G01 X6.5154 Y1.0358
G01 X6.5933 Y0.9651
G01 X6.6131 Y0.9489
G01 X6.6229 Y0.9413
G01 X6.6899 Y0.8916
G01 X6.7060 Y0.8803
G01 X6.7237 Y0.8687
G01 X6.8023 Y0.8215
G01 X6.8193 Y0.8118
G01 X6.8455 Y0.7984
G01 X6.9209 Y0.7627
G01 X6.9389 Y0.7548
G01 X6.9590 Y0.7466
G01 X7.0448 Y0.7158
G01 X7.0635 Y0.7097
G01 X7.0918 Y0.7016
G01 X7.1727 Y0.6813
G01 X7.1918 Y0.6770
G01 X7.2114 Y0.6733
G01 X7.3033 Y0.6595
G01 X7.3326 Y0.6561
G01 X7.3522 Y0.6547
G01 X7.4460 Y0.6502
G01 X7.4758 Y0.6503
G01 X7.5678 Y0.6547
G01 X7.5972 Y0.6571
G01 X7.6167 Y0.6595
G01 X7.6992 Y0.6717
G01 X7.7282 Y0.6770
G01 X7.7473 Y0.6813
G01 X7.8282 Y0.7016
G01 X7.8565 Y0.7097
G01 X7.8752 Y0.7158
G01 X7.9537 Y0.7439
G01 X7.9720 Y0.7510
G01 X7.9991 Y0.7627
G01 X8.0745 Y0.7984
G01 X8.1007 Y0.8118
G01 X8.1177 Y0.8215
G01 X8.1963 Y0.8687
G01 X8.2236 Y0.8869
G01 X8.2971 Y0.9413
G01 X8.3202 Y0.9597
G01 X8.3350 Y0.9725
G01 X8.3968 Y1.0285
G01 X8.4110 Y1.0420
G01 X8.4315 Y1.0632
G01 X8.4875 Y1.1250
G01 X8.5066 Y1.1474
G01 X8.5187 Y1.1629
G01 X8.5685 Y1.2301
G01 X8.5851 Y1.2541
G01 X8.5956 Y1.2707
G01 X8.6385 Y1.3423
G01 X8.6500 Y1.3628
G01 X8.6500 Y1.1500
G01 X8.6510 Y1.1206
G01 X8.6533 Y1.0927
G01 X8.6563 Y1.0718
G01 X8.6599 Y1.0508
G01 X8.6663 Y1.0238
G01 X8.6715 Y1.0051
G01 X8.6777 Y0.9862
G01 X8.6877 Y0.9594
G01 X8.6960 Y0.9407
G01 X8.7089 Y0.9146
G01 X8.7238 Y0.8888
G01 X8.7351 Y0.8709
G01 X8.7518 Y0.8478
G01 X8.7639 Y0.8323
G01 X8.7829 Y0.8107
G01 X8.7964 Y0.7964
G01 X8.8179 Y0.7763
G01 X8.8341 Y0.7625
G01 X8.8567 Y0.7452
G01 X8.8728 Y0.7339
G01 X8.8972 Y0.7187
G01 X8.9224 Y0.7048
G01 X8.9496 Y0.6919
G01 X8.9678 Y0.6844
G01 X8.9953 Y0.6745
G01 X9.0141 Y0.6688
G01 X9.0333 Y0.6639
G01 X9.0524 Y0.6596
G01 X9.0815 Y0.6548
G01 X9.1109 Y0.6516
G01 X9.1304 Y0.6505
G01 X9.1500 Y0.6500
G01 X10.8500 Y0.6500
G01 X10.8696 Y0.6505
G01 X10.8987 Y0.6524
G01 X10.9185 Y0.6548
G01 X10.9476 Y0.6596
G01 X10.9762 Y0.6663
G01 X10.9955 Y0.6716
G01 X11.0230 Y0.6810
G01 X11.0504 Y0.6919
G01 X11.0780 Y0.7050
G01 X11.1028 Y0.7187
G01 X11.1285 Y0.7347
G01 X11.1438 Y0.7456
G01 X11.1588 Y0.7568
G01 X11.1744 Y0.7695
G01 X11.1821 Y0.7763
G01 X11.2040 Y0.7969
G01 X11.2171 Y0.8107
G01 X11.2305 Y0.8256
G01 X11.2486 Y0.8483
G01 X11.2651 Y0.8713
G01 X11.2762 Y0.8888
G01 X11.2863 Y0.9059
G01 X11.2998 Y0.9318
G01 X11.3123 Y0.9594
G01 X11.3223 Y0.9862
G01 X11.3312 Y1.0144
G01 X11.3361 Y1.0333
G01 X11.3401 Y1.0508
G01 X11.3452 Y1.0815
G01 X11.3467 Y1.0927
G01 X11.3485 Y1.1123
G01 X11.3497 Y1.1355
G01 X11.3500 Y1.1500
G01 X11.3500 Y2.8500
G01 X11.3497 Y2.8645
G01 X11.3485 Y2.8877
G01 X11.3467 Y2.9073
G01 X11.3421 Y2.9386
G01 X11.3382 Y2.9579
G01 X11.3313 Y2.9855
G01 X11.3256 Y3.0042
G01 X11.3157 Y3.0318
G01 X11.3082 Y3.0500
G01 X11.2998 Y3.0682
G01 X11.2911 Y3.0854
G01 X11.2762 Y3.1112
G01 X11.2643 Y3.1299
G01 X11.2544 Y3.1438
G01 X11.2368 Y3.1668
G01 X11.2237 Y3.1821
G01 X11.2036 Y3.2036
G01 X11.1893 Y3.2171
G01 X11.1746 Y3.2303
G01 X11.1594 Y3.2427
G01 X11.1353 Y3.2606
G01 X11.1190 Y3.2715
G01 X11.0962 Y3.2852
G01 X11.0780 Y3.2950
G01 X11.0500 Y3.3082
G01 X11.0318 Y3.3157
G01 X11.0138 Y3.3223
G01 X10.9946 Y3.3286
G01 X10.9667 Y3.3361
G01 X10.9476 Y3.3404
G01 X10.9282 Y3.3437
G01 X10.8996 Y3.3475
G01 X10.8794 Y3.3490
G01 X10.8502 Y3.3500
G01 X10.8502 Y3.8478
G01 X10.9023 Y3.9000
G01 X11.2500 Y3.9000
G01 X11.2696 Y3.9005
G01 X11.2895 Y3.9016
G01 X11.3091 Y3.9035
G01 X11.3282 Y3.9063
G01 X11.3388 Y3.9080
G01 X11.3580 Y3.9118
G01 X11.3762 Y3.9163
G01 X11.3946 Y3.9214
G01 X11.4138 Y3.9277
G01 X11.4318 Y3.9343
G01 X11.4500 Y3.9418
G01 X11.4780 Y3.9550
G01 X11.4953 Y3.9643
G01 X11.5202 Y3.9793
G01 X11.5365 Y3.9903
G01 X11.5604 Y4.0081
G01 X11.5752 Y4.0202
G01 X11.5893 Y4.0329
G01 X11.6036 Y4.0464
G01 X11.6237 Y4.0679
G01 X11.6361 Y4.0823
G01 X11.6544 Y4.1062
G01 X11.6707 Y4.1298
G01 X11.6813 Y4.1472
G01 X11.6915 Y4.1654
G01 X11.7000 Y4.1823
G01 X11.7000 Y0.3000
G01 X0.3000 Y0.3000
G01 X0.3000 Y21.7000
G00 X0.3000 Y21.7000
G01 F40.00
G01 Z-0.0950
G01 F80.00
G01 X0.3000 Y0.3000
G01 X11.7000 Y0.3000
G01 X11.7000 Y4.1823
G01 X11.6915 Y4.1654
G01 X11.6813 Y4.1472
G01 X11.6707 Y4.1298
G01 X11.6544 Y4.1062
G01 X11.6361 Y4.0823
G01 X11.6237 Y4.0679
G01 X11.6036 Y4.0464
G01 X11.5893 Y4.0329
G01 X11.5752 Y4.0202
G01 X11.5604 Y4.0081
G01 X11.5365 Y3.9903
G01 X11.5202 Y3.9793
G01 X11.4953 Y3.9643
G01 X11.4780 Y3.9550
G01 X11.4500 Y3.9418
G01 X11.4318 Y3.9343
G01 X11.4138 Y3.9277
G01 X11.3946 Y3.9214
G01 X11.3762 Y3.9163
G01 X11.3580 Y3.9118
G01 X11.3388 Y3.9080
G01 X11.3282 Y3.9063
G01 X11.3091 Y3.9035
G01 X11.2895 Y3.9016
G01 X11.2696 Y3.9005
G01 X11.2500 Y3.9000
G01 X10.9023 Y3.9000
G01 X10.8502 Y3.8478
G01 X10.8502 Y3.3500
G01 X10.8794 Y3.3490
G01 X10.8996 Y3.3475
G01 X10.9282 Y3.3437
G01 X10.9476 Y3.3404
G01 X10.9667 Y3.3361
G01 X10.9946 Y3.3286
G01 X11.0138 Y3.3223
G01 X11.0318 Y3.3157
G01 X11.0500 Y3.3082
G01 X11.0780 Y3.2950
G01 X11.0962 Y3.2852
G01 X11.1190 Y3.2715
G01 X11.1353 Y3.2606
G01 X11.1594 Y3.2427
G01 X11.1746 Y3.2303
G01 X11.1893 Y3.2171
G01 X11.2036 Y3.2036
G01 X11.2237 Y3.1821
G01 X11.2368 Y3.1668
G01 X11.2544 Y3.1438
G01 X11.2643 Y3.1299
G01 X11.2762 Y3.1112
G01 X11.2911 Y3.0854
G01 X11.2998 Y3.0682
G01 X11.3082 Y3.0500
G01 X11.3157 Y3.0318
G01 X11.3256 Y3.0042
G01 X11.3313 Y2.9855
G01 X11.3382 Y2.9579
G01 X11.3421 Y2.9386
G01 X11.3467 Y2.9073
G01 X11.3485 Y2.8877
G01 X11.3497 Y2.8645
G01 X11.3500 Y2.8500
G01 X11.3500 Y1.1500
G01 X11.3497 Y1.1355
G01 X11.3485 Y1.1123
G01 X11.3467 Y1.0927
G01 X11.3452 Y1.0815
G01 X11.3401 Y1.0508
G01 X11.3361 Y1.0333
G01 X11.3312 Y1.0144
G01 X11.3223 Y0.9862
G01 X11.3123 Y0.9594
G01 X11.2998 Y0.9318
G01 X11.2863 Y0.9059
G01 X11.2762 Y0.8888
G01 X11.2651 Y0.8713
G01 X11.2486 Y0.8483
G01 X11.2305 Y0.8256
G01 X11.2171 Y0.8107
G01 X11.2040 Y0.7969
G01 X11.1821 Y0.7763
G01 X11.1744 Y0.7695
G01 X11.1588 Y0.7568
G01 X11.1438 Y0.7456
G01 X11.1285 Y0.7347
G01 X11.1028 Y0.7187
G01 X11.0780 Y0.7050
G01 X11.0504 Y0.6919
G01 X11.0230 Y0.6810
G01 X10.9955 Y0.6716
G01 X10.9762 Y0.6663
G01 X10.9476 Y0.6596
G01 X10.9185 Y0.6548
G01 X10.8987 Y0.6524
G01 X10.8696 Y0.6505
G01 X10.8500 Y0.6500
G01 X9.1500 Y0.6500
G01 X9.1304 Y0.6505
G01 X9.1109 Y0.6516
G01 X9.0815 Y0.6548
G01 X9.0524 Y0.6596
G01 X9.0333 Y0.6639
G01 X9.0141 Y0.6688
G01 X8.9953 Y0.6745
G01 X8.9678 Y0.6844
G01 X8.9496 Y0.6919
G01 X8.9224 Y0.7048
G01 X8.8972 Y0.7187
G01 X8.8728 Y0.7339
G01 X8.8567 Y0.7452
G01 X8.8341 Y0.7625
G01 X8.8179 Y0.7763
G01 X8.7964 Y0.7964
G01 X8.7829 Y0.8107
G01 X8.7639 Y0.8323
G01 X8.7518 Y0.8478
G01 X8.7351 Y0.8709
G01 X8.7238 Y0.8888
G01 X8.7089 Y0.9146
G01 X8.6960 Y0.9407
G01 X8.6877 Y0.9594
G01 X8.6777 Y0.9862
G01 X8.6715 Y1.0051
G01 X8.6663 Y1.0238
G01 X8.6599 Y1.0508
G01 X8.6563 Y1.0718
G01 X8.6533 Y1.0927
G01 X8.6510 Y1.1206
G01 X8.6500 Y1.1500
G01 X8.6500 Y1.3628
G01 X8.6385 Y1.3423
G01 X8.5956 Y1.2707
G01 X8.5851 Y1.2541
G01 X8.5685 Y1.2301
G01 X8.5187 Y1.1629
G01 X8.5066 Y1.1474
G01 X8.4875 Y1.1250
G01 X8.4315 Y1.0632
G01 X8.4110 Y1.0420
G01 X8.3968 Y1.0285
G01 X8.3350 Y0.9725
G01 X8.3202 Y0.9597
G01 X8.2971 Y0.9413
G01 X8.2236 Y0.8869
G01 X8.1963 Y0.8687
G01 X8.1177 Y0.8215
G01 X8.1007 Y0.8118
G01 X8.0745 Y0.7984
G01 X7.9991 Y0.7627
G01 X7.9720 Y0.7510
G01 X7.9537 Y0.7439
G01 X7.8752 Y0.7158
G01 X7.8565 Y0.7097
G01 X7.8282 Y0.7016
G01 X7.7473 Y0.6813
G01 X7.7282 Y0.6770
G01 X7.6992 Y0.6717
G01 X7.6167 Y0.6595
G01 X7.5972 Y0.6571
G01 X7.5678 Y0.6547
G01 X7.4758 Y0.6503
G01 X7.4460 Y0.6502
G01 X7.3522 Y0.6547
G01 X7.3326 Y0.6561
G01 X7.3033 Y0.6595
G01 X7.2114 Y0.6733
G01 X7.1918 Y0.6770
G01 X7.1727 Y0.6813
G01 X7.0918 Y0.7016
G01 X7.0635 Y0.7097
G01 X7.0448 Y0.7158
G01 X6.9590 Y0.7466
G01 X6.9389 Y0.7548
G01 X6.9209 Y0.7627
G01 X6.8455 Y0.7984
G01 X6.8193 Y0.8118
G01 X6.8023 Y0.8215
G01 X6.7237 Y0.8687
G01 X6.7060 Y0.8803
G01 X6.6899 Y0.8916
G01 X6.6229 Y0.9413
G01 X6.6131 Y0.9489
G01 X6.5933 Y0.9651
G01 X6.5154 Y1.0358
G01 X6.5020 Y1.0490
G01 X6.4885 Y1.0632
G01 X6.4325 Y1.1250
G01 X6.4134 Y1.1474
G01 X6.4013 Y1.1629
G01 X6.3463 Y1.2372
G01 X6.3349 Y1.2541
G01 X6.3244 Y1.2707
G01 X6.2815 Y1.3423
G01 X6.2718 Y1.3593
G01 X6.2629 Y1.3762
G01 X6.2176 Y1.4722
G01 X6.2077 Y1.4962
G01 X6.1900 Y1.5452
G01 X6.1723 Y1.4962
G01 X6.1624 Y1.4722
G01 X6.1171 Y1.3762
G01 X6.1082 Y1.3593
G01 X6.0985 Y1.3423
G01 X6.0492 Y1.2603
G01 X6.0397 Y1.2460
G01 X6.0285 Y1.2301
G01 X5.9787 Y1.1629
G01 X5.9604 Y1.1399
G01 X5.9475 Y1.1250
G01 X5.8915 Y1.0632
G01 X5.8780 Y1.0490
G01 X5.8646 Y1.0358
G01 X5.7950 Y0.9725
G01 X5.7802 Y0.9597
G01 X5.7669 Y0.9489
G01 X5.6836 Y0.8869
G01 X5.6659 Y0.8749
G01 X5.6493 Y0.8644
G01 X5.5777 Y0.8215
G01 X5.5607 Y0.8118
G01 X5.5345 Y0.7984
G01 X5.4591 Y0.7627
G01 X5.4411 Y0.7548
G01 X5.4226 Y0.7472
G01 X5.3280 Y0.7133
G01 X5.3072 Y0.7068
G01 X5.2882 Y0.7016
G01 X5.2073 Y0.6813
G01 X5.1882 Y0.6770
G01 X5.1592 Y0.6717
G01 X5.0767 Y0.6595
G01 X5.0474 Y0.6561
G01 X5.0278 Y0.6547
G01 X4.9445 Y0.6506
G01 X4.9249 Y0.6501
G01 X4.9060 Y0.6502
G01 X4.8028 Y0.6553
G01 X4.7828 Y0.6571
G01 X4.7633 Y0.6595
G01 X4.6808 Y0.6717
G01 X4.6518 Y0.6770
G01 X4.6327 Y0.6813
G01 X4.5518 Y0.7016
G01 X4.5328 Y0.7068
G01 X4.5120 Y0.7133
G01 X4.4190 Y0.7466
G01 X4.3989 Y0.7548
G01 X4.3809 Y0.7627
G01 X4.3055 Y0.7984
G01 X4.2880 Y0.8072
G01 X4.2623 Y0.8215
G01 X4.1907 Y0.8644
G01 X4.1741 Y0.8749
G01 X4.1564 Y0.8869
G01 X4.0731 Y0.9489
G01 X4.0533 Y0.9651
G01 X4.0450 Y0.9725
G01 X3.9832 Y1.0285
G01 X3.9690 Y1.0420
G01 X3.9485 Y1.0632
G01 X3.8925 Y1.1250
G01 X3.8796 Y1.1399
G01 X3.8675 Y1.1549
G01 X3.8116 Y1.2299
G01 X3.8003 Y1.2460
G01 X3.7844 Y1.2707
G01 X3.7415 Y1.3423
G01 X3.7272 Y1.3680
G01 X3.7184 Y1.3855
G01 X3.6827 Y1.4609
G01 X3.6776 Y1.4722
G01 X3.6677 Y1.4962
G01 X3.6319 Y1.5963
G01 X3.6246 Y1.6205
G01 X3.6216 Y1.6318
G01 X3.6013 Y1.7127
G01 X3.5951 Y1.7415
G01 X3.5917 Y1.7608
G01 X3.5795 Y1.8433
G01 X3.5771 Y1.8628
G01 X3.5753 Y1.8828
G01 X3.5703 Y1.9842
G01 X3.5701 Y2.0049
G01 X3.5706 Y2.0245
G01 X3.5747 Y2.1078
G01 X3.5761 Y2.1274
G01 X3.5795 Y2.1567
G01 X3.5917 Y2.2392
G01 X3.5945 Y2.2554
G01 X3.6013 Y2.2873
G01 X3.6216 Y2.3682
G01 X3.6268 Y2.3872
G01 X3.6358 Y2.4152
G01 X3.6677 Y2.5038
G01 X3.6776 Y2.5278
G01 X3.6827 Y2.5391
G01 X3.7184 Y2.6145
G01 X3.7272 Y2.6320
G01 X3.7415 Y2.6577
G01 X3.7914 Y2.7405
G01 X3.8116 Y2.7701
G01 X3.8613 Y2.8371
G01 X3.8734 Y2.8526
G01 X3.8925 Y2.8750
G01 X3.9498 Y2.9383
G01 X3.9498 Y7.7000
G01 X3.8000 Y7.7000
G01 X3.7804 Y7.7005
G01 X3.7623 Y7.7015
G01 X3.7427 Y7.7033
G01 X3.7114 Y7.7079
G01 X3.6921 Y7.7118
G01 X3.6645 Y7.7187
G01 X3.6458 Y7.7244
G01 X3.6182 Y7.7343
G01 X3.6000 Y7.7418
G01 X3.5907 Y7.7460
G01 X3.5646 Y7.7589
G01 X3.5472 Y7.7687
G01 X3.5201 Y7.7857
G01 X3.5000 Y7.8001
G01 X3.4869 Y7.7906
G01 X3.4707 Y7.7796
G01 X3.4528 Y7.7687
G01 X3.4354 Y7.7589
G01 X3.4182 Y7.7502
G01 X3.4000 Y7.7418
G01 X3.3818 Y7.7343
G01 X3.3638 Y7.7277
G01 X3.3446 Y7.7214
G01 X3.3262 Y7.7163
G01 X3.3079 Y7.7118
G01 X3.2886 Y7.7079
G01 X3.2685 Y7.7048
G01 X3.2460 Y7.7021
G01 X3.2145 Y7.7003
G01 X3.2000 Y7.7000
G01 X1.2000 Y7.7000
G01 X1.1855 Y7.7003
G01 X1.1623 Y7.7015
G01 X1.1427 Y7.7033
G01 X1.1218 Y7.7063
G01 X1.1008 Y7.7099
G01 X1.0738 Y7.7163
G01 X1.0551 Y7.7215
G01 X1.0362 Y7.7277
G01 X1.0182 Y7.7343
G01 X1.0000 Y7.7418
G01 X0.9732 Y7.7544
G01 X0.9559 Y7.7637
G01 X0.9388 Y7.7738
G01 X0.9213 Y7.7849
G01 X0.8983 Y7.8014
G01 X0.8832 Y7.8132
G01 X0.8683 Y7.8260
G01 X0.8469 Y7.8460
G01 X0.8329 Y7.8607
G01 X0.8195 Y7.8756
G01 X0.8068 Y7.8912
G01 X0.7901 Y7.9138
G01 X0.7794 Y7.9297
G01 X0.7687 Y7.9472
G01 X0.7601 Y7.9623
G01 X0.7502 Y7.9818
G01 X0.7381 Y8.0087
G01 X0.7310 Y8.0270
G01 X0.7245 Y8.0453
G01 X0.7188 Y8.0641
G01 X0.7116 Y8.0928
G01 X0.7078 Y8.1121
G01 X0.7048 Y8.1315
G01 X0.7024 Y8.1513
G01 X0.7005 Y8.1804
G01 X0.7000 Y8.2000
G01 X0.7000 Y12.2000
G01 X0.7010 Y12.2294
G01 X0.7035 Y12.2586
G01 X0.7063 Y12.2782
G01 X0.7096 Y12.2976
G01 X0.7163 Y12.3262
G01 X0.7245 Y12.3547
G01 X0.7344 Y12.3822
G01 X0.7460 Y12.4093
G01 X0.7597 Y12.4369
G01 X0.7687 Y12.4528
G01 X0.7787 Y12.4693
G01 X0.7952 Y12.4933
G01 X0.8069 Y12.5089
G01 X0.8193 Y12.5241
G01 X0.8396 Y12.5465
G01 X0.8607 Y12.5671
G01 X0.8823 Y12.5861
G01 X0.8978 Y12.5982
G01 X0.9135 Y12.6097
G01 X0.9298 Y12.6207
G01 X0.9388 Y12.6262
G01 X0.9646 Y12.6411
G01 X0.9907 Y12.6540
G01 X1.0094 Y12.6623
G01 X1.0362 Y12.6723
G01 X1.0644 Y12.6812
G01 X1.0920 Y12.6882
G01 X1.1113 Y12.6920
G01 X1.1218 Y12.6937
G01 X1.1427 Y12.6967
G01 X1.1540 Y12.6979
G01 X1.1855 Y12.6997
G01 X1.2000 Y12.7000
G01 X3.2000 Y12.7000
G01 X3.2145 Y12.6997
G01 X3.2377 Y12.6985
G01 X3.2573 Y12.6967
G01 X3.2782 Y12.6937
G01 X3.2990 Y12.6901
G01 X3.3167 Y12.6861
G01 X3.3355 Y12.6813
G01 X3.3542 Y12.6756
G01 X3.3730 Y12.6690
G01 X3.3906 Y12.6623
G01 X3.4093 Y12.6540
G01 X3.4354 Y12.6411
G01 X3.4528 Y12.6313
G01 X3.4707 Y12.6204
G01 X3.4869 Y12.6094
G01 X3.5000 Y12.5999
G01 X3.5131 Y12.6094
G01 X3.5293 Y12.6204
G01 X3.5472 Y12.6313
G01 X3.5646 Y12.6411
G01 X3.5818 Y12.6498
G01 X3.6000 Y12.6582
G01 X3.6182 Y12.6657
G01 X3.6362 Y12.6723
G01 X3.6554 Y12.6786
G01 X3.6738 Y12.6837
G01 X3.6921 Y12.6882
G01 X3.7114 Y12.6921
G01 X3.7427 Y12.6967
G01 X3.7623 Y12.6985
G01 X3.7804 Y12.6995
G01 X3.8000 Y12.7000
G01 X5.8000 Y12.7000
G01 X5.8145 Y12.6997
G01 X5.8377 Y12.6985
G01 X5.8573 Y12.6967
G01 X5.8782 Y12.6937
G01 X5.8986 Y12.6902
G01 X5.9167 Y12.6861
G01 X5.9360 Y12.6811
G01 X5.9547 Y12.6754
G01 X5.9730 Y12.6690
G01 X5.9906 Y12.6623
G01 X6.0093 Y12.6540
G01 X6.0346 Y12.6415
G01 X6.0528 Y12.6313
G01 X6.0702 Y12.6207
G01 X6.0865 Y12.6097
G01 X6.1000 Y12.5999
G01 X6.1135 Y12.6097
G01 X6.1298 Y12.6207
G01 X6.1472 Y12.6313
G01 X6.1654 Y12.6415
G01 X6.1818 Y12.6498
G01 X6.2000 Y12.6582
G01 X6.2182 Y12.6657
G01 X6.2362 Y12.6723
G01 X6.2640 Y12.6811
G01 X6.2833 Y12.6861
G01 X6.3014 Y12.6902
G01 X6.3218 Y12.6937
G01 X6.3427 Y12.6967
G01 X6.3623 Y12.6985
G01 X6.3804 Y12.6995
G01 X6.4000 Y12.7000
G01 X8.4000 Y12.7000
G01 X8.4196 Y12.6995
G01 X8.4460 Y12.6979
G01 X8.4685 Y12.6952
G01 X8.4994 Y12.6900
G01 X8.5262 Y12.6837
G01 X8.5446 Y12.6786
G01 X8.5638 Y12.6723
G01 X8.5906 Y12.6623
G01 X8.6182 Y12.6498
G01 X8.6377 Y12.6399
G01 X8.6612 Y12.6262
G01 X8.6791 Y12.6149
G01 X8.7017 Y12.5986
G01 X8.7241 Y12.5807
G01 X8.7465 Y12.5604
G01 X8.7604 Y12.5465
G01 X8.7807 Y12.5241
G01 X8.7931 Y12.5089
G01 X8.8097 Y12.4865
G01 X8.8207 Y12.4702
G01 X8.8357 Y12.4453
G01 X8.8450 Y12.4280
G01 X8.8540 Y12.4093
G01 X8.8623 Y12.3906
G01 X8.8723 Y12.3638
G01 X8.8786 Y12.3446
G01 X8.8837 Y12.3262
G01 X8.8900 Y12.2994
G01 X8.8952 Y12.2685
G01 X8.8979 Y12.2460
G01 X8.8995 Y12.2196
G01 X8.9000 Y12.2000
G01 X8.9000 Y8.2000
G01 X8.8997 Y8.1857
G01 X8.8979 Y8.1540
G01 X8.8967 Y8.1427
G01 X8.8937 Y8.1218
G01 X8.8920 Y8.1112
G01 X8.8882 Y8.0920
G01 X8.8837 Y8.0738
G01 X8.8786 Y8.0554
G01 X8.8723 Y8.0362
G01 X8.8657 Y8.0182
G01 X8.8582 Y8.0000
G01 X8.8540 Y7.9907
G01 X8.8399 Y7.9623
G01 X8.8313 Y7.9472
G01 X8.8207 Y7.9298
G01 X8.8044 Y7.9062
G01 X8.7875 Y7.8841
G01 X8.7671 Y7.8607
G01 X8.7465 Y7.8396
G01 X8.7241 Y7.8193
G01 X8.7017 Y7.8014
G01 X8.6791 Y7.7851
G01 X8.6528 Y7.7687
G01 X8.6280 Y7.7550
G01 X8.6000 Y7.7418
G01 X8.5730 Y7.7310
G01 X8.5446 Y7.7214
G01 X8.5167 Y7.7139
G01 X8.4888 Y7.7080
G01 X8.4573 Y7.7033
G01 X8.4377 Y7.7015
G01 X8.4143 Y7.7003
G01 X8.4000 Y7.7000
G01 X6.4000 Y7.7000
G01 X6.3855 Y7.7003
G01 X6.3540 Y7.7021
G01 X6.3315 Y7.7048
G01 X6.3116 Y7.7079
G01 X6.2923 Y7.7118
G01 X6.2738 Y7.7163
G01 X6.2544 Y7.7217
G01 X6.2362 Y7.7277
G01 X6.2182 Y7.7343
G01 X6.2000 Y7.7418
G01 X6.1818 Y7.7502
G01 X6.1654 Y7.7585
G01 X6.1472 Y7.7687
G01 X6.1298 Y7.7793
G01 X6.1135 Y7.7903
G01 X6.1000 Y7.8001
G01 X6.0791 Y7.7851
G01 X6.0528 Y7.7687
G01 X6.0346 Y7.7585
G01 X6.0093 Y7.7460
G01 X6.0000 Y7.7418
G01 X5.9818 Y7.7343
G01 X5.9547 Y7.7246
G01 X5.9360 Y7.7189
G01 X5.9077 Y7.7118
G01 X5.8884 Y7.7079
G01 X5.8573 Y7.7033
G01 X5.8377 Y7.7015
G01 X5.8196 Y7.7005
G01 X5.8000 Y7.7000
G01 X5.6502 Y7.7000
G01 X5.6502 Y3.1351
G01 X5.6659 Y3.1251
G01 X5.6812 Y3.1148
G01 X5.7571 Y3.0587
G01 X5.7801 Y3.0404
G01 X5.7950 Y3.0275
G01 X5.8637 Y2.9651
G01 X5.8851 Y2.9437
G01 X5.9533 Y2.8685
G01 X5.9725 Y2.8451
G01 X6.0284 Y2.7701
G01 X6.0451 Y2.7459
G01 X6.0556 Y2.7293
G01 X6.1049 Y2.6467
G01 X6.1163 Y2.6252
G01 X6.1216 Y2.6145
G01 X6.1624 Y2.5278
G01 X6.1723 Y2.5038
G01 X6.1900 Y2.4548
G01 X6.2077 Y2.5038
G01 X6.2176 Y2.5278
G01 X6.2637 Y2.6252
G01 X6.2751 Y2.6467
G01 X6.2815 Y2.6577
G01 X6.3244 Y2.7293
G01 X6.3349 Y2.7459
G01 X6.3469 Y2.7636
G01 X6.4013 Y2.8371
G01 X6.4134 Y2.8526
G01 X6.4325 Y2.8750
G01 X6.4885 Y2.9368
G01 X6.5090 Y2.9580
G01 X6.5232 Y2.9715
G01 X6.5850 Y3.0275
G01 X6.6098 Y3.0485
G01 X6.6098 Y4.1629
G01 X6.6042 Y4.1736
G01 X6.5960 Y4.1907
G01 X6.5918 Y4.2000
G01 X6.5843 Y4.2182
G01 X6.5746 Y4.2453
G01 X6.5663 Y4.2738
G01 X6.5598 Y4.3014
G01 X6.5548 Y4.3315
G01 X6.5516 Y4.3605
G01 X6.5501 Y4.3927
G01 X6.5500 Y5.6000
G01 X6.5505 Y5.6196
G01 X6.5516 Y5.6395
G01 X6.5535 Y5.6591
G01 X6.5563 Y5.6782
G01 X6.5579 Y5.6884
G01 X6.5618 Y5.7077
G01 X6.5663 Y5.7262
G01 X6.5717 Y5.7456
G01 X6.5777 Y5.7638
G01 X6.5843 Y5.7818
G01 X6.5918 Y5.8000
G01 X6.5960 Y5.8093
G01 X6.6085 Y5.8346
G01 X6.6187 Y5.8528
G01 X6.6293 Y5.8702
G01 X6.6403 Y5.8865
G01 X6.6576 Y5.9098
G01 X6.6700 Y5.9250
G01 X6.6829 Y5.9393
G01 X6.6964 Y5.9536
G01 X6.7179 Y5.9737
G01 X6.7323 Y5.9861
G01 X6.7483 Y5.9986
G01 X6.7635 Y6.0097
G01 X6.7798 Y6.0207
G01 X6.8062 Y6.0365
G01 X6.8236 Y6.0458
G01 X6.8407 Y6.0540
G01 X6.8594 Y6.0623
G01 X6.8862 Y6.0723
G01 X6.9044 Y6.0783
G01 X6.9333 Y6.0861
G01 X6.9616 Y6.0921
G01 X6.9815 Y6.0952
G01 X7.0004 Y6.0975
G01 X7.0304 Y6.0995
G01 X7.0500 Y6.1000
G01 X7.3977 Y6.1000
G01 X10.1498 Y8.8522
G01 X10.1498 Y16.6498
G01 X8.9000 Y16.6498
G01 X8.9000 Y15.8000
G01 X8.8997 Y15.7857
G01 X8.8979 Y15.7540
G01 X8.8952 Y15.7315
G01 X8.8920 Y15.7112
G01 X8.8882 Y15.6920
G01 X8.8837 Y15.6738
G01 X8.8756 Y15.6458
G01 X8.8690 Y15.6270
G01 X8.8623 Y15.6094
G01 X8.8498 Y15.5818
G01 X8.8450 Y15.5720
G01 X8.8357 Y15.5547
G01 X8.8262 Y15.5388
G01 X8.8149 Y15.5209
G01 X8.8044 Y15.5062
G01 X8.7931 Y15.4911
G01 X8.7807 Y15.4759
G01 X8.7737 Y15.4679
G01 X8.7536 Y15.4464
G01 X8.7393 Y15.4329
G01 X8.7241 Y15.4193
G01 X8.7089 Y15.4069
G01 X8.6938 Y15.3956
G01 X8.6702 Y15.3793
G01 X8.6528 Y15.3687
G01 X8.6377 Y15.3601
G01 X8.6182 Y15.3502
G01 X8.6000 Y15.3418
G01 X8.5818 Y15.3343
G01 X8.5638 Y15.3277
G01 X8.5355 Y15.3187
G01 X8.5167 Y15.3139
G01 X8.4994 Y15.3100
G01 X8.4685 Y15.3048
G01 X8.4573 Y15.3033
G01 X8.4377 Y15.3015
G01 X8.4143 Y15.3003
G01 X8.4000 Y15.3000
G01 X6.4000 Y15.3000
G01 X6.3855 Y15.3003
G01 X6.3540 Y15.3021
G01 X6.3315 Y15.3048
G01 X6.3116 Y15.3079
G01 X6.2923 Y15.3118
G01 X6.2738 Y15.3163
G01 X6.2544 Y15.3217
G01 X6.2362 Y15.3277
G01 X6.2182 Y15.3343
G01 X6.2000 Y15.3418
G01 X6.1818 Y15.3502
G01 X6.1654 Y15.3585
G01 X6.1472 Y15.3687
G01 X6.1298 Y15.3793
G01 X6.1135 Y15.3903
G01 X6.1000 Y15.4001
G01 X6.0865 Y15.3903
G01 X6.0702 Y15.3793
G01 X6.0528 Y15.3687
G01 X6.0346 Y15.3585
G01 X6.0093 Y15.3460
G01 X5.9906 Y15.3377
G01 X5.9730 Y15.3310
G01 X5.9547 Y15.3246
G01 X5.9360 Y15.3189
G01 X5.9167 Y15.3139
G01 X5.8986 Y15.3098
G01 X5.8782 Y15.3063
G01 X5.8573 Y15.3033
G01 X5.8377 Y15.3015
G01 X5.8145 Y15.3003
G01 X5.8000 Y15.3000
G01 X3.8000 Y15.3000
G01 X3.7804 Y15.3005
G01 X3.7623 Y15.3015
G01 X3.7427 Y15.3033
G01 X3.7114 Y15.3079
G01 X3.6921 Y15.3118
G01 X3.6738 Y15.3163
G01 X3.6554 Y15.3214
G01 X3.6362 Y15.3277
G01 X3.6182 Y15.3343
G01 X3.6000 Y15.3418
G01 X3.5818 Y15.3502
G01 X3.5646 Y15.3589
G01 X3.5472 Y15.3687
G01 X3.5293 Y15.3796
G01 X3.5131 Y15.3906
G01 X3.5000 Y15.4001
G01 X3.4869 Y15.3906
G01 X3.4707 Y15.3796
G01 X3.4528 Y15.3687
G01 X3.4354 Y15.3589
G01 X3.4182 Y15.3502
G01 X3.4000 Y15.3418
G01 X3.3818 Y15.3343
G01 X3.3638 Y15.3277
G01 X3.3446 Y15.3214
G01 X3.3262 Y15.3163
G01 X3.3079 Y15.3118
G01 X3.2886 Y15.3079
G01 X3.2685 Y15.3048
G01 X3.2460 Y15.3021
G01 X3.2145 Y15.3003
G01 X3.2000 Y15.3000
G01 X1.2000 Y15.3000
G01 X1.1804 Y15.3005
G01 X1.1540 Y15.3021
G01 X1.1315 Y15.3048
G01 X1.1113 Y15.3080
G01 X1.0920 Y15.3118
G01 X1.0644 Y15.3188
G01 X1.0456 Y15.3245
G01 X1.0182 Y15.3343
G01 X1.0000 Y15.3418
G01 X0.9907 Y15.3460
G01 X0.9732 Y15.3544
G01 X0.9559 Y15.3637
G01 X0.9388 Y15.3738
G01 X0.9213 Y15.3849
G01 X0.9062 Y15.3956
G01 X0.8907 Y15.4072
G01 X0.8683 Y15.4260
G01 X0.8537 Y15.4394
G01 X0.8398 Y15.4532
G01 X0.8263 Y15.4679
G01 X0.8129 Y15.4835
G01 X0.8014 Y15.4983
G01 X0.7901 Y15.5138
G01 X0.7742 Y15.5381
G01 X0.7643 Y15.5547
G01 X0.7550 Y15.5720
G01 X0.7460 Y15.5907
G01 X0.7381 Y15.6087
G01 X0.7310 Y15.6270
G01 X0.7245 Y15.6453
G01 X0.7163 Y15.6738
G01 X0.7116 Y15.6928
G01 X0.7078 Y15.7121
G01 X0.7048 Y15.7315
G01 X0.7024 Y15.7513
G01 X0.7005 Y15.7804
G01 X0.7000 Y15.8000
G01 X0.7001 Y19.8089
G01 X0.7010 Y19.8294
G01 X0.7024 Y19.8494
G01 X0.7048 Y19.8685
G01 X0.7094 Y19.8967
G01 X0.7137 Y19.9159
G01 X0.7210 Y19.9435
G01 X0.7277 Y19.9638
G01 X0.7385 Y19.9924
G01 X0.7460 Y20.0093
G01 X0.7569 Y20.0317
G01 X0.7687 Y20.0528
G01 X0.7843 Y20.0779
G01 X0.7956 Y20.0938
G01 X0.8083 Y20.1107
G01 X0.8208 Y20.1258
G01 X0.8381 Y20.1449
G01 X0.8519 Y20.1589
G01 X0.8741 Y20.1791
G01 X0.8946 Y20.1958
G01 X0.9153 Y20.2110
G01 X0.9328 Y20.2226
G01 X0.9553 Y20.2360
G01 X0.9722 Y20.2451
G01 X1.0033 Y20.2597
G01 X1.0270 Y20.2690
G01 X1.0551 Y20.2785
G01 X1.0738 Y20.2837
G01 X1.0995 Y20.2898
G01 X1.1180 Y20.2932
G01 X1.1468 Y20.2972
G01 X1.1706 Y20.2990
G01 X1.1902 Y20.2999
G01 X3.2000 Y20.3000
G01 X3.2196 Y20.2995
G01 X3.2413 Y20.2983
G01 X3.2532 Y20.2972
G01 X3.2685 Y20.2952
G01 X3.2920 Y20.2915
G01 X3.3085 Y20.2881
G01 X3.3355 Y20.2813
G01 X3.3638 Y20.2723
G01 X3.3808 Y20.2661
G01 X3.3961 Y20.2600
G01 X3.4182 Y20.2498
G01 X3.4346 Y20.2415
G01 X3.4518 Y20.2319
G01 X3.4681 Y20.2220
G01 X3.4845 Y20.2112
G01 X3.5000 Y20.1999
G01 X3.5151 Y20.2109
G01 X3.5324 Y20.2223
G01 X3.5472 Y20.2313
G01 X3.5639 Y20.2407
G01 X3.5814 Y20.2496
G01 X3.6033 Y20.2597
G01 X3.6190 Y20.2661
G01 X3.6362 Y20.2723
G01 X3.6645 Y20.2813
G01 X3.6915 Y20.2881
G01 X3.7080 Y20.2915
G01 X3.7315 Y20.2952
G01 X3.7468 Y20.2972
G01 X3.7706 Y20.2990
G01 X3.7902 Y20.2999
G01 X5.8000 Y20.3000
G01 X5.8196 Y20.2995
G01 X5.8413 Y20.2983
G01 X5.8532 Y20.2972
G01 X5.8685 Y20.2952
G01 X5.8917 Y20.2915
G01 X5.9084 Y20.2881
G01 X5.9360 Y20.2811
G01 X5.9638 Y20.2723
G01 X5.9843 Y20.2648
G01 X5.9954 Y20.2602
G01 X6.0182 Y20.2498
G01 X6.0331 Y20.2423
G01 X6.0503 Y20.2327
G01 X6.0677 Y20.2223
G01 X6.0841 Y20.2115
G01 X6.1000 Y20.1999
G01 X6.1151 Y20.2109
G01 X6.1324 Y20.2223
G01 X6.1472 Y20.2313
G01 X6.1639 Y20.2407
G01 X6.1814 Y20.2496
G01 X6.2033 Y20.2597
G01 X6.2190 Y20.2661
G01 X6.2362 Y20.2723
G01 X6.2640 Y20.2811
G01 X6.2916 Y20.2881
G01 X6.3083 Y20.2915
G01 X6.3315 Y20.2952
G01 X6.3468 Y20.2972
G01 X6.3587 Y20.2983
G01 X6.3804 Y20.2995
G01 X6.4000 Y20.3000
G01 X8.4000 Y20.3000
G01 X8.4294 Y20.2990
G01 X8.4532 Y20.2972
G01 X8.4782 Y20.2937
G01 X8.5005 Y20.2898
G01 X8.5355 Y20.2813
G01 X8.5542 Y20.2756
G01 X8.5730 Y20.2690
G01 X8.5967 Y20.2597
G01 X8.6182 Y20.2498
G01 X8.6377 Y20.2399
G01 X8.6677 Y20.2223
G01 X8.6841 Y20.2115
G01 X8.6938 Y20.2044
G01 X8.7185 Y20.1854
G01 X8.7321 Y20.1737
G01 X8.7513 Y20.1558
G01 X8.7671 Y20.1393
G01 X8.7792 Y20.1258
G01 X8.7917 Y20.1107
G01 X8.7986 Y20.1017
G01 X8.8097 Y20.0865
G01 X8.8207 Y20.0702
G01 X8.8373 Y20.0423
G01 X8.8465 Y20.0250
G01 X8.8577 Y20.0013
G01 X8.8652 Y19.9831
G01 X8.8690 Y19.9730
G01 X8.8792 Y19.9427
G01 X8.8861 Y19.9167
G01 X8.8900 Y19.8994
G01 X8.8952 Y19.8685
G01 X8.8978 Y19.8467
G01 X8.8995 Y19.8196
G01 X8.9000 Y19.8000
G01 X8.9000 Y18.3502
G01 X11.0000 Y18.3502
G01 X11.0245 Y18.3496
G01 X11.0589 Y18.3479
G01 X11.0784 Y18.3464
G01 X11.0969 Y18.3445
G01 X11.1514 Y18.3365
G01 X11.1794 Y18.3309
G01 X11.2334 Y18.3174
G01 X11.2515 Y18.3120
G01 X11.2701 Y18.3059
G01 X11.3094 Y18.2917
G01 X11.3298 Y18.2835
G01 X11.3444 Y18.2771
G01 X11.3788 Y18.2608
G01 X11.3964 Y18.2520
G01 X11.4116 Y18.2438
G01 X11.4516 Y18.2200
G01 X11.4682 Y18.2095
G01 X11.4829 Y18.1996
G01 X11.5278 Y18.1663
G01 X11.5496 Y18.1485
G01 X11.5906 Y18.1114
G01 X11.6117 Y18.0903
G01 X11.6481 Y18.0500
G01 X11.6675 Y18.0263
G01 X11.7000 Y17.9823
G01 X11.7000 Y19.8757
G01 X9.8757 Y21.7000
G01 X0.3000 Y21.7000
G00 Z2.0000
M05
G00 Z2.0000
G00 Z15.00

