(G-CODE GENERATED BY FLATCAM v8.993 - www.flatcam.org - Version Date: 2020/06/05)

(Name: simcardsniffer-PTH-1mm.drl_cnc)
(Type: G-code from Excellon)
(Units: MM)

(Created on Sunday, 22 November 2020 at 12:33)

(This preprocessor is the default preprocessor used by FlatCAM.)
(It is made to work with MACH3 compatible motion controllers.)


(TOOLS DIAMETER: )
(Tool: 1 -> Dia: 1.0)

(FEEDRATE Z: )
(Tool: 1 -> Feedrate: 60.0)

(FEEDRATE RAPIDS: )
(Tool: 1 -> Feedrate Rapids: 1500)

(Z_CUT: )
(Tool: 1 -> Z_Cut: -1.1)

(Tools Offset: )
(Tool: 1 -> Offset Z: -0.0)

(Z_MOVE: )
(Tool: 1 -> Z_Move: 2.0)

(Z Start: None mm)
(Z End: 2.0 mm)
(Steps per circle: 64)
(Preprocessor Excellon: default)

(X range:    4.4200 ...   10.5000  mm)
(Y range:    1.5000 ...    2.5000  mm)

(Spindle Speed: None RPM)
G21
G90
G94



G00 Z2.0000

G01 F60.00
M03
G00 X4.9200 Y2.0000
G01 Z-1.1000
G01 Z0
G00 Z2.0000
G00 X7.4600 Y2.0000
G01 Z-1.1000
G01 Z0
G00 Z2.0000
G00 X10.0000 Y2.0000
G01 Z-1.1000
G01 Z0
G00 Z2.0000
M05
G00 Z2.00

