(Block-name: Header)
(Block-expand: 0)
(Block-enable: 1)
(G-CODE GENERATED BY FLATCAM v8.993 - www.flatcam.org - Version Date: 2020/06/05)

(Name: simcardsniffer-Edge_Cuts_1mm_REMOVEINNER)
(Type: G-code from Geometry)
(Units: MM)

(Created on Sunday, 22 November 2020 at 14:02)

(This preprocessor is the default preprocessor used by FlatCAM.)
(It is made to work with MACH3 compatible motion controllers.)

(TOOL DIAMETER: 1.0 mm)
(Feedrate_XY: 60.0 mm/min)
(Feedrate_Z: 30.0 mm/min)
(Feedrate rapids 1500.0 mm/min)

(Z_Cut: -1.1 mm)
(DepthPerCut: 0.45 mm <=>3 passes)
(Z_Move: 2.0 mm)
(Z Start: None mm)
(Z End: 15.0 mm)
(Steps per circle: 64)
(Preprocessor Geometry: default)

(X range:   -0.5250 ...   12.5250  mm)
(Y range:   -0.5250 ...   22.5250  mm)

(Spindle Speed: None RPM)
G21
G90
G94



G01 F60.00
G00 Z2.0000
(Block-name: block)
(Block-expand: 0)
(Block-enable: 1)

M03
G00 X-0.5244 Y-0.0245
G01 F30.00
G01 Z-0.4500
G01 F60.00
G01 X-0.5235 Y-0.0392
G01 X-0.5211 Y-0.0637
G01 X-0.5172 Y-0.0904
G01 X-0.5124 Y-0.1144
G01 X-0.5058 Y-0.1406
G01 X-0.4987 Y-0.1641
G01 X-0.4896 Y-0.1895
G01 X-0.4802 Y-0.2122
G01 X-0.4741 Y-0.2256
G01 X-0.4630 Y-0.2475
G01 X-0.4497 Y-0.2709
G01 X-0.4365 Y-0.2917
G01 X-0.4224 Y-0.3117
G01 X-0.4058 Y-0.3331
G01 X-0.3882 Y-0.3535
G01 X-0.3712 Y-0.3712
G01 X-0.3516 Y-0.3898
G01 X-0.3331 Y-0.4058
G01 X-0.3117 Y-0.4224
G01 X-0.2917 Y-0.4365
G01 X-0.2709 Y-0.4497
G01 X-0.2475 Y-0.4630
G01 X-0.2233 Y-0.4751
G01 X-0.2009 Y-0.4850
G01 X-0.1780 Y-0.4939
G01 X-0.1524 Y-0.5024
G01 X-0.1264 Y-0.5095
G01 X-0.1024 Y-0.5149
G01 X-0.0782 Y-0.5191
G01 X-0.0515 Y-0.5225
G01 X-0.0270 Y-0.5243
G01 X-0.0123 Y-0.5249
G01 X12.0123 Y-0.5249
G01 X12.0270 Y-0.5243
G01 X12.0515 Y-0.5225
G01 X12.0782 Y-0.5191
G01 X12.0904 Y-0.5172
G01 X12.1144 Y-0.5124
G01 X12.1288 Y-0.5090
G01 X12.1524 Y-0.5024
G01 X12.1757 Y-0.4947
G01 X12.1895 Y-0.4896
G01 X12.2009 Y-0.4850
G01 X12.2233 Y-0.4751
G01 X12.2366 Y-0.4687
G01 X12.2582 Y-0.4571
G01 X12.2709 Y-0.4497
G01 X12.2917 Y-0.4365
G01 X12.3117 Y-0.4224
G01 X12.3235 Y-0.4135
G01 X12.3425 Y-0.3979
G01 X12.3535 Y-0.3882
G01 X12.3625 Y-0.3798
G01 X12.3798 Y-0.3625
G01 X12.3898 Y-0.3516
G01 X12.4058 Y-0.3331
G01 X12.4209 Y-0.3137
G01 X12.4296 Y-0.3018
G01 X12.4432 Y-0.2814
G01 X12.4497 Y-0.2709
G01 X12.4630 Y-0.2475
G01 X12.4741 Y-0.2256
G01 X12.4802 Y-0.2122
G01 X12.4850 Y-0.2009
G01 X12.4939 Y-0.1780
G01 X12.5024 Y-0.1524
G01 X12.5095 Y-0.1264
G01 X12.5149 Y-0.1024
G01 X12.5191 Y-0.0782
G01 X12.5225 Y-0.0515
G01 X12.5244 Y-0.0245
G01 X12.5250 Y0.0000
G01 X12.5250 Y19.5000
G01 X12.5243 Y19.5270
G01 X12.5225 Y19.5515
G01 X12.5211 Y19.5637
G01 X12.5191 Y19.5782
G01 X12.5149 Y19.6024
G01 X12.5095 Y19.6264
G01 X12.5058 Y19.6406
G01 X12.4987 Y19.6641
G01 X12.4939 Y19.6780
G01 X12.4850 Y19.7009
G01 X12.4751 Y19.7233
G01 X12.4687 Y19.7366
G01 X12.4571 Y19.7582
G01 X12.4497 Y19.7709
G01 X12.4365 Y19.7917
G01 X12.4224 Y19.8117
G01 X12.4058 Y19.8331
G01 X12.3898 Y19.8516
G01 X12.3798 Y19.8625
G01 X9.8712 Y22.3712
G01 X9.8535 Y22.3882
G01 X9.8331 Y22.4058
G01 X9.8117 Y22.4224
G01 X9.7917 Y22.4365
G01 X9.7709 Y22.4497
G01 X9.7475 Y22.4630
G01 X9.7256 Y22.4741
G01 X9.7122 Y22.4802
G01 X9.6895 Y22.4896
G01 X9.6780 Y22.4939
G01 X9.6524 Y22.5024
G01 X9.6264 Y22.5095
G01 X9.6024 Y22.5149
G01 X9.5782 Y22.5191
G01 X9.5515 Y22.5225
G01 X9.5245 Y22.5244
G01 X9.5000 Y22.5250
G01 X-0.0123 Y22.5249
G01 X-0.0270 Y22.5243
G01 X-0.0515 Y22.5225
G01 X-0.0782 Y22.5191
G01 X-0.1024 Y22.5149
G01 X-0.1144 Y22.5124
G01 X-0.1288 Y22.5090
G01 X-0.1524 Y22.5024
G01 X-0.1757 Y22.4947
G01 X-0.1895 Y22.4896
G01 X-0.2122 Y22.4802
G01 X-0.2233 Y22.4751
G01 X-0.2366 Y22.4687
G01 X-0.2582 Y22.4571
G01 X-0.2709 Y22.4497
G01 X-0.2917 Y22.4365
G01 X-0.3117 Y22.4224
G01 X-0.3235 Y22.4135
G01 X-0.3425 Y22.3979
G01 X-0.3535 Y22.3882
G01 X-0.3712 Y22.3712
G01 X-0.3798 Y22.3625
G01 X-0.3898 Y22.3516
G01 X-0.4058 Y22.3331
G01 X-0.4209 Y22.3137
G01 X-0.4296 Y22.3018
G01 X-0.4365 Y22.2917
G01 X-0.4497 Y22.2709
G01 X-0.4630 Y22.2475
G01 X-0.4741 Y22.2256
G01 X-0.4802 Y22.2122
G01 X-0.4850 Y22.2009
G01 X-0.4939 Y22.1780
G01 X-0.5024 Y22.1524
G01 X-0.5095 Y22.1264
G01 X-0.5149 Y22.1024
G01 X-0.5191 Y22.0782
G01 X-0.5225 Y22.0515
G01 X-0.5244 Y22.0245
G01 X-0.5250 Y22.0000
G01 X-0.5250 Y0.0000
G01 X-0.5244 Y-0.0245
G00 X-0.5244 Y-0.0245
G01 F30.00
G01 Z-0.9000
G01 F60.00
G01 X-0.5235 Y-0.0392
G01 X-0.5211 Y-0.0637
G01 X-0.5172 Y-0.0904
G01 X-0.5124 Y-0.1144
G01 X-0.5058 Y-0.1406
G01 X-0.4987 Y-0.1641
G01 X-0.4896 Y-0.1895
G01 X-0.4802 Y-0.2122
G01 X-0.4741 Y-0.2256
G01 X-0.4630 Y-0.2475
G01 X-0.4497 Y-0.2709
G01 X-0.4365 Y-0.2917
G01 X-0.4224 Y-0.3117
G01 X-0.4058 Y-0.3331
G01 X-0.3882 Y-0.3535
G01 X-0.3712 Y-0.3712
G01 X-0.3516 Y-0.3898
G01 X-0.3331 Y-0.4058
G01 X-0.3117 Y-0.4224
G01 X-0.2917 Y-0.4365
G01 X-0.2709 Y-0.4497
G01 X-0.2475 Y-0.4630
G01 X-0.2233 Y-0.4751
G01 X-0.2009 Y-0.4850
G01 X-0.1780 Y-0.4939
G01 X-0.1524 Y-0.5024
G01 X-0.1264 Y-0.5095
G01 X-0.1024 Y-0.5149
G01 X-0.0782 Y-0.5191
G01 X-0.0515 Y-0.5225
G01 X-0.0270 Y-0.5243
G01 X-0.0123 Y-0.5249
G01 X12.0123 Y-0.5249
G01 X12.0270 Y-0.5243
G01 X12.0515 Y-0.5225
G01 X12.0782 Y-0.5191
G01 X12.0904 Y-0.5172
G01 X12.1144 Y-0.5124
G01 X12.1288 Y-0.5090
G01 X12.1524 Y-0.5024
G01 X12.1757 Y-0.4947
G01 X12.1895 Y-0.4896
G01 X12.2009 Y-0.4850
G01 X12.2233 Y-0.4751
G01 X12.2366 Y-0.4687
G01 X12.2582 Y-0.4571
G01 X12.2709 Y-0.4497
G01 X12.2917 Y-0.4365
G01 X12.3117 Y-0.4224
G01 X12.3235 Y-0.4135
G01 X12.3425 Y-0.3979
G01 X12.3535 Y-0.3882
G01 X12.3625 Y-0.3798
G01 X12.3798 Y-0.3625
G01 X12.3898 Y-0.3516
G01 X12.4058 Y-0.3331
G01 X12.4209 Y-0.3137
G01 X12.4296 Y-0.3018
G01 X12.4432 Y-0.2814
G01 X12.4497 Y-0.2709
G01 X12.4630 Y-0.2475
G01 X12.4741 Y-0.2256
G01 X12.4802 Y-0.2122
G01 X12.4850 Y-0.2009
G01 X12.4939 Y-0.1780
G01 X12.5024 Y-0.1524
G01 X12.5095 Y-0.1264
G01 X12.5149 Y-0.1024
G01 X12.5191 Y-0.0782
G01 X12.5225 Y-0.0515
G01 X12.5244 Y-0.0245
G01 X12.5250 Y0.0000
G01 X12.5250 Y19.5000
G01 X12.5243 Y19.5270
G01 X12.5225 Y19.5515
G01 X12.5211 Y19.5637
G01 X12.5191 Y19.5782
G01 X12.5149 Y19.6024
G01 X12.5095 Y19.6264
G01 X12.5058 Y19.6406
G01 X12.4987 Y19.6641
G01 X12.4939 Y19.6780
G01 X12.4850 Y19.7009
G01 X12.4751 Y19.7233
G01 X12.4687 Y19.7366
G01 X12.4571 Y19.7582
G01 X12.4497 Y19.7709
G01 X12.4365 Y19.7917
G01 X12.4224 Y19.8117
G01 X12.4058 Y19.8331
G01 X12.3898 Y19.8516
G01 X12.3798 Y19.8625
G01 X9.8712 Y22.3712
G01 X9.8535 Y22.3882
G01 X9.8331 Y22.4058
G01 X9.8117 Y22.4224
G01 X9.7917 Y22.4365
G01 X9.7709 Y22.4497
G01 X9.7475 Y22.4630
G01 X9.7256 Y22.4741
G01 X9.7122 Y22.4802
G01 X9.6895 Y22.4896
G01 X9.6780 Y22.4939
G01 X9.6524 Y22.5024
G01 X9.6264 Y22.5095
G01 X9.6024 Y22.5149
G01 X9.5782 Y22.5191
G01 X9.5515 Y22.5225
G01 X9.5245 Y22.5244
G01 X9.5000 Y22.5250
G01 X-0.0123 Y22.5249
G01 X-0.0270 Y22.5243
G01 X-0.0515 Y22.5225
G01 X-0.0782 Y22.5191
G01 X-0.1024 Y22.5149
G01 X-0.1144 Y22.5124
G01 X-0.1288 Y22.5090
G01 X-0.1524 Y22.5024
G01 X-0.1757 Y22.4947
G01 X-0.1895 Y22.4896
G01 X-0.2122 Y22.4802
G01 X-0.2233 Y22.4751
G01 X-0.2366 Y22.4687
G01 X-0.2582 Y22.4571
G01 X-0.2709 Y22.4497
G01 X-0.2917 Y22.4365
G01 X-0.3117 Y22.4224
G01 X-0.3235 Y22.4135
G01 X-0.3425 Y22.3979
G01 X-0.3535 Y22.3882
G01 X-0.3712 Y22.3712
G01 X-0.3798 Y22.3625
G01 X-0.3898 Y22.3516
G01 X-0.4058 Y22.3331
G01 X-0.4209 Y22.3137
G01 X-0.4296 Y22.3018
G01 X-0.4365 Y22.2917
G01 X-0.4497 Y22.2709
G01 X-0.4630 Y22.2475
G01 X-0.4741 Y22.2256
G01 X-0.4802 Y22.2122
G01 X-0.4850 Y22.2009
G01 X-0.4939 Y22.1780
G01 X-0.5024 Y22.1524
G01 X-0.5095 Y22.1264
G01 X-0.5149 Y22.1024
G01 X-0.5191 Y22.0782
G01 X-0.5225 Y22.0515
G01 X-0.5244 Y22.0245
G01 X-0.5250 Y22.0000
G01 X-0.5250 Y0.0000
G01 X-0.5244 Y-0.0245
G00 X-0.5244 Y-0.0245
G01 F30.00
G01 Z-1.1000
G01 F60.00
G01 X-0.5235 Y-0.0392
G01 X-0.5211 Y-0.0637
G01 X-0.5172 Y-0.0904
G01 X-0.5124 Y-0.1144
G01 X-0.5058 Y-0.1406
G01 X-0.4987 Y-0.1641
G01 X-0.4896 Y-0.1895
G01 X-0.4802 Y-0.2122
G01 X-0.4741 Y-0.2256
G01 X-0.4630 Y-0.2475
G01 X-0.4497 Y-0.2709
G01 X-0.4365 Y-0.2917
G01 X-0.4224 Y-0.3117
G01 X-0.4058 Y-0.3331
G01 X-0.3882 Y-0.3535
G01 X-0.3712 Y-0.3712
G01 X-0.3516 Y-0.3898
G01 X-0.3331 Y-0.4058
G01 X-0.3117 Y-0.4224
G01 X-0.2917 Y-0.4365
G01 X-0.2709 Y-0.4497
G01 X-0.2475 Y-0.4630
G01 X-0.2233 Y-0.4751
G01 X-0.2009 Y-0.4850
G01 X-0.1780 Y-0.4939
G01 X-0.1524 Y-0.5024
G01 X-0.1264 Y-0.5095
G01 X-0.1024 Y-0.5149
G01 X-0.0782 Y-0.5191
G01 X-0.0515 Y-0.5225
G01 X-0.0270 Y-0.5243
G01 X-0.0123 Y-0.5249
G01 X12.0123 Y-0.5249
G01 X12.0270 Y-0.5243
G01 X12.0515 Y-0.5225
G01 X12.0782 Y-0.5191
G01 X12.0904 Y-0.5172
G01 X12.1144 Y-0.5124
G01 X12.1288 Y-0.5090
G01 X12.1524 Y-0.5024
G01 X12.1757 Y-0.4947
G01 X12.1895 Y-0.4896
G01 X12.2009 Y-0.4850
G01 X12.2233 Y-0.4751
G01 X12.2366 Y-0.4687
G01 X12.2582 Y-0.4571
G01 X12.2709 Y-0.4497
G01 X12.2917 Y-0.4365
G01 X12.3117 Y-0.4224
G01 X12.3235 Y-0.4135
G01 X12.3425 Y-0.3979
G01 X12.3535 Y-0.3882
G01 X12.3625 Y-0.3798
G01 X12.3798 Y-0.3625
G01 X12.3898 Y-0.3516
G01 X12.4058 Y-0.3331
G01 X12.4209 Y-0.3137
G01 X12.4296 Y-0.3018
G01 X12.4432 Y-0.2814
G01 X12.4497 Y-0.2709
G01 X12.4630 Y-0.2475
G01 X12.4741 Y-0.2256
G01 X12.4802 Y-0.2122
G01 X12.4850 Y-0.2009
G01 X12.4939 Y-0.1780
G01 X12.5024 Y-0.1524
G01 X12.5095 Y-0.1264
G01 X12.5149 Y-0.1024
G01 X12.5191 Y-0.0782
G01 X12.5225 Y-0.0515
G01 X12.5244 Y-0.0245
G01 X12.5250 Y0.0000
G01 X12.5250 Y19.5000
G01 X12.5243 Y19.5270
G01 X12.5225 Y19.5515
G01 X12.5211 Y19.5637
G01 X12.5191 Y19.5782
G01 X12.5149 Y19.6024
G01 X12.5095 Y19.6264
G01 X12.5058 Y19.6406
G01 X12.4987 Y19.6641
G01 X12.4939 Y19.6780
G01 X12.4850 Y19.7009
G01 X12.4751 Y19.7233
G01 X12.4687 Y19.7366
G01 X12.4571 Y19.7582
G01 X12.4497 Y19.7709
G01 X12.4365 Y19.7917
G01 X12.4224 Y19.8117
G01 X12.4058 Y19.8331
G01 X12.3898 Y19.8516
G01 X12.3798 Y19.8625
G01 X9.8712 Y22.3712
G01 X9.8535 Y22.3882
G01 X9.8331 Y22.4058
G01 X9.8117 Y22.4224
G01 X9.7917 Y22.4365
G01 X9.7709 Y22.4497
G01 X9.7475 Y22.4630
G01 X9.7256 Y22.4741
G01 X9.7122 Y22.4802
G01 X9.6895 Y22.4896
G01 X9.6780 Y22.4939
G01 X9.6524 Y22.5024
G01 X9.6264 Y22.5095
G01 X9.6024 Y22.5149
G01 X9.5782 Y22.5191
G01 X9.5515 Y22.5225
G01 X9.5245 Y22.5244
G01 X9.5000 Y22.5250
G01 X-0.0123 Y22.5249
G01 X-0.0270 Y22.5243
G01 X-0.0515 Y22.5225
G01 X-0.0782 Y22.5191
G01 X-0.1024 Y22.5149
G01 X-0.1144 Y22.5124
G01 X-0.1288 Y22.5090
G01 X-0.1524 Y22.5024
G01 X-0.1757 Y22.4947
G01 X-0.1895 Y22.4896
G01 X-0.2122 Y22.4802
G01 X-0.2233 Y22.4751
G01 X-0.2366 Y22.4687
G01 X-0.2582 Y22.4571
G01 X-0.2709 Y22.4497
G01 X-0.2917 Y22.4365
G01 X-0.3117 Y22.4224
G01 X-0.3235 Y22.4135
G01 X-0.3425 Y22.3979
G01 X-0.3535 Y22.3882
G01 X-0.3712 Y22.3712
G01 X-0.3798 Y22.3625
G01 X-0.3898 Y22.3516
G01 X-0.4058 Y22.3331
G01 X-0.4209 Y22.3137
G01 X-0.4296 Y22.3018
G01 X-0.4365 Y22.2917
G01 X-0.4497 Y22.2709
G01 X-0.4630 Y22.2475
G01 X-0.4741 Y22.2256
G01 X-0.4802 Y22.2122
G01 X-0.4850 Y22.2009
G01 X-0.4939 Y22.1780
G01 X-0.5024 Y22.1524
G01 X-0.5095 Y22.1264
G01 X-0.5149 Y22.1024
G01 X-0.5191 Y22.0782
G01 X-0.5225 Y22.0515
G01 X-0.5244 Y22.0245
G01 X-0.5250 Y22.0000
G01 X-0.5250 Y0.0000
G01 X-0.5244 Y-0.0245
G00 Z2.0000
(Block-name: block)
(Block-expand: 0)
(Block-enable: 1)
M05
G00 Z2.0000
G00 Z15.00
